;FLAVOR:Marlin
;TIME:8082
;Filament used: 10.6359m
;Layer height: 0.3
;Generated with Cura_SteamEngine 3.4.1
M104 S195
M109 S195
M82 ;absolute extrusion mode
G21 ;metric values
G90 ;absolute positioning
M82 ;set extruder to absolute mode
M107 ;start with the fan off
G28 X0 Y0 ;move X/Y to min endstops
G28 Z0;
G29;
G1 Z15.0 F9000 ;move the platform down 15mm
G92 E0 ;zero the extruded length
G1 F200 E3 ;extrude 3mm of feed stock
G92 E0 ;zero the extruded length again
G1 F9000
;Put printing message on LCD screen
M117 Printing...
G92 E0
G1 F1500 E-6.5
;LAYER_COUNT:21
;LAYER:0
M107
G0 F3600 X39.324 Y54.539 Z0.3
;TYPE:SKIRT
G1 F1500 E0
G1 X39.789 Y54.218 E0.02819
G1 X40.074 Y54.065 E0.04433
G1 X41.002 Y53.614 E0.0958
G1 X41.526 Y53.404 E0.12397
G1 X42.08 Y53.269 E0.15242
G1 X43.216 Y53.076 E0.2099
G1 X43.885 Y53.019 E0.2434
G1 X155.292 Y53 E5.80152
G1 X155.473 Y53.004 E5.81055
G1 X156.808 Y53.064 E5.87722
G1 X157.369 Y53.129 E5.9054
G1 X157.839 Y53.248 E5.92959
G1 X158.919 Y53.591 E5.98612
G1 X159.444 Y53.799 E6.01429
G1 X159.792 Y53.989 E6.03407
G1 X160.536 Y54.443 E6.07756
G1 X161.094 Y54.854 E6.11213
G1 X161.476 Y55.19 E6.13751
G1 X161.786 Y55.494 E6.15917
G1 X165.93 Y60.026 E6.46555
G1 X169.812 Y63.806 E6.73587
G1 X173.94 Y67.39 E7.00861
G1 X176.036 Y69.061 E7.14234
G1 X179.416 Y71.596 E7.35313
G1 X179.652 Y71.788 E7.36831
G1 X180.299 Y72.355 E7.41123
G1 X180.708 Y72.769 E7.44026
G1 X181.501 Y73.7 E7.50127
G1 X181.954 Y74.354 E7.54097
G1 X182.851 Y75.971 E7.63322
G1 X183.15 Y76.652 E7.67033
G1 X183.54 Y77.828 E7.73214
G1 X183.682 Y78.393 E7.7612
G1 X183.875 Y79.489 E7.81672
G1 X183.931 Y79.989 E7.84183
G1 X183.995 Y81.306 E7.90761
G1 X184 Y81.543 E7.91943
G1 X183.957 Y85.586 E8.12115
G1 X183.917 Y86.109 E8.14732
G1 X183.749 Y87.285 E8.20659
G1 X183.608 Y87.907 E8.23841
G1 X183.212 Y89.18 E8.30492
G1 X182.989 Y89.744 E8.33518
G1 X182.496 Y90.756 E8.39134
G1 X182.204 Y91.259 E8.42035
G1 X179.953 Y94.558 E8.61961
G1 X177.031 Y99.175 E8.8922
G1 X174.388 Y103.929 E9.16357
G1 X172.027 Y108.805 E9.43385
G1 X169.937 Y113.827 E9.70523
G1 X168.141 Y118.941 E9.97565
G1 X166.622 Y124.199 E10.2487
G1 X165.983 Y126.818 E10.38319
G1 X165.43 Y129.417 E10.51576
G1 X164.512 Y134.826 E10.78948
G1 X163.914 Y140.085 E11.05354
G1 X163.83 Y140.566 E11.0779
G1 X163.711 Y141.062 E11.10335
G1 X163.54 Y141.601 E11.13156
G1 X163.414 Y141.886 E11.1471
G1 X162.817 Y143.107 E11.21491
G1 X162.534 Y143.596 E11.2431
G1 X162.056 Y144.175 E11.28056
G1 X161.19 Y145.043 E11.34173
G1 X160.763 Y145.414 E11.36995
G1 X160.448 Y145.629 E11.38898
G1 X159.885 Y145.974 E11.42192
G1 X159.317 Y146.262 E11.45369
G1 X158.753 Y146.494 E11.48412
G1 X158.216 Y146.672 E11.51234
G1 X157.862 Y146.745 E11.53037
G1 X156.667 Y146.936 E11.59075
G1 X156.034 Y146.986 E11.62243
G1 X43.37 Y146.94 E17.24326
G1 X42.806 Y146.9 E17.27147
G1 X42.161 Y146.752 E17.30448
G1 X41.081 Y146.409 E17.36102
G1 X40.556 Y146.201 E17.38919
G1 X40.208 Y146.011 E17.40897
G1 X39.464 Y145.557 E17.45245
G1 X38.903 Y145.144 E17.48721
G1 X38.515 Y144.802 E17.51301
G1 X38.033 Y144.295 E17.54791
G1 X37.536 Y143.672 E17.58767
G1 X37.216 Y143.207 E17.61584
G1 X37.067 Y142.93 E17.63153
G1 X36.615 Y142.002 E17.68303
G1 X36.329 Y141.213 E17.7249
G1 X36.201 Y140.697 E17.75142
G1 X36.108 Y140.179 E17.77768
G1 X35.6 Y135.645 E18.00529
G1 X34.73 Y130.241 E18.27837
G1 X34.193 Y127.614 E18.41214
G1 X33.578 Y124.993 E18.54646
G1 X32.108 Y119.735 E18.81884
G1 X30.355 Y114.605 E19.08931
G1 X28.308 Y109.566 E19.36065
G1 X25.984 Y104.663 E19.63135
G1 X23.378 Y99.879 E19.90314
G1 X20.499 Y95.244 E20.17536
G1 X17.549 Y90.836 E20.43998
G1 X17.176 Y90.139 E20.47942
G1 X16.711 Y89.014 E20.54015
G1 X16.501 Y88.343 E20.57523
G1 X16.171 Y86.839 E20.65205
G1 X16.086 Y86.24 E20.68223
G1 X16.012 Y85.094 E20.73953
G1 X16.004 Y84.823 E20.75305
G1 X16.017 Y80.825 E20.95251
G1 X16.041 Y80.403 E20.9736
G1 X16.19 Y79.04 E21.04201
G1 X16.323 Y78.365 E21.07633
G1 X16.707 Y77.035 E21.1454
G1 X16.875 Y76.565 E21.1703
G1 X17.213 Y75.779 E21.21298
G1 X17.48 Y75.264 E21.24192
G1 X18.128 Y74.21 E21.30365
G1 X18.49 Y73.712 E21.33437
G1 X19.297 Y72.764 E21.39648
G1 X19.876 Y72.209 E21.43649
G1 X26.569 Y66.964 E21.86072
G1 X28.573 Y65.253 E21.99219
G1 X32.594 Y61.508 E22.26633
G1 X36.388 Y57.556 E22.53965
G1 X38.201 Y55.512 E22.67596
G1 X38.695 Y55.042 E22.70997
G1 X39.324 Y54.539 E22.75016
G0 F3600 X39.574 Y54.851
G1 F1500 X40.248 Y54.425 E22.78993
G1 X41.176 Y53.974 E22.84141
G1 X41.675 Y53.776 E22.86819
G1 X42.147 Y53.663 E22.89241
G1 X43.283 Y53.47 E22.9499
G1 X43.885 Y53.419 E22.98004
G1 X155.292 Y53.4 E28.53815
G1 X155.455 Y53.404 E28.54629
G1 X156.79 Y53.464 E28.61296
G1 X157.322 Y53.528 E28.63969
G1 X157.718 Y53.629 E28.66008
G1 X158.798 Y53.972 E28.71662
G1 X159.295 Y54.172 E28.74334
G1 X159.583 Y54.33 E28.75973
G1 X160.327 Y54.784 E28.80321
G1 X160.83 Y55.154 E28.83437
G1 X161.212 Y55.49 E28.85975
G1 X161.491 Y55.764 E28.87926
G1 X165.638 Y60.3 E29.18588
G1 X169.554 Y64.111 E29.4585
G1 X173.674 Y67.69 E29.73077
G1 X175.793 Y69.378 E29.86593
G1 X179.176 Y71.916 E30.07693
G1 X179.389 Y72.089 E30.09062
G1 X180.036 Y72.656 E30.13354
G1 X180.404 Y73.029 E30.15968
G1 X181.197 Y73.96 E30.22069
G1 X181.604 Y74.548 E30.25637
G1 X182.501 Y76.165 E30.34862
G1 X182.77 Y76.778 E30.38202
G1 X183.16 Y77.954 E30.44383
G1 X183.288 Y78.463 E30.47002
G1 X183.481 Y79.559 E30.52554
G1 X183.532 Y80.008 E30.54808
G1 X183.596 Y81.325 E30.61387
G1 X183.6 Y81.538 E30.62449
G1 X183.557 Y85.581 E30.82621
G1 X183.521 Y86.052 E30.84978
G1 X183.353 Y87.228 E30.90905
G1 X183.227 Y87.788 E30.93768
G1 X182.831 Y89.061 E31.00419
G1 X182.629 Y89.569 E31.03147
G1 X182.136 Y90.581 E31.08763
G1 X181.873 Y91.033 E31.11372
G1 X179.63 Y94.32 E31.31225
G1 X176.686 Y98.973 E31.58695
G1 X174.035 Y103.74 E31.85908
G1 X171.662 Y108.641 E32.13075
G1 X169.566 Y113.677 E32.40289
G1 X167.759 Y118.824 E32.67504
G1 X166.239 Y124.085 E32.94825
G1 X165.588 Y126.753 E33.08526
G1 X165.033 Y129.358 E33.21814
G1 X164.119 Y134.75 E33.49098
G1 X163.517 Y140.04 E33.75661
G1 X163.441 Y140.473 E33.77854
G1 X163.322 Y140.969 E33.80399
G1 X163.055 Y141.71 E33.84328
G1 X162.458 Y142.931 E33.91109
G1 X162.187 Y143.394 E33.93786
G1 X161.773 Y143.893 E33.9702
G1 X160.907 Y144.761 E34.03137
G1 X160.501 Y145.111 E34.05812
G1 X160.239 Y145.288 E34.07389
G1 X159.676 Y145.633 E34.10683
G1 X159.165 Y145.892 E34.13542
G1 X158.601 Y146.124 E34.16584
G1 X158.091 Y146.291 E34.19262
G1 X157.799 Y146.35 E34.20748
G1 X156.604 Y146.541 E34.26785
G1 X156.035 Y146.586 E34.29633
G1 X43.371 Y146.54 E39.91716
G1 X42.836 Y146.5 E39.94393
G1 X42.282 Y146.371 E39.9723
G1 X41.202 Y146.028 E40.02884
G1 X40.705 Y145.828 E40.05557
G1 X40.417 Y145.67 E40.07195
G1 X39.673 Y145.216 E40.11544
G1 X39.168 Y144.844 E40.14673
G1 X38.78 Y144.502 E40.17253
G1 X38.346 Y144.046 E40.20394
G1 X37.849 Y143.423 E40.2437
G1 X37.426 Y142.754 E40.28319
G1 X36.974 Y141.826 E40.33469
G1 X36.717 Y141.117 E40.37231
G1 X36.589 Y140.601 E40.39883
G1 X36.505 Y140.135 E40.42246
G1 X35.994 Y135.576 E40.65133
G1 X35.124 Y130.171 E40.92446
G1 X34.587 Y127.548 E41.05804
G1 X33.963 Y124.886 E41.19444
G1 X32.492 Y119.624 E41.46703
G1 X30.723 Y114.446 E41.74002
G1 X28.676 Y109.408 E42.01132
G1 X26.337 Y104.471 E42.28388
G1 X23.731 Y99.69 E42.55553
G1 X20.839 Y95.032 E42.82907
G1 X17.881 Y90.613 E43.09437
G1 X17.546 Y89.986 E43.12983
G1 X17.081 Y88.861 E43.19057
G1 X16.892 Y88.258 E43.22209
G1 X16.562 Y86.754 E43.29891
G1 X16.485 Y86.214 E43.32613
G1 X16.411 Y85.068 E43.38342
G1 X16.404 Y84.824 E43.3956
G1 X16.417 Y80.826 E43.59506
G1 X16.438 Y80.447 E43.614
G1 X16.587 Y79.084 E43.6824
G1 X16.707 Y78.476 E43.71332
G1 X17.091 Y77.146 E43.78239
G1 X17.243 Y76.723 E43.80481
G1 X17.581 Y75.937 E43.8475
G1 X17.821 Y75.474 E43.87351
G1 X18.469 Y74.42 E43.93524
G1 X18.795 Y73.971 E43.96292
G1 X19.602 Y73.023 E44.02504
G1 X20.122 Y72.523 E44.06103
G1 X26.83 Y67.266 E44.48622
G1 X28.858 Y65.534 E44.61927
G1 X32.874 Y61.795 E44.89302
G1 X36.669 Y57.841 E45.16645
G1 X38.5 Y55.777 E45.3041
G1 X38.945 Y55.354 E45.33473
G1 X39.574 Y54.851 E45.37491
G0 F3600 X39.823 Y55.164
G1 F1500 X40.423 Y54.785 E45.41032
G1 X41.351 Y54.334 E45.46179
G1 X41.822 Y54.15 E45.48702
G1 X42.214 Y54.057 E45.50712
G1 X43.35 Y53.864 E45.56461
G1 X43.885 Y53.819 E45.59139
G1 X155.292 Y53.8 E51.14951
G1 X155.437 Y53.803 E51.15675
G1 X156.772 Y53.863 E51.22342
G1 X157.273 Y53.926 E51.24861
G1 X157.597 Y54.01 E51.26531
G1 X158.677 Y54.353 E51.32184
G1 X159.145 Y54.544 E51.34706
G1 X159.375 Y54.671 E51.36017
G1 X160.119 Y55.125 E51.40365
G1 X160.565 Y55.454 E51.4313
G1 X160.947 Y55.79 E51.45668
G1 X161.196 Y56.034 E51.47408
G1 X165.355 Y60.583 E51.78158
G1 X169.277 Y64.4 E52.05462
G1 X173.421 Y68 E52.32849
G1 X175.549 Y69.695 E52.46421
G1 X178.936 Y72.236 E52.67546
G1 X179.125 Y72.389 E52.68759
G1 X179.772 Y72.956 E52.73051
G1 X180.099 Y73.288 E52.75376
G1 X180.892 Y74.219 E52.81477
G1 X181.254 Y74.742 E52.84651
G1 X182.151 Y76.359 E52.93876
G1 X182.39 Y76.904 E52.96845
G1 X182.78 Y78.08 E53.03026
G1 X182.895 Y78.532 E53.05353
G1 X183.088 Y79.628 E53.10905
G1 X183.132 Y80.028 E53.12913
G1 X183.196 Y81.345 E53.19491
G1 X183.2 Y81.534 E53.20434
G1 X183.157 Y85.577 E53.40606
G1 X183.125 Y85.996 E53.42703
G1 X182.957 Y87.172 E53.48629
G1 X182.845 Y87.67 E53.51176
G1 X182.449 Y88.943 E53.57827
G1 X182.27 Y89.393 E53.60243
G1 X181.777 Y90.405 E53.65859
G1 X181.543 Y90.808 E53.68184
G1 X179.286 Y94.116 E53.88163
G1 X176.345 Y98.764 E54.15604
G1 X173.68 Y103.556 E54.4296
G1 X171.29 Y108.492 E54.70321
G1 X169.192 Y113.533 E54.97562
G1 X167.377 Y118.702 E55.24894
G1 X165.853 Y123.976 E55.52282
G1 X165.204 Y126.64 E55.65962
G1 X164.641 Y129.282 E55.79439
G1 X163.723 Y134.692 E56.06815
G1 X163.12 Y139.995 E56.33442
G1 X163.052 Y140.38 E56.35393
G1 X162.933 Y140.876 E56.37938
G1 X162.696 Y141.535 E56.41431
G1 X162.099 Y142.756 E56.48212
G1 X161.842 Y143.191 E56.50733
G1 X161.489 Y143.61 E56.53466
G1 X160.623 Y144.478 E56.59583
G1 X160.03 Y144.946 E56.63352
G1 X159.467 Y145.291 E56.66646
G1 X159.012 Y145.522 E56.69192
G1 X158.448 Y145.754 E56.72235
G1 X157.736 Y145.955 E56.75926
G1 X156.541 Y146.146 E56.81963
G1 X156.035 Y146.186 E56.84496
G1 X43.371 Y146.14 E62.46579
G1 X42.867 Y146.1 E62.49101
G1 X42.403 Y145.99 E62.5148
G1 X41.323 Y145.647 E62.57134
G1 X40.855 Y145.456 E62.59655
G1 X40.625 Y145.329 E62.60966
G1 X39.881 Y144.875 E62.65315
G1 X39.432 Y144.544 E62.68097
G1 X39.044 Y144.202 E62.70678
G1 X38.658 Y143.797 E62.73469
G1 X38.161 Y143.174 E62.77445
G1 X37.786 Y142.579 E62.80954
G1 X37.334 Y141.651 E62.86104
G1 X37.105 Y141.02 E62.89453
G1 X36.977 Y140.504 E62.92105
G1 X36.903 Y140.09 E62.94203
G1 X36.392 Y135.533 E63.17081
G1 X35.517 Y130.097 E63.4455
G1 X34.976 Y127.449 E63.58034
G1 X34.356 Y124.806 E63.71578
G1 X32.87 Y119.492 E63.99107
G1 X31.104 Y114.324 E64.26354
G1 X29.037 Y109.237 E64.53748
G1 X26.695 Y104.295 E64.81032
G1 X24.072 Y99.48 E65.08387
G1 X21.174 Y94.813 E65.35795
G1 X18.214 Y90.391 E65.62343
G1 X17.916 Y89.833 E65.65499
G1 X17.451 Y88.708 E65.71572
G1 X17.282 Y88.172 E65.74376
G1 X16.952 Y86.668 E65.82058
G1 X16.885 Y86.188 E65.84476
G1 X16.811 Y85.042 E65.90205
G1 X16.804 Y84.826 E65.91283
G1 X16.817 Y80.828 E66.1123
G1 X16.836 Y80.49 E66.12918
G1 X16.985 Y79.127 E66.19759
G1 X17.092 Y78.587 E66.22505
G1 X17.476 Y77.257 E66.29412
G1 X17.61 Y76.881 E66.31403
G1 X17.948 Y76.095 E66.35672
G1 X18.162 Y75.683 E66.37988
G1 X18.81 Y74.629 E66.44161
G1 X19.099 Y74.231 E66.46615
G1 X19.906 Y73.283 E66.52826
G1 X20.369 Y72.838 E66.5603
G1 X27.079 Y67.579 E66.98563
G1 X29.12 Y65.836 E67.11953
G1 X33.152 Y62.083 E67.39435
G1 X36.961 Y58.114 E67.66879
G1 X38.799 Y56.042 E67.80698
G1 X39.194 Y55.667 E67.83415
G1 X39.823 Y55.164 E67.87433
G1 F1500 E61.37433
G0 F3600 X41.339 Y57.175
G0 X42.011 Y58.269
G0 X41.701 Y61.848
;TYPE:WALL-INNER
G1 F1500 E67.87433
G1 X41.647 Y62.5 E67.90697
G1 X41.701 Y63.152 E67.93961
G1 X41.868 Y63.784 E67.97222
G1 X42.137 Y64.38 E68.00485
G1 X42.503 Y64.92 E68.03739
G1 X42.954 Y65.392 E68.06996
G1 X43.48 Y65.782 E68.10263
G1 X44.062 Y66.076 E68.13516
G1 X44.688 Y66.266 E68.1678
G1 X45.336 Y66.35 E68.2004
G1 X45.989 Y66.322 E68.23301
G1 X46.63 Y66.185 E68.26571
G1 X47.235 Y65.94 E68.29827
G1 X47.79 Y65.598 E68.3308
G1 X48.283 Y65.167 E68.36347
G1 X48.693 Y64.658 E68.39607
G1 X49.012 Y64.088 E68.42866
G1 X49.228 Y63.471 E68.46128
G1 X49.34 Y62.827 E68.49389
G1 X49.34 Y62.173 E68.52652
G1 X49.228 Y61.529 E68.55913
G1 X49.012 Y60.912 E68.59174
G1 X48.693 Y60.342 E68.62433
G1 X48.283 Y59.833 E68.65694
G1 X47.79 Y59.402 E68.68961
G1 X47.235 Y59.06 E68.72213
G1 X46.63 Y58.815 E68.7547
G1 X45.989 Y58.678 E68.7874
G1 X45.336 Y58.65 E68.82001
G1 X44.688 Y58.734 E68.8526
G1 X44.062 Y58.924 E68.88524
G1 X43.48 Y59.218 E68.91777
G1 X42.954 Y59.608 E68.95044
G1 X42.503 Y60.08 E68.98301
G1 X42.137 Y60.62 E69.01556
G1 X41.868 Y61.216 E69.04818
G1 X41.701 Y61.848 E69.08079
G0 F3600 X40.122 Y66.288
G0 X39.481 Y67.831
G0 X38.609 Y69.255
G0 X30.176 Y78.8
G1 F1500 X29.432 Y78.837 E69.11796
G1 X28.736 Y78.993 E69.15354
G1 X28.076 Y79.265 E69.18916
G1 X27.474 Y79.643 E69.22462
G1 X26.943 Y80.119 E69.2602
G1 X26.503 Y80.673 E69.29549
G1 X26.169 Y81.268 E69.32954
G1 X25.931 Y81.942 E69.3652
G1 X25.816 Y82.623 E69.39965
G1 X25.8 Y83 E69.41848
G1 X25.816 Y83.377 E69.4373
G1 X25.931 Y84.058 E69.47176
G1 X26.169 Y84.732 E69.50742
G1 X26.518 Y85.354 E69.543
G1 X26.965 Y85.909 E69.57856
G1 X27.5 Y86.38 E69.61412
G1 X28.107 Y86.752 E69.64964
G1 X28.768 Y87.02 E69.68522
G1 X29.467 Y87.169 E69.72088
G1 X30.179 Y87.2 E69.75643
G1 X30.886 Y87.108 E69.792
G1 X31.566 Y86.901 E69.82746
G1 X32.203 Y86.58 E69.86305
G1 X32.777 Y86.155 E69.89868
G1 X33.27 Y85.64 E69.93425
G1 X33.671 Y85.051 E69.9698
G1 X33.962 Y84.401 E70.00533
G1 X34.144 Y83.711 E70.04093
G1 X34.203 Y83 E70.07653
G1 X34.144 Y82.289 E70.11212
G1 X33.962 Y81.599 E70.14772
G1 X33.671 Y80.949 E70.18325
G1 X33.27 Y80.36 E70.2188
G1 X32.777 Y79.845 E70.25437
G1 X32.203 Y79.42 E70.29
G1 X31.566 Y79.099 E70.32559
G1 X30.886 Y78.892 E70.36105
G1 X30.176 Y78.8 E70.39677
G0 F3600 X32.013 Y79.728
G0 X32.538 Y80.116
G0 X32.989 Y80.587
G0 X33.354 Y81.126
G0 X33.621 Y81.72
G0 X40.122 Y99.712
G0 X40.51 Y101.336
G0 X40.582 Y102.264
G0 X41.701 Y136.848
G1 F1500 X41.647 Y137.5 E70.42941
G1 X41.701 Y138.152 E70.46205
G1 X41.868 Y138.784 E70.49466
G1 X42.137 Y139.38 E70.52729
G1 X42.503 Y139.92 E70.55983
G1 X42.954 Y140.392 E70.5924
G1 X43.48 Y140.782 E70.62507
G1 X44.062 Y141.076 E70.6576
G1 X44.688 Y141.266 E70.69024
G1 X45.336 Y141.35 E70.72284
G1 X45.989 Y141.322 E70.75545
G1 X46.63 Y141.185 E70.78815
G1 X47.235 Y140.94 E70.82071
G1 X47.79 Y140.598 E70.85324
G1 X48.283 Y140.167 E70.88591
G1 X48.693 Y139.658 E70.91851
G1 X49.012 Y139.088 E70.9511
G1 X49.228 Y138.471 E70.98372
G1 X49.34 Y137.827 E71.01633
G1 X49.34 Y137.173 E71.04896
G1 X49.228 Y136.529 E71.08157
G1 X49.012 Y135.912 E71.11418
G1 X48.693 Y135.342 E71.14677
G1 X48.283 Y134.833 E71.17938
G1 X47.79 Y134.402 E71.21205
G1 X47.235 Y134.06 E71.24457
G1 X46.63 Y133.815 E71.27714
G1 X45.989 Y133.678 E71.30984
G1 X45.336 Y133.65 E71.34245
G1 X44.688 Y133.734 E71.37505
G1 X44.062 Y133.924 E71.40768
G1 X43.48 Y134.218 E71.44021
G1 X42.954 Y134.608 E71.47288
G1 X42.503 Y135.08 E71.50545
G1 X42.137 Y135.62 E71.538
G1 X41.868 Y136.216 E71.57062
G1 X41.701 Y136.848 E71.60323
G0 F3600 X42.784 Y135.307
G0 X43.193 Y134.879
G0 X43.671 Y134.526
G0 X44.198 Y134.26
G0 X44.765 Y134.087
G0 X45.24 Y134.027
G0 X150.701 Y136.848
G1 F1500 X150.647 Y137.5 E71.63587
G1 X150.701 Y138.152 E71.66851
G1 X150.868 Y138.784 E71.70113
G1 X151.137 Y139.38 E71.73375
G1 X151.503 Y139.92 E71.76629
G1 X151.954 Y140.392 E71.79886
G1 X152.48 Y140.782 E71.83153
G1 X153.062 Y141.076 E71.86406
G1 X153.688 Y141.266 E71.8967
G1 X154.336 Y141.35 E71.9293
G1 X154.989 Y141.322 E71.96191
G1 X155.63 Y141.185 E71.99461
G1 X156.235 Y140.94 E72.02718
G1 X156.79 Y140.598 E72.0597
G1 X157.283 Y140.167 E72.09237
G1 X157.693 Y139.658 E72.12498
G1 X158.012 Y139.088 E72.15757
G1 X158.228 Y138.471 E72.19018
G1 X158.34 Y137.827 E72.22279
