;FLAVOR:Marlin
;TIME:7488
;Filament used: 13.8075m
;Layer height: 0.3
;Generated with Cura_SteamEngine 4.0.0
M104 S195
M105
M109 S195
M82 ;absolute extrusion mode
G21 ;metric values
G90 ;absolute positioning
M82 ;set extruder to absolute mode
M107 ;start with the fan off
G28 X0 Y0 ;move X/Y to min endstops
G28 Z0 ;move Z to min endstops
G29;
G1 Z15.0 F9000 ;move the platform down 15mm
G92 E0 ;zero the extruded length
G1 F200 E3 ;extrude 3mm of feed stock
G92 E0 ;zero the extruded length again
G1 F9000
;Put printing message on LCD screen
M117 Printing...
G92 E0
G1 F1500 E-6.5
;LAYER_COUNT:67
;LAYER:0
M107
G0 F3600 X56.139 Y82.137 Z0.3
;TYPE:SKIRT
G1 F1500 E0
G1 X59.498 Y79.9 E0.20134
G1 X60.029 Y79.592 E0.23197
G1 X62.809 Y78.199 E0.3871
G1 X63.268 Y77.997 E0.41212
G1 X65.997 Y76.957 E0.55782
G1 X66.487 Y76.799 E0.58351
G1 X69.514 Y75.99 E0.73983
G1 X70.02 Y75.882 E0.76564
G1 X73.083 Y75.395 E0.92037
G1 X73.628 Y75.339 E0.94771
G1 X76.976 Y75.178 E1.11493
G1 X77.51 Y75.181 E1.14157
G1 X80.597 Y75.363 E1.29585
G1 X81.097 Y75.417 E1.32094
G1 X83.996 Y75.883 E1.46743
G1 X84.372 Y75.959 E1.48657
G1 X90.666 Y77.474 E1.80955
G1 X93.267 Y77.979 E1.94173
G1 X95.877 Y78.405 E2.07367
G1 X101.251 Y79.057 E2.34375
G1 X106.61 Y79.4 E2.61165
G1 X111.984 Y79.44 E2.87977
G1 X117.352 Y79.176 E3.14791
G1 X122.697 Y78.608 E3.41607
G1 X128.022 Y77.736 E3.68527
G1 X130.589 Y77.204 E3.81606
G1 X135.8 Y75.926 E4.08375
G1 X136.22 Y75.842 E4.10511
G1 X139.097 Y75.393 E4.25039
G1 X139.628 Y75.339 E4.27701
G1 X142.976 Y75.178 E4.44424
G1 X143.51 Y75.181 E4.47088
G1 X146.597 Y75.363 E4.62516
G1 X147.097 Y75.417 E4.65025
G1 X149.996 Y75.883 E4.79674
G1 X150.551 Y76.005 E4.82509
G1 X154.028 Y76.979 E5.00523
G1 X154.511 Y77.142 E5.03067
G1 X157.149 Y78.181 E5.17212
G1 X157.619 Y78.395 E5.19788
G1 X160.416 Y79.846 E5.35508
G1 X160.846 Y80.096 E5.3799
G1 X163.279 Y81.683 E5.52482
G1 X163.695 Y81.987 E5.55053
G1 X166.106 Y83.941 E5.70536
G1 X166.477 Y84.273 E5.73019
G1 X168.221 Y86.001 E5.85268
G1 X168.39 Y86.177 E5.86485
G1 X169.181 Y87.041 E5.9233
G1 X169.429 Y87.333 E5.94241
G1 X171.35 Y89.785 E6.09781
G1 X171.653 Y90.218 E6.12418
G1 X173.32 Y92.884 E6.28105
G1 X173.573 Y93.339 E6.30702
G1 X174.94 Y96.136 E6.46234
G1 X175.132 Y96.583 E6.48661
G1 X176.127 Y99.247 E6.62848
G1 X176.282 Y99.739 E6.65422
G1 X177.069 Y102.768 E6.81035
G1 X177.174 Y103.277 E6.83628
G1 X177.64 Y106.357 E6.99169
G1 X177.69 Y106.857 E7.01676
G1 X177.834 Y109.76 E7.16177
G1 X177.833 Y110.269 E7.18716
G1 X177.671 Y113.372 E7.34219
G1 X177.613 Y113.915 E7.36943
G1 X177.071 Y117.241 E7.53755
G1 X176.962 Y117.743 E7.56318
G1 X176.211 Y120.518 E7.70661
G1 X176.032 Y121.057 E7.73494
G1 X174.687 Y124.445 E7.9168
G1 X174.485 Y124.89 E7.94118
G1 X173.272 Y127.244 E8.0733
G1 X173.02 Y127.678 E8.09834
G1 X171.331 Y130.278 E8.25302
G1 X171.022 Y130.703 E8.27924
G1 X169.054 Y133.13 E8.43512
G1 X168.721 Y133.501 E8.46
G1 X167.023 Y135.214 E8.58033
G1 X166.914 Y135.321 E8.58795
G1 X166.265 Y135.937 E8.63259
G1 X165.942 Y136.218 E8.65395
G1 X163.48 Y138.183 E8.81111
G1 X163.072 Y138.476 E8.83617
G1 X160.627 Y140.054 E8.98135
G1 X160.129 Y140.337 E9.00992
G1 X156.859 Y141.951 E9.19185
G1 X156.398 Y142.15 E9.2169
G1 X153.762 Y143.136 E9.35731
G1 X153.289 Y143.287 E9.38209
G1 X150.485 Y144.029 E9.52679
G1 X150.01 Y144.13 E9.55102
G1 X147.621 Y144.519 E9.67178
G1 X147.253 Y144.565 E9.69028
G1 X144.43 Y144.812 E9.83166
G1 X143.989 Y144.831 E9.85368
G1 X141.942 Y144.829 E9.95581
G1 X141.496 Y144.809 E9.97808
G1 X138.637 Y144.55 E10.1213
G1 X138.257 Y144.501 E10.14041
G1 X135.764 Y144.081 E10.26654
G1 X135.424 Y144.011 E10.28386
G1 X129.313 Y142.539 E10.59746
G1 X126.727 Y142.037 E10.72889
G1 X124.109 Y141.609 E10.86123
G1 X118.738 Y140.959 E11.13115
G1 X113.377 Y140.616 E11.39916
G1 X108.005 Y140.577 E11.66717
G1 X102.635 Y140.842 E11.93541
G1 X97.294 Y141.409 E12.20337
G1 X91.961 Y142.283 E12.47298
G1 X89.39 Y142.816 E12.60398
G1 X84.157 Y144.098 E12.87277
G1 X83.737 Y144.182 E12.89414
G1 X80.94 Y144.618 E13.03537
G1 X80.465 Y144.669 E13.05921
G1 X77.891 Y144.821 E13.18785
G1 X77.522 Y144.829 E13.20626
G1 X75.287 Y144.796 E13.31778
G1 X74.985 Y144.783 E13.33286
G1 X73.553 Y144.675 E13.4045
G1 X73.153 Y144.628 E13.4246
G1 X70.022 Y144.136 E13.58272
G1 X69.446 Y144.011 E13.61213
G1 X65.949 Y143.029 E13.79334
G1 X65.475 Y142.87 E13.81828
G1 X62.892 Y141.857 E13.95671
G1 X62.416 Y141.64 E13.9828
G1 X59.584 Y140.171 E14.14197
G1 X59.154 Y139.921 E14.16679
G1 X56.721 Y138.334 E14.31171
G1 X56.305 Y138.03 E14.33741
G1 X53.893 Y136.075 E14.49231
G1 X53.522 Y135.743 E14.51715
G1 X51.762 Y133.999 E14.64077
G1 X51.581 Y133.811 E14.65379
G1 X50.78 Y132.93 E14.71319
G1 X50.538 Y132.642 E14.73196
G1 X48.614 Y130.177 E14.88796
G1 X48.318 Y129.754 E14.91372
G1 X46.687 Y127.148 E15.0671
G1 X46.434 Y126.692 E15.09312
G1 X45.07 Y123.904 E15.24796
G1 X44.894 Y123.5 E15.26995
G1 X44.187 Y121.66 E15.36829
G1 X44.111 Y121.451 E15.37938
G1 X43.74 Y120.34 E15.43782
G1 X43.635 Y119.98 E15.45653
G1 X42.891 Y117.034 E15.60812
G1 X42.794 Y116.553 E15.6326
G1 X42.36 Y113.663 E15.7784
G1 X42.311 Y113.168 E15.80322
G1 X42.166 Y110.243 E15.94933
G1 X42.167 Y109.733 E15.97477
G1 X42.329 Y106.643 E16.12914
G1 X42.383 Y106.124 E16.15517
G1 X42.874 Y103.02 E16.31196
G1 X42.999 Y102.451 E16.34102
G1 X43.976 Y98.967 E16.52155
G1 X44.152 Y98.45 E16.54879
G1 X45.309 Y95.576 E16.70336
G1 X45.51 Y95.138 E16.7274
G1 X46.82 Y92.617 E16.86914
G1 X47.07 Y92.188 E16.89392
G1 X48.675 Y89.73 E17.04037
G1 X48.977 Y89.316 E17.06594
G1 X50.942 Y86.891 E17.22166
G1 X51.275 Y86.52 E17.24653
G1 X52.992 Y84.787 E17.36824
G1 X53.31 Y84.493 E17.38984
G1 X55.676 Y82.486 E17.54463
G1 X56.139 Y82.137 E17.57356
G0 F3600 X56.36 Y82.47
G1 F1500 X59.719 Y80.233 E17.7749
G1 X60.208 Y79.949 E17.80311
G1 X62.988 Y78.556 E17.95825
G1 X63.411 Y78.371 E17.98128
G1 X66.14 Y77.331 E18.12698
G1 X66.59 Y77.185 E18.15059
G1 X69.617 Y76.376 E18.3069
G1 X70.083 Y76.277 E18.33067
G1 X73.146 Y75.79 E18.4854
G1 X73.647 Y75.738 E18.51053
G1 X76.995 Y75.577 E18.67776
G1 X77.487 Y75.58 E18.70231
G1 X80.574 Y75.762 E18.85658
G1 X81.033 Y75.812 E18.87962
G1 X83.932 Y76.278 E19.02611
G1 X84.279 Y76.348 E19.04377
G1 X90.57 Y77.862 E19.36659
G1 X93.223 Y78.378 E19.50143
G1 X95.81 Y78.8 E19.6322
G1 X101.212 Y79.455 E19.90368
G1 X106.6 Y79.8 E20.17304
G1 X112.001 Y79.84 E20.4425
G1 X117.378 Y79.576 E20.71109
G1 X122.735 Y79.007 E20.97985
G1 X128.118 Y78.126 E21.25198
G1 X130.656 Y77.599 E21.38131
G1 X135.895 Y76.314 E21.65043
G1 X136.282 Y76.237 E21.67011
G1 X139.159 Y75.788 E21.81538
G1 X139.647 Y75.738 E21.83986
G1 X142.995 Y75.577 E22.00708
G1 X143.487 Y75.58 E22.03163
G1 X146.574 Y75.762 E22.18591
G1 X147.033 Y75.812 E22.20894
G1 X149.932 Y76.278 E22.35543
G1 X150.443 Y76.391 E22.38154
G1 X153.92 Y77.365 E22.56169
G1 X154.365 Y77.514 E22.5851
G1 X157.003 Y78.553 E22.72655
G1 X157.435 Y78.75 E22.75024
G1 X160.232 Y80.201 E22.90744
G1 X160.627 Y80.431 E22.93025
G1 X163.06 Y82.018 E23.07517
G1 X163.443 Y82.297 E23.09881
G1 X165.854 Y84.251 E23.25364
G1 X166.196 Y84.557 E23.27653
G1 X167.94 Y86.285 E23.39902
G1 X168.095 Y86.447 E23.4102
G1 X168.886 Y87.311 E23.46865
G1 X169.114 Y87.58 E23.48624
G1 X171.035 Y90.032 E23.64164
G1 X171.314 Y90.43 E23.66589
G1 X172.981 Y93.096 E23.82276
G1 X173.214 Y93.515 E23.84668
G1 X174.581 Y96.312 E24.00199
G1 X174.757 Y96.723 E24.0243
G1 X175.752 Y99.387 E24.16617
G1 X175.895 Y99.839 E24.18983
G1 X176.682 Y102.868 E24.34596
G1 X176.778 Y103.337 E24.36985
G1 X177.244 Y106.417 E24.52526
G1 X177.29 Y106.877 E24.54832
G1 X177.434 Y109.78 E24.69333
G1 X177.434 Y110.248 E24.71668
G1 X177.272 Y113.351 E24.8717
G1 X177.218 Y113.851 E24.89679
G1 X176.676 Y117.177 E25.06491
G1 X176.576 Y117.639 E25.08849
G1 X175.825 Y120.414 E25.23192
G1 X175.66 Y120.909 E25.25795
G1 X174.315 Y124.297 E25.43981
G1 X174.129 Y124.707 E25.46227
G1 X172.916 Y127.061 E25.59439
G1 X172.685 Y127.46 E25.61739
G1 X170.996 Y130.06 E25.77207
G1 X170.711 Y130.451 E25.79621
G1 X168.743 Y132.878 E25.9521
G1 X168.437 Y133.219 E25.97496
G1 X166.739 Y134.932 E26.09529
G1 X166.639 Y135.03 E26.10228
G1 X165.99 Y135.646 E26.14692
G1 X165.692 Y135.905 E26.16662
G1 X163.23 Y137.87 E26.32377
G1 X162.855 Y138.14 E26.34683
G1 X160.41 Y139.718 E26.49201
G1 X159.952 Y139.978 E26.51828
G1 X156.682 Y141.592 E26.70021
G1 X156.258 Y141.775 E26.72325
G1 X153.622 Y142.761 E26.86366
G1 X153.187 Y142.9 E26.88645
G1 X150.383 Y143.642 E27.03115
G1 X149.945 Y143.735 E27.05349
G1 X147.556 Y144.124 E27.17425
G1 X147.218 Y144.166 E27.19124
G1 X144.395 Y144.413 E27.33262
G1 X143.99 Y144.431 E27.35285
G1 X141.943 Y144.429 E27.45497
G1 X141.532 Y144.41 E27.4755
G1 X138.673 Y144.151 E27.61872
G1 X138.324 Y144.106 E27.63627
G1 X135.831 Y143.686 E27.7624
G1 X135.518 Y143.622 E27.77834
G1 X129.418 Y142.153 E28.09137
G1 X126.769 Y141.638 E28.22601
G1 X124.171 Y141.214 E28.35733
G1 X118.777 Y140.561 E28.62841
G1 X113.387 Y140.216 E28.89787
G1 X107.988 Y140.177 E29.16723
G1 X102.609 Y140.442 E29.43591
G1 X97.238 Y141.013 E29.70539
G1 X91.889 Y141.889 E29.9758
G1 X89.318 Y142.422 E30.1068
G1 X84.061 Y143.71 E30.37683
G1 X83.675 Y143.787 E30.39646
G1 X80.878 Y144.223 E30.53769
G1 X80.441 Y144.27 E30.55962
G1 X77.867 Y144.422 E30.68826
G1 X77.528 Y144.429 E30.70518
G1 X75.293 Y144.396 E30.8167
G1 X75.015 Y144.384 E30.83058
G1 X73.583 Y144.276 E30.90222
G1 X73.215 Y144.233 E30.92071
G1 X70.084 Y143.741 E31.07883
G1 X69.554 Y143.626 E31.10589
G1 X66.057 Y142.644 E31.2871
G1 X65.622 Y142.497 E31.31001
G1 X63.039 Y141.484 E31.44843
G1 X62.6 Y141.285 E31.47248
G1 X59.768 Y139.816 E31.63165
G1 X59.373 Y139.586 E31.65445
G1 X56.94 Y137.999 E31.79937
G1 X56.557 Y137.72 E31.82301
G1 X54.145 Y135.765 E31.97791
G1 X53.803 Y135.459 E32.00081
G1 X52.043 Y133.715 E32.12442
G1 X51.877 Y133.541 E32.13642
G1 X51.076 Y132.66 E32.19582
G1 X50.854 Y132.396 E32.21303
G1 X48.93 Y129.931 E32.36904
G1 X48.657 Y129.541 E32.39279
G1 X47.026 Y126.935 E32.54617
G1 X46.793 Y126.517 E32.57004
G1 X45.429 Y123.729 E32.72489
G1 X45.267 Y123.357 E32.74513
G1 X44.56 Y121.517 E32.84347
G1 X44.491 Y121.324 E32.8537
G1 X44.12 Y120.213 E32.91214
G1 X44.023 Y119.882 E32.92934
G1 X43.279 Y116.936 E33.08093
G1 X43.19 Y116.493 E33.10348
G1 X42.756 Y113.603 E33.24928
G1 X42.711 Y113.148 E33.27209
G1 X42.566 Y110.223 E33.4182
G1 X42.566 Y109.754 E33.44159
G1 X42.728 Y106.664 E33.59597
G1 X42.778 Y106.186 E33.61994
G1 X43.269 Y103.082 E33.77673
G1 X43.384 Y102.559 E33.80344
G1 X44.361 Y99.075 E33.98397
G1 X44.523 Y98.599 E34.00905
G1 X45.68 Y95.725 E34.16362
G1 X45.865 Y95.322 E34.18574
G1 X47.175 Y92.801 E34.32748
G1 X47.405 Y92.407 E34.35024
G1 X49.01 Y89.949 E34.4967
G1 X49.288 Y89.568 E34.52023
G1 X51.253 Y87.143 E34.67595
G1 X51.559 Y86.801 E34.69884
G1 X53.276 Y85.068 E34.82055
G1 X53.568 Y84.798 E34.8404
G1 X55.934 Y82.791 E34.99518
G1 X56.36 Y82.47 E35.0218
G0 F3600 X56.582 Y82.803
G1 F1500 X59.941 Y80.566 E35.22314
G1 X60.387 Y80.307 E35.24887
G1 X63.167 Y78.914 E35.404
G1 X63.553 Y78.744 E35.42504
G1 X66.282 Y77.704 E35.57075
G1 X66.694 Y77.571 E35.59235
G1 X69.721 Y76.762 E35.74866
G1 X70.146 Y76.672 E35.77034
G1 X73.209 Y76.185 E35.92507
G1 X73.666 Y76.138 E35.94799
G1 X77.014 Y75.977 E36.11522
G1 X77.463 Y75.979 E36.13762
G1 X80.55 Y76.161 E36.2919
G1 X80.97 Y76.207 E36.31297
G1 X83.869 Y76.673 E36.45946
G1 X84.185 Y76.737 E36.47555
G1 X90.487 Y78.254 E36.79894
G1 X93.148 Y78.771 E36.93418
G1 X95.771 Y79.199 E37.06677
G1 X101.175 Y79.855 E37.33836
G1 X106.571 Y80.2 E37.60811
G1 X112 Y80.24 E37.87897
G1 X117.405 Y79.974 E38.14896
G1 X122.803 Y79.401 E38.41978
G1 X128.175 Y78.522 E38.69135
G1 X130.769 Y77.984 E38.82352
G1 X135.99 Y76.703 E39.09172
G1 X136.343 Y76.632 E39.10969
G1 X139.22 Y76.183 E39.25496
G1 X139.666 Y76.138 E39.27732
G1 X143.014 Y75.977 E39.44455
G1 X143.463 Y75.979 E39.46695
G1 X146.55 Y76.161 E39.62123
G1 X146.97 Y76.207 E39.64231
G1 X149.869 Y76.673 E39.7888
G1 X150.335 Y76.776 E39.81261
G1 X153.812 Y77.75 E39.99275
G1 X154.218 Y77.886 E40.01411
G1 X156.856 Y78.925 E40.15556
G1 X157.251 Y79.105 E40.17722
G1 X160.048 Y80.556 E40.33442
G1 X160.409 Y80.766 E40.35526
G1 X162.842 Y82.353 E40.50018
G1 X163.191 Y82.608 E40.52174
G1 X165.602 Y84.562 E40.67657
G1 X165.914 Y84.841 E40.69746
G1 X167.658 Y86.569 E40.81994
G1 X167.8 Y86.717 E40.83017
G1 X168.591 Y87.581 E40.88861
G1 X168.799 Y87.827 E40.90469
G1 X170.72 Y90.279 E41.06009
G1 X170.975 Y90.642 E41.08222
G1 X172.642 Y93.308 E41.23909
G1 X172.854 Y93.691 E41.26093
G1 X174.221 Y96.488 E41.41625
G1 X174.383 Y96.862 E41.43658
G1 X175.378 Y99.526 E41.57846
G1 X175.508 Y99.94 E41.60011
G1 X176.295 Y102.969 E41.75624
G1 X176.383 Y103.397 E41.77804
G1 X176.849 Y106.477 E41.93345
G1 X176.891 Y106.897 E41.95451
G1 X177.035 Y109.8 E42.09952
G1 X177.034 Y110.227 E42.12082
G1 X176.872 Y113.33 E42.27584
G1 X176.823 Y113.787 E42.29877
G1 X176.281 Y117.113 E42.4669
G1 X176.19 Y117.534 E42.48838
G1 X175.439 Y120.309 E42.63181
G1 X175.289 Y120.762 E42.65562
G1 X173.944 Y124.15 E42.83748
G1 X173.773 Y124.524 E42.85799
G1 X172.56 Y126.878 E42.99011
G1 X172.349 Y127.242 E43.0111
G1 X170.66 Y129.842 E43.16578
G1 X170.4 Y130.199 E43.18782
G1 X168.432 Y132.626 E43.34371
G1 X168.153 Y132.938 E43.36459
G1 X166.455 Y134.651 E43.48492
G1 X166.363 Y134.74 E43.49131
G1 X165.714 Y135.356 E43.53595
G1 X165.443 Y135.593 E43.55391
G1 X162.981 Y137.558 E43.71106
G1 X162.639 Y137.804 E43.73208
G1 X160.194 Y139.382 E43.87726
G1 X159.775 Y139.619 E43.90128
G1 X156.505 Y141.233 E44.08321
G1 X156.117 Y141.401 E44.1043
G1 X153.481 Y142.387 E44.24471
G1 X153.084 Y142.513 E44.26549
G1 X150.28 Y143.255 E44.4102
G1 X149.881 Y143.34 E44.43055
G1 X147.492 Y143.729 E44.55131
G1 X147.183 Y143.768 E44.56685
G1 X144.36 Y144.015 E44.70823
G1 X143.99 Y144.031 E44.7267
G1 X141.943 Y144.029 E44.82883
G1 X141.568 Y144.012 E44.84756
G1 X138.709 Y143.753 E44.99078
G1 X138.39 Y143.712 E45.00682
G1 X135.897 Y143.292 E45.13295
G1 X135.612 Y143.233 E45.14747
G1 X129.501 Y141.761 E45.46107
G1 X126.839 Y141.244 E45.59636
G1 X124.238 Y140.819 E45.72785
G1 X118.797 Y140.16 E46.00128
G1 X113.416 Y139.816 E46.27029
G1 X107.988 Y139.777 E46.5411
G1 X102.581 Y140.044 E46.81119
G1 X97.185 Y140.617 E47.08191
G1 X91.812 Y141.497 E47.35354
G1 X89.204 Y142.038 E47.48642
G1 X83.966 Y143.321 E47.75547
G1 X83.614 Y143.392 E47.77339
G1 X80.817 Y143.828 E47.91462
G1 X80.418 Y143.871 E47.93464
G1 X77.844 Y144.023 E48.06328
G1 X77.534 Y144.03 E48.07875
G1 X75.299 Y143.997 E48.19027
G1 X75.045 Y143.985 E48.20295
G1 X73.613 Y143.877 E48.2746
G1 X73.277 Y143.838 E48.29147
G1 X70.146 Y143.346 E48.4496
G1 X69.663 Y143.241 E48.47426
G1 X66.166 Y142.259 E48.65547
G1 X65.768 Y142.125 E48.67642
G1 X63.185 Y141.112 E48.81484
G1 X62.784 Y140.93 E48.83681
G1 X59.952 Y139.461 E48.99598
G1 X59.591 Y139.251 E49.01682
G1 X57.158 Y137.664 E49.16174
G1 X56.808 Y137.409 E49.18334
G1 X54.396 Y135.454 E49.33824
G1 X54.085 Y135.174 E49.35912
G1 X52.325 Y133.43 E49.48273
G1 X52.173 Y133.272 E49.49367
G1 X51.372 Y132.391 E49.55308
G1 X51.169 Y132.15 E49.5688
G1 X49.245 Y129.685 E49.7248
G1 X48.996 Y129.329 E49.74648
G1 X47.365 Y126.723 E49.89986
G1 X47.152 Y126.341 E49.92168
G1 X45.788 Y123.553 E50.07652
G1 X45.64 Y123.213 E50.09502
G1 X44.933 Y121.373 E50.19337
G1 X44.87 Y121.197 E50.20269
G1 X44.499 Y120.086 E50.26113
G1 X44.411 Y119.784 E50.27682
G1 X43.667 Y116.838 E50.42841
G1 X43.586 Y116.434 E50.44897
G1 X43.152 Y113.544 E50.59477
G1 X43.11 Y113.128 E50.61563
G1 X42.965 Y110.203 E50.76174
G1 X42.966 Y109.775 E50.78309
G1 X43.128 Y106.685 E50.93746
G1 X43.174 Y106.249 E50.95934
G1 X43.665 Y103.145 E51.11612
G1 X43.769 Y102.667 E51.14053
G1 X44.746 Y99.183 E51.32105
G1 X44.894 Y98.749 E51.34392
G1 X46.051 Y95.875 E51.49849
G1 X46.22 Y95.506 E51.51874
G1 X47.53 Y92.985 E51.66048
G1 X47.74 Y92.626 E51.68123
G1 X49.345 Y90.168 E51.82769
G1 X49.599 Y89.82 E51.84918
G1 X51.564 Y87.395 E52.0049
G1 X51.843 Y87.083 E52.02578
G1 X53.56 Y85.35 E52.14749
G1 X53.827 Y85.103 E52.16564
G1 X56.193 Y83.096 E52.32043
G1 X56.582 Y82.803 E52.34472
G1 F1500 E45.84472
