;FLAVOR:Marlin
;TIME:4418
;Filament used: 6.2628m
;Layer height: 0.3
;Generated with Cura_SteamEngine 4.0.0
M104 S195
M105
M109 S195
M82 ;absolute extrusion mode
G21 ;metric values
G90 ;absolute positioning
M82 ;set extruder to absolute mode
M107 ;start with the fan off
G28 X0 Y0 ;move X/Y to min endstops
G28 Z0 ;move Z to min endstops
G29;
G1 Z15.0 F9000 ;move the platform down 15mm
G92 E0 ;zero the extruded length
G1 F200 E3 ;extrude 3mm of feed stock
G92 E0 ;zero the extruded length again
G1 F9000
;Put printing message on LCD screen
M117 Printing...
G92 E0
G1 F1500 E-6.5
;LAYER_COUNT:67
;LAYER:0
M107
G0 F3600 X65.329 Y76.612 Z0.3
;TYPE:SKIRT
G1 F1500 E0
G1 F1350 X65.844 Y76.245 E0.03155
G1 X66.4 Y75.945 E0.06307
G1 X66.99 Y75.718 E0.09461
G1 X67.604 Y75.567 E0.12615
G1 X68.488 Y75.488 E0.17043
G1 X72.991 Y75.488 E0.39509
G1 X73.345 Y75.501 E0.41276
G1 X78.955 Y75.899 E0.69335
G1 X84.357 Y75.972 E0.96288
G1 X89.719 Y75.743 E1.23063
G1 X91.157 Y75.613 E1.30267
G1 X91.274 Y75.604 E1.30852
G1 X92.985 Y75.49 E1.39408
G1 X93.321 Y75.479 E1.41085
G1 X107.043 Y75.491 E2.09544
G1 X107.464 Y75.509 E2.11646
G1 X110.245 Y75.746 E2.25571
G1 X115.67 Y75.975 E2.52661
G1 X121.017 Y75.896 E2.7934
G1 X126.647 Y75.501 E3.07497
G1 X126.995 Y75.489 E3.09234
G1 X131.497 Y75.487 E3.31695
G1 X132.128 Y75.527 E3.34849
G1 X132.749 Y75.646 E3.38004
G1 X133.349 Y75.842 E3.41153
G1 X133.921 Y76.113 E3.44311
G1 X134.453 Y76.453 E3.47461
G1 X134.939 Y76.858 E3.50617
G1 X135.369 Y77.321 E3.53769
G1 X135.738 Y77.835 E3.56926
G1 X136.038 Y78.391 E3.60078
G1 X136.267 Y78.98 E3.63231
G1 X136.419 Y79.594 E3.66386
G1 X136.499 Y80.471 E3.7078
G1 X136.522 Y87.47 E4.05698
G1 X136.676 Y92.919 E4.32894
G1 X137.131 Y98.272 E4.59697
G1 X137.903 Y103.687 E4.86986
G1 X138.379 Y106.533 E5.01382
G1 X138.448 Y107.378 E5.05611
G1 X138.425 Y112.988 E5.336
G1 X138.382 Y113.619 E5.36755
G1 X138.261 Y114.24 E5.39912
G1 X138.062 Y114.839 E5.43061
G1 X137.788 Y115.41 E5.46221
G1 X137.445 Y115.941 E5.49374
G1 X137.038 Y116.424 E5.52525
G1 X136.573 Y116.852 E5.55679
G1 X136.058 Y117.219 E5.58833
G1 X135.501 Y117.517 E5.61985
G1 X134.879 Y117.752 E5.65302
G1 X131.626 Y118.741 E5.82265
G1 X126.515 Y120.55 E6.09314
G1 X122.03 Y122.409 E6.33536
G1 X121.432 Y122.614 E6.3669
G1 X120.812 Y122.741 E6.39847
G1 X120.116 Y122.79 E6.43328
G1 X112.594 Y122.791 E6.80855
G1 X112.089 Y122.766 E6.83378
G1 X106.047 Y122.154 E7.13676
G1 X100.669 Y121.926 E7.40531
G1 X95.313 Y122.003 E7.67255
G1 X89.947 Y122.383 E7.94093
G1 X88.122 Y122.604 E8.03265
G1 X87.984 Y122.619 E8.03957
G1 X86.249 Y122.78 E8.1265
G1 X85.78 Y122.801 E8.14992
G1 X78.585 Y122.791 E8.50888
G1 X77.954 Y122.75 E8.54043
G1 X77.334 Y122.63 E8.57194
G1 X76.578 Y122.367 E8.61187
G1 X70.523 Y119.703 E8.9419
G1 X64.835 Y117.615 E9.24419
G1 X64.257 Y117.36 E9.27571
G1 X63.715 Y117.034 E9.30727
G1 X63.219 Y116.643 E9.33878
G1 X62.776 Y116.192 E9.37032
G1 X62.394 Y115.688 E9.40187
G1 X62.078 Y115.141 E9.43338
G1 X61.833 Y114.558 E9.46493
G1 X61.665 Y113.949 E9.49645
G1 X61.574 Y113.323 E9.52801
G1 X61.558 Y112.919 E9.54818
G1 X61.56 Y107.062 E9.84039
G1 X61.636 Y106.198 E9.88366
G1 X62.326 Y102.277 E10.08229
G1 X63.012 Y96.908 E10.35232
G1 X63.393 Y91.521 E10.62175
G1 X63.478 Y87.47 E10.8239
G1 X63.488 Y80.481 E11.17259
G1 X63.529 Y79.85 E11.20413
G1 X63.649 Y79.229 E11.23569
G1 X63.846 Y78.629 E11.26719
G1 X64.118 Y78.058 E11.29875
G1 X64.46 Y77.526 E11.3303
G1 X64.866 Y77.042 E11.36182
G1 X65.329 Y76.612 E11.39334
G0 F3600 X65.719 Y76.815
G1 F1350 X66.226 Y76.483 E11.42358
G1 X66.772 Y76.22 E11.45381
G1 X67.348 Y76.031 E11.48406
G1 X67.944 Y75.92 E11.5143
G1 X68.488 Y75.888 E11.54149
G1 X72.991 Y75.888 E11.76615
G1 X73.316 Y75.9 E11.78237
G1 X78.938 Y76.299 E12.06356
G1 X84.351 Y76.372 E12.33364
G1 X89.773 Y76.14 E12.60439
G1 X91.193 Y76.012 E12.67552
G1 X91.3 Y76.003 E12.68088
G1 X93.011 Y75.889 E12.76643
G1 X93.321 Y75.879 E12.78191
G1 X107.043 Y75.891 E13.4665
G1 X107.43 Y75.908 E13.48583
G1 X110.217 Y76.146 E13.62538
G1 X115.642 Y76.374 E13.89627
G1 X121.051 Y76.295 E14.16615
G1 X126.675 Y75.9 E14.44743
G1 X126.995 Y75.889 E14.4634
G1 X131.497 Y75.887 E14.68801
G1 X132.102 Y75.927 E14.71826
G1 X132.696 Y76.046 E14.74848
G1 X133.27 Y76.242 E14.77874
G1 X133.813 Y76.511 E14.80897
G1 X134.316 Y76.85 E14.83924
G1 X134.77 Y77.252 E14.86949
G1 X135.167 Y77.711 E14.89977
G1 X135.5 Y78.217 E14.92999
G1 X135.764 Y78.763 E14.96024
G1 X135.953 Y79.339 E14.99049
G1 X136.066 Y79.935 E15.02075
G1 X136.099 Y80.472 E15.04759
G1 X136.122 Y87.482 E15.39733
G1 X136.276 Y92.946 E15.67003
G1 X136.732 Y98.309 E15.93856
G1 X137.505 Y103.73 E16.21175
G1 X137.985 Y106.599 E16.35688
G1 X138.048 Y107.377 E16.39582
G1 X138.025 Y112.987 E16.6757
G1 X137.983 Y113.592 E16.70596
G1 X137.861 Y114.186 E16.73621
G1 X137.662 Y114.758 E16.76643
G1 X137.39 Y115.3 E16.79668
G1 X137.049 Y115.801 E16.82692
G1 X136.645 Y116.253 E16.85716
G1 X136.185 Y116.648 E16.88741
G1 X135.677 Y116.979 E16.91766
G1 X135.13 Y117.241 E16.94792
G1 X134.763 Y117.369 E16.96731
G1 X131.49 Y118.364 E17.13798
G1 X126.377 Y120.174 E17.40858
G1 X121.877 Y122.039 E17.65161
G1 X121.302 Y122.234 E17.6819
G1 X120.708 Y122.352 E17.71211
G1 X120.116 Y122.39 E17.74171
G1 X112.594 Y122.391 E18.11698
G1 X112.129 Y122.368 E18.14021
G1 X106.069 Y121.754 E18.44409
G1 X100.697 Y121.527 E18.71234
G1 X95.278 Y121.604 E18.98272
G1 X89.912 Y121.985 E19.25111
G1 X88.074 Y122.207 E19.34347
G1 X87.947 Y122.22 E19.34984
G1 X86.212 Y122.381 E19.43677
G1 X85.781 Y122.401 E19.4583
G1 X78.586 Y122.391 E19.81726
G1 X77.981 Y122.35 E19.84751
G1 X77.386 Y122.23 E19.87779
G1 X76.739 Y122.001 E19.91204
G1 X70.663 Y119.327 E20.24323
G1 X64.973 Y117.239 E20.54561
G1 X64.419 Y116.993 E20.57585
G1 X63.902 Y116.677 E20.60608
G1 X63.431 Y116.295 E20.63634
G1 X63.015 Y115.854 E20.66658
G1 X62.66 Y115.363 E20.69681
G1 X62.372 Y114.829 E20.72708
G1 X62.158 Y114.262 E20.75732
G1 X62.02 Y113.671 E20.78759
G1 X61.958 Y112.919 E20.82524
G1 X61.96 Y107.062 E21.11745
G1 X62.03 Y106.267 E21.15726
G1 X62.722 Y102.331 E21.35664
G1 X63.41 Y96.952 E21.62719
G1 X63.793 Y91.539 E21.89792
G1 X63.878 Y87.478 E22.10057
G1 X63.888 Y80.481 E22.44965
G1 X63.929 Y79.877 E22.47985
G1 X64.049 Y79.282 E22.51013
G1 X64.246 Y78.709 E22.54036
G1 X64.517 Y78.166 E22.57064
G1 X64.857 Y77.664 E22.60089
G1 X65.26 Y77.211 E22.63114
G1 X65.719 Y76.815 E22.66138
G0 F3600 X65.652 Y77.39
G1 F1350 X66.106 Y77.029 E22.69032
G1 X66.604 Y76.734 E22.7192
G1 X67.139 Y76.511 E22.74811
G1 X67.699 Y76.363 E22.77701
G1 X68.488 Y76.288 E22.81655
G1 X72.991 Y76.288 E23.04121
G1 X73.288 Y76.299 E23.05604
G1 X78.922 Y76.698 E23.33782
G1 X84.362 Y76.773 E23.60925
G1 X89.783 Y76.54 E23.87995
G1 X91.229 Y76.41 E23.95239
G1 X91.327 Y76.402 E23.95729
G1 X93.038 Y76.288 E24.04284
G1 X93.321 Y76.279 E24.05697
G1 X107.043 Y76.291 E24.74156
G1 X107.396 Y76.306 E24.75919
G1 X110.213 Y76.546 E24.90024
G1 X115.631 Y76.774 E25.17078
G1 X121.067 Y76.695 E25.44202
G1 X126.703 Y76.299 E25.72389
G1 X126.995 Y76.289 E25.73847
G1 X131.497 Y76.287 E25.96307
G1 X132.075 Y76.327 E25.99198
G1 X132.642 Y76.446 E26.02088
G1 X133.187 Y76.641 E26.04976
G1 X133.7 Y76.91 E26.07866
G1 X134.172 Y77.247 E26.10759
G1 X134.592 Y77.646 E26.1365
G1 X134.954 Y78.098 E26.16539
G1 X135.249 Y78.596 E26.19426
G1 X135.474 Y79.13 E26.22317
G1 X135.623 Y79.69 E26.25208
G1 X135.699 Y80.473 E26.29133
G1 X135.722 Y87.494 E26.64161
G1 X135.876 Y92.956 E26.91422
G1 X136.336 Y98.363 E27.18495
G1 X137.113 Y103.813 E27.4596
G1 X137.59 Y106.665 E27.60387
G1 X137.648 Y107.375 E27.63941
G1 X137.625 Y112.985 E27.91929
G1 X137.583 Y113.563 E27.94821
G1 X137.461 Y114.129 E27.97709
G1 X137.263 Y114.674 E28.00602
G1 X136.992 Y115.186 E28.03492
G1 X136.653 Y115.655 E28.06379
G1 X136.252 Y116.074 E28.09273
G1 X135.798 Y116.433 E28.1216
G1 X135.299 Y116.727 E28.1505
G1 X134.647 Y116.986 E28.1855
G1 X131.366 Y117.983 E28.35658
G1 X126.238 Y119.798 E28.62797
G1 X121.723 Y121.67 E28.87182
G1 X121.174 Y121.854 E28.9007
G1 X120.605 Y121.961 E28.92959
G1 X120.116 Y121.99 E28.95403
G1 X112.594 Y121.991 E29.3293
G1 X112.17 Y121.97 E29.35048
G1 X106.094 Y121.354 E29.65517
G1 X100.708 Y121.127 E29.92412
G1 X95.263 Y121.205 E30.1958
G1 X89.875 Y121.586 E30.46528
G1 X88.026 Y121.81 E30.5582
G1 X87.91 Y121.822 E30.56401
G1 X86.175 Y121.983 E30.65095
G1 X85.781 Y122.001 E30.67062
G1 X78.586 Y121.991 E31.02958
G1 X78.008 Y121.95 E31.05849
G1 X77.442 Y121.83 E31.08736
G1 X76.9 Y121.635 E31.1161
G1 X70.816 Y118.958 E31.44771
G1 X65.111 Y116.864 E31.7509
G1 X64.582 Y116.627 E31.77982
G1 X64.091 Y116.32 E31.80871
G1 X63.647 Y115.948 E31.83761
G1 X63.258 Y115.519 E31.8665
G1 X62.932 Y115.04 E31.89541
G1 X62.675 Y114.521 E31.9243
G1 X62.491 Y113.971 E31.95324
G1 X62.386 Y113.402 E31.9821
G1 X62.358 Y112.92 E32.00619
G1 X62.36 Y107.063 E32.2984
G1 X62.424 Y106.336 E32.33481
G1 X63.119 Y102.386 E32.5349
G1 X63.808 Y96.996 E32.806
G1 X64.192 Y91.555 E33.07813
G1 X64.278 Y87.488 E33.28108
G1 X64.288 Y80.482 E33.63061
G1 X64.329 Y79.904 E33.65952
G1 X64.449 Y79.337 E33.68843
G1 X64.645 Y78.793 E33.71728
G1 X64.915 Y78.28 E33.7462
G1 X65.253 Y77.809 E33.77512
G1 X65.652 Y77.39 E33.80399
G0 F3600 X66.749 Y107.268
;TYPE:SUPPORT
G1 F1350 X67.579 Y107.268 E33.8454
G1 X67.579 Y110.045 E33.98394
G1 X67.683 Y111.187 E34.04115
G1 X67.872 Y111.715 E34.06913
G1 X67.895 Y111.753 E34.07135
G1 X67.906 Y111.917 E34.07955
G1 X67.993 Y112.499 E34.10891
G1 X68.042 Y112.732 E34.12079
G1 X66.749 Y112.732 E34.18529
G1 X66.749 Y107.268 E34.45789
G0 F3600 X66.909 Y109.347
G1 F1350 X67.419 Y109.347 E34.48334
G0 F3600 X67.76 Y112.014
G1 F1350 X66.909 Y112.014 E34.52579
G0 F3600 X78.783 Y116.757
G1 F1350 X85.917 Y116.757 E34.88171
G1 X85.917 Y117.601 E34.92382
G1 X78.783 Y117.601 E35.27973
G1 X78.783 Y116.757 E35.32184
G0 F3600 X78.943 Y117.348
G1 F1350 X85.757 Y117.348 E35.66179
G0 F3600 X85.344 Y117.441
G1 F1350 X85.344 Y116.917 E35.68794
G0 F3600 X82.677 Y116.917
G1 F1350 X82.677 Y117.441 E35.71408
G0 F3600 X80.01 Y117.441
G1 F1350 X80.01 Y116.917 E35.74022
G0 F3600 X97.949 Y112.772
G1 F1350 X98.005 Y112.53 E35.75261
G1 X98.093 Y111.919 E35.78341
G1 X98.104 Y111.761 E35.79131
G1 X98.312 Y111.216 E35.82042
G1 X98.422 Y110.055 E35.8786
G1 X98.422 Y107.228 E36.01964
G1 X99.248 Y107.228 E36.06085
G1 X99.248 Y112.772 E36.33744
G1 X97.949 Y112.772 E36.40225
G0 F3600 X98.679 Y112.612
G1 F1350 X98.679 Y107.388 E36.66287
G0 F3600 X98.582 Y109.347
G1 F1350 X99.088 Y109.347 E36.68812
G0 F3600 X99.088 Y112.014
G1 F1350 X98.241 Y112.014 E36.73037
G0 F3600 X100.749 Y112.732
G1 F1350 X100.749 Y107.268 E37.00297
G1 X101.579 Y107.268 E37.04438
G1 X101.579 Y110.045 E37.18293
G1 X101.683 Y111.187 E37.24014
G1 X101.872 Y111.715 E37.26812
G1 X101.895 Y111.753 E37.27033
G1 X101.906 Y111.917 E37.27853
G1 X101.993 Y112.499 E37.30789
G1 X102.042 Y112.732 E37.31977
G1 X100.749 Y112.732 E37.38428
G0 F3600 X101.346 Y112.572
G1 F1350 X101.346 Y107.428 E37.64091
G0 F3600 X101.419 Y109.347
G1 F1350 X100.909 Y109.347 E37.66636
G0 F3600 X100.909 Y112.014
G1 F1350 X101.76 Y112.014 E37.70881
G0 F3600 X112.783 Y116.757
G1 F1350 X119.917 Y116.757 E38.06473
G1 X119.917 Y117.601 E38.10684
G1 X112.783 Y117.601 E38.46275
G1 X112.783 Y116.757 E38.50486
G0 F3600 X112.943 Y117.348
G1 F1350 X119.757 Y117.348 E38.84481
G0 F3600 X117.348 Y117.441
G1 F1350 X117.348 Y116.917 E38.87096
G0 F3600 X114.681 Y116.917
G1 F1350 X114.681 Y117.441 E38.8971
G0 F3600 X131.949 Y112.772
G1 F1350 X132.005 Y112.53 E38.90949
G1 X132.093 Y111.919 E38.94029
G1 X132.104 Y111.761 E38.94819
G1 X132.312 Y111.216 E38.97729
G1 X132.422 Y110.055 E39.03548
G1 X132.422 Y107.228 E39.17652
G1 X133.248 Y107.228 E39.21772
G1 X133.248 Y112.772 E39.49432
G1 X131.949 Y112.772 E39.55912
G0 F3600 X132.241 Y112.014
G1 F1350 X133.088 Y112.014 E39.60138
G0 F3600 X133.088 Y109.347
G1 F1350 X132.582 Y109.347 E39.62662
G1 F1500 E33.12662
;MESH:abc.STL(1)
G0 F3600 X131.9 Y111.64
G0 X131.684 Y111.98
G0 X131.499 Y112.15
G0 X131.115 Y112.319
G0 X102.882 Y112.319
G0 X102.665 Y112.223
G0 X98.187 Y109.347
G0 X96.902 Y109.347
G0 X72.372 Y100.628
G0 X72.3 Y100.2
G0 X72.8 Y100.2
;TYPE:WALL-OUTER
G1 F1500 E39.62662
G1 F1350 X93.2 Y100.2 E40.64438
G1 X93.2 Y80.679 E41.61829
G1 X97.122 Y80.678 E41.81396
G1 X97.322 Y80.678 E41.82394
G1 X97.322 Y80.878 E41.8304
G1 X97.322 Y110 E43.2833
G1 X97.256 Y110.782 E43.32246
G1 X97.235 Y110.954 E43.3311
G1 X97.128 Y111.244 E43.34652
G1 X97.015 Y111.422 E43.35704
G1 X96.952 Y111.455 E43.36059
G1 X69.049 Y111.455 E44.75267
G1 X68.985 Y111.421 E44.75629
G1 X68.871 Y111.242 E44.76688
G1 X68.766 Y110.956 E44.78208
G1 X68.744 Y110.782 E44.79083
G1 X68.679 Y110 E44.82998
G1 X68.678 Y80.878 E46.28288
G1 X68.678 Y80.678 E46.29286
G1 X68.878 Y80.678 E46.29932
G1 X72.8 Y80.678 E46.49499
G1 X72.8 Y100.2 E47.46894
G0 F3600 X73 Y100.2
G0 X72.4 Y100.6
;TYPE:WALL-INNER
G1 F1350 X93.6 Y100.6 E48.52662
G1 X93.6 Y81.079 E49.50052
G1 X96.722 Y81.078 E49.65628
G1 X96.922 Y81.078 E49.66626
G1 X96.922 Y81.278 E49.67272
G1 X96.922 Y109.978 E51.10457
G1 X96.844 Y110.861 E51.14879
G1 X96.772 Y111.055 E51.15912
G1 X69.228 Y111.055 E52.53329
G1 X69.158 Y110.863 E52.54349
G1 X69.143 Y110.746 E52.54937
G1 X69.079 Y109.979 E52.58777
G1 X69.078 Y81.278 E54.01967
G1 X69.078 Y81.078 E54.02965
G1 X69.278 Y81.078 E54.03611
G1 X72.4 Y81.078 E54.19187
G1 X72.4 Y100.6 E55.16582
G0 F3600 X72 Y101
G1 F1350 X94 Y101 E56.26341
G1 X94 Y81.479 E57.23731
G1 X96.322 Y81.478 E57.35316
G1 X96.522 Y81.478 E57.36314
G1 X96.522 Y81.678 E57.3696
G1 X96.522 Y109.966 E58.78089
G1 X96.461 Y110.655 E58.8154
G1 X69.537 Y110.655 E60.15864
G1 X69.479 Y109.958 E60.19354
G1 X69.478 Y81.678 E61.60443
G1 X69.478 Y81.478 E61.61441
G1 X69.678 Y81.478 E61.62087
G1 X72 Y81.478 E61.73672
G1 X72 Y101 E62.71067
G0 F3600 X71.61 Y101.39
;TYPE:SKIN
G1 F1350 X94.39 Y101.39 E63.84717
G1 X94.39 Y81.869 E64.82108
G1 X96.132 Y81.868 E64.90799
G1 X96.132 Y109.952 E66.3091
G1 X96.104 Y110.265 E66.32478
G1 X69.895 Y110.265 E67.63235
G1 X69.869 Y109.958 E67.64772
G1 X69.868 Y81.868 E69.04914
G1 X71.61 Y81.868 E69.13605
G1 X71.61 Y101.39 E70.11001
G0 F3600 X70.485 Y110.083
G1 F1350 X70.048 Y109.646 E70.14084
G0 F3600 X70.048 Y109.08
G1 F1350 X71.051 Y110.083 E70.21161
G0 F3600 X71.617 Y110.083
G1 F1350 X70.048 Y108.514 E70.32231
G0 F3600 X70.048 Y107.949
G1 F1350 X72.182 Y110.083 E70.47287
G0 F3600 X72.748 Y110.083
G1 F1350 X70.048 Y107.383 E70.66337
G0 F3600 X70.048 Y106.817
G1 F1350 X73.314 Y110.083 E70.89381
G0 F3600 X73.879 Y110.083
G1 F1350 X70.048 Y106.251 E71.16414
G0 F3600 X70.048 Y105.686
G1 F1350 X74.445 Y110.083 E71.47437
G0 F3600 X75.011 Y110.083
G1 F1350 X70.048 Y105.12 E71.82454
G0 F3600 X70.048 Y104.554
G1 F1350 X75.576 Y110.083 E72.2146
G0 F3600 X76.142 Y110.083
G1 F1350 X70.048 Y103.989 E72.64457
G0 F3600 X70.048 Y103.423
G1 F1350 X76.708 Y110.083 E73.11447
G0 F3600 X77.274 Y110.083
G1 F1350 X70.048 Y102.857 E73.6243
G0 F3600 X70.048 Y102.292
G1 F1350 X77.839 Y110.083 E74.174
G0 F3600 X78.405 Y110.083
G1 F1350 X70.048 Y101.726 E74.76363
G0 F3600 X70.048 Y101.16
G1 F1350 X78.971 Y110.083 E75.39319
G0 F3600 X79.536 Y110.083
G1 F1350 X70.048 Y100.595 E76.06262
G0 F3600 X70.048 Y100.029
G1 F1350 X71.429 Y101.411 E76.1601
G0 F3600 X71.588 Y101.569
G1 F1350 X80.102 Y110.083 E76.76081
G0 F3600 X80.668 Y110.083
G1 F1350 X72.153 Y101.569 E77.36155
G0 F3600 X72.719 Y101.569
G1 F1350 X81.233 Y110.083 E77.96226
G0 F3600 X81.799 Y110.083
G1 F1350 X73.285 Y101.569 E78.56297
G0 F3600 X73.85 Y101.569
G1 F1350 X82.365 Y110.083 E79.16371
G0 F3600 X82.93 Y110.083
G1 F1350 X74.416 Y101.569 E79.76442
G0 F3600 X74.982 Y101.569
G1 F1350 X83.496 Y110.083 E80.36513
G0 F3600 X84.062 Y110.083
G1 F1350 X75.547 Y101.569 E80.96587
G0 F3600 X76.113 Y101.569
G1 F1350 X84.627 Y110.083 E81.56658
G0 F3600 X85.193 Y110.083
G1 F1350 X76.679 Y101.569 E82.16729
G0 F3600 X77.245 Y101.569
G1 F1350 X85.759 Y110.083 E82.768
G0 F3600 X86.325 Y110.083
G1 F1350 X77.81 Y101.569 E83.36874
G0 F3600 X78.376 Y101.569
G1 F1350 X86.89 Y110.083 E83.96945
G0 F3600 X87.456 Y110.083
G1 F1350 X78.942 Y101.569 E84.57016
G0 F3600 X79.507 Y101.569
