;FLAVOR:Marlin
;TIME:4292
;Filament used: 5.27649m
;Layer height: 0.3
;Generated with Cura_SteamEngine 4.0.0
M104 S195
M105
M109 S195
M82 ;absolute extrusion mode
G21 ;metric values
G90 ;absolute positioning
M82 ;set extruder to absolute mode
M107 ;start with the fan off
G28 X0 Y0 ;move X/Y to min endstops
G28 Z0 ;move Z to min endstops
G29;
G1 Z15.0 F9000 ;move the platform down 15mm
G92 E0 ;zero the extruded length
G1 F200 E3 ;extrude 3mm of feed stock
G92 E0 ;zero the extruded length again
G1 F9000
;Put printing message on LCD screen
M117 Printing...
G92 E0
G1 F1500 E-6.5
;LAYER_COUNT:101
;LAYER:0
M107
G0 F3600 X87.979 Y65.051 Z0.3
;TYPE:SKIRT
G1 F1500 E0
G1 X88.385 Y64.566 E0.03156
G1 X88.848 Y64.136 E0.06308
G1 X89.362 Y63.768 E0.09462
G1 X89.918 Y63.468 E0.12614
G1 X90.508 Y63.24 E0.15769
G1 X91.122 Y63.089 E0.18924
G1 X92.01 Y63.009 E0.23372
G1 X129.991 Y63.01 E2.1286
G1 X130.622 Y63.05 E2.16015
G1 X131.243 Y63.169 E2.19169
G1 X131.844 Y63.366 E2.22324
G1 X132.415 Y63.637 E2.25478
G1 X132.947 Y63.977 E2.28628
G1 X133.432 Y64.383 E2.31783
G1 X133.863 Y64.846 E2.34939
G1 X134.231 Y65.36 E2.38093
G1 X134.531 Y65.916 E2.41245
G1 X134.759 Y66.505 E2.44396
G1 X134.911 Y67.119 E2.47552
G1 X134.991 Y68.01 E2.52015
G1 X134.99 Y93.994 E3.81649
G1 X134.924 Y94.803 E3.85699
G1 X133.765 Y101.876 E4.21457
G1 X133.233 Y107.254 E4.48419
G1 X133.085 Y109.87 E4.61491
G1 X133 Y113.945 E4.81826
G1 X132.953 Y142.606 E6.24816
G1 X132.919 Y143.181 E6.2769
G1 X132.77 Y144.45 E6.34064
G1 X132.627 Y145.186 E6.37805
G1 X132.214 Y146.696 E6.45615
G1 X131.949 Y147.432 E6.49518
G1 X131.307 Y148.856 E6.57311
G1 X130.932 Y149.54 E6.61202
G1 X130.078 Y150.844 E6.68979
G1 X129.67 Y151.384 E6.72356
G1 X128.837 Y152.343 E6.78693
G1 X128.224 Y152.937 E6.82952
G1 X126.748 Y154.142 E6.92458
G1 X126.169 Y154.55 E6.95992
G1 X125.133 Y155.175 E7.02028
G1 X124.348 Y155.56 E7.0639
G1 X122.513 Y156.267 E7.16201
G1 X121.693 Y156.505 E7.20461
G1 X120.153 Y156.812 E7.28295
G1 X119.442 Y156.901 E7.3187
G1 X117.72 Y156.993 E7.40473
G1 X117.44 Y157 E7.4187
G1 X99.389 Y156.953 E8.31928
G1 X98.792 Y156.916 E8.34912
G1 X97.457 Y156.752 E8.41622
G1 X96.738 Y156.609 E8.4528
G1 X95.294 Y156.211 E8.52752
G1 X94.563 Y155.947 E8.5663
G1 X93.128 Y155.298 E8.64487
G1 X92.547 Y154.988 E8.67773
G1 X91.486 Y154.328 E8.74007
G1 X90.875 Y153.88 E8.77786
G1 X89.684 Y152.86 E8.8561
G1 X89.062 Y152.224 E8.90048
G1 X87.854 Y150.744 E8.99579
G1 X87.439 Y150.152 E9.03186
G1 X86.802 Y149.089 E9.09368
G1 X86.471 Y148.432 E9.13039
G1 X85.879 Y147.002 E9.2076
G1 X85.602 Y146.101 E9.25463
G1 X85.188 Y144.097 E9.35672
G1 X85.092 Y143.345 E9.39454
G1 X85.007 Y141.713 E9.47607
G1 X85 Y141.452 E9.4891
G1 X85.01 Y106.009 E11.25736
G1 X85.087 Y105.135 E11.30113
G1 X85.855 Y100.815 E11.52004
G1 X86.536 Y95.472 E11.78876
G1 X86.916 Y90.082 E12.05833
G1 X87 Y86.057 E12.25918
G1 X87.01 Y68.006 E13.15975
G1 X87.05 Y67.375 E13.1913
G1 X87.17 Y66.755 E13.2228
G1 X87.367 Y66.154 E13.25436
G1 X87.638 Y65.583 E13.28589
G1 X87.979 Y65.051 E13.31741
G0 F3600 X88.376 Y65.188
G1 F1500 X88.779 Y64.735 E13.34766
G1 X89.237 Y64.339 E13.37787
G1 X89.744 Y64.006 E13.40813
G1 X90.29 Y63.743 E13.43837
G1 X90.866 Y63.553 E13.46863
G1 X91.462 Y63.442 E13.49887
G1 X92.01 Y63.409 E13.52626
G1 X129.991 Y63.41 E15.42114
G1 X130.596 Y63.45 E15.45139
G1 X131.191 Y63.569 E15.48166
G1 X131.764 Y63.766 E15.51189
G1 X132.307 Y64.036 E15.54215
G1 X132.81 Y64.375 E15.57241
G1 X133.263 Y64.777 E15.60263
G1 X133.66 Y65.235 E15.63287
G1 X133.993 Y65.742 E15.66313
G1 X134.257 Y66.288 E15.69339
G1 X134.446 Y66.864 E15.72363
G1 X134.558 Y67.46 E15.75388
G1 X134.591 Y68.01 E15.78137
G1 X134.59 Y93.994 E17.07772
G1 X134.529 Y94.738 E17.11496
G1 X133.369 Y101.818 E17.4729
G1 X132.834 Y107.216 E17.74352
G1 X132.685 Y109.869 E17.87609
G1 X132.6 Y113.936 E18.07904
G1 X132.553 Y142.606 E19.50939
G1 X132.522 Y143.134 E19.53578
G1 X132.373 Y144.403 E19.59952
G1 X132.241 Y145.081 E19.63399
G1 X131.828 Y146.591 E19.71209
G1 X131.585 Y147.268 E19.74797
G1 X130.943 Y148.692 E19.8259
G1 X130.597 Y149.321 E19.86172
G1 X129.743 Y150.625 E19.93948
G1 X129.368 Y151.122 E19.97055
G1 X128.535 Y152.081 E20.03392
G1 X127.971 Y152.627 E20.07308
G1 X126.495 Y153.832 E20.16814
G1 X125.962 Y154.208 E20.20069
G1 X124.926 Y154.833 E20.26105
G1 X124.204 Y155.186 E20.30115
G1 X122.369 Y155.893 E20.39925
G1 X121.614 Y156.112 E20.43847
G1 X120.074 Y156.419 E20.51682
G1 X119.42 Y156.501 E20.5497
G1 X117.698 Y156.593 E20.63573
G1 X117.441 Y156.6 E20.64856
G1 X99.39 Y156.553 E21.54913
G1 X98.841 Y156.519 E21.57657
G1 X97.506 Y156.355 E21.64368
G1 X96.845 Y156.224 E21.6773
G1 X95.401 Y155.826 E21.75202
G1 X94.727 Y155.582 E21.78779
G1 X93.292 Y154.933 E21.86636
G1 X92.758 Y154.648 E21.89656
G1 X91.697 Y153.988 E21.9589
G1 X91.135 Y153.576 E21.99366
G1 X89.944 Y152.556 E22.07189
G1 X89.372 Y151.971 E22.11271
G1 X88.164 Y150.491 E22.20802
G1 X87.782 Y149.946 E22.24123
G1 X87.145 Y148.883 E22.30305
G1 X86.841 Y148.279 E22.33679
G1 X86.249 Y146.849 E22.414
G1 X85.994 Y146.02 E22.45728
G1 X85.58 Y144.016 E22.55937
G1 X85.491 Y143.324 E22.59418
G1 X85.406 Y141.692 E22.67571
G1 X85.4 Y141.452 E22.68768
G1 X85.41 Y106.009 E24.45594
G1 X85.481 Y105.205 E24.49621
G1 X86.251 Y100.874 E24.71567
G1 X86.933 Y95.516 E24.98514
G1 X87.316 Y90.098 E25.25612
G1 X87.4 Y86.067 E25.45727
G1 X87.41 Y68.006 E26.35834
G1 X87.45 Y67.401 E26.38859
G1 X87.57 Y66.807 E26.41882
G1 X87.766 Y66.234 E26.44904
G1 X88.037 Y65.691 E26.47931
G1 X88.376 Y65.188 E26.50957
G0 F3600 X88.773 Y65.333
G1 F1500 X89.172 Y64.913 E26.53848
G1 X89.625 Y64.552 E26.56738
G1 X90.123 Y64.257 E26.59625
G1 X90.657 Y64.033 E26.62514
G1 X91.217 Y63.884 E26.65405
G1 X92.01 Y63.809 E26.69379
G1 X129.991 Y63.81 E28.58867
G1 X130.569 Y63.85 E28.61758
G1 X131.136 Y63.969 E28.64648
G1 X131.681 Y64.165 E28.67538
G1 X132.194 Y64.434 E28.70428
G1 X132.665 Y64.771 E28.73317
G1 X133.085 Y65.17 E28.76207
G1 X133.447 Y65.623 E28.791
G1 X133.742 Y66.121 E28.81988
G1 X133.967 Y66.655 E28.84879
G1 X134.115 Y67.215 E28.87769
G1 X134.191 Y68.01 E28.91753
G1 X134.19 Y93.994 E30.21388
G1 X134.135 Y94.673 E30.24786
G1 X132.971 Y101.775 E30.60691
G1 X132.434 Y107.203 E30.87904
G1 X132.286 Y109.837 E31.01066
G1 X132.2 Y113.927 E31.21475
G1 X132.153 Y142.605 E32.6455
G1 X132.124 Y143.088 E32.66965
G1 X131.975 Y144.357 E32.73339
G1 X131.855 Y144.975 E32.7648
G1 X131.442 Y146.485 E32.8429
G1 X131.22 Y147.103 E32.87566
G1 X130.578 Y148.527 E32.95359
G1 X130.263 Y149.102 E32.9863
G1 X129.409 Y150.406 E33.06407
G1 X129.066 Y150.859 E33.09242
G1 X128.233 Y151.818 E33.15579
G1 X127.718 Y152.317 E33.19156
G1 X126.242 Y153.522 E33.28663
G1 X125.756 Y153.865 E33.3163
G1 X124.72 Y154.49 E33.37667
G1 X124.06 Y154.813 E33.41333
G1 X122.225 Y155.52 E33.51143
G1 X121.536 Y155.72 E33.54723
G1 X119.996 Y156.027 E33.62557
G1 X119.399 Y156.102 E33.65559
G1 X117.677 Y156.194 E33.74162
G1 X117.442 Y156.2 E33.75335
G1 X99.391 Y156.153 E34.65392
G1 X98.89 Y156.122 E34.67896
G1 X97.555 Y155.958 E34.74607
G1 X96.951 Y155.838 E34.77679
G1 X95.507 Y155.44 E34.85152
G1 X94.892 Y155.218 E34.88414
G1 X93.457 Y154.569 E34.96271
G1 X92.97 Y154.308 E34.99028
G1 X91.909 Y153.648 E35.05262
G1 X91.395 Y153.272 E35.08439
G1 X90.204 Y152.252 E35.16262
G1 X89.682 Y151.718 E35.19988
G1 X88.474 Y150.238 E35.29519
G1 X88.125 Y149.741 E35.32549
G1 X87.488 Y148.678 E35.38731
G1 X87.21 Y148.126 E35.41815
G1 X86.618 Y146.696 E35.49536
G1 X86.386 Y145.939 E35.53486
G1 X85.972 Y143.935 E35.63696
G1 X85.891 Y143.303 E35.66874
G1 X85.806 Y141.671 E35.75027
G1 X85.8 Y141.452 E35.7612
G1 X85.81 Y106.009 E37.52946
G1 X85.875 Y105.275 E37.56623
G1 X86.646 Y100.935 E37.78614
G1 X87.331 Y95.558 E38.05657
G1 X87.715 Y90.115 E38.32879
G1 X87.8 Y86.075 E38.5304
G1 X87.81 Y68.007 E39.43181
G1 X87.85 Y67.429 E39.46072
G1 X87.97 Y66.862 E39.48963
G1 X88.166 Y66.317 E39.51853
G1 X88.435 Y65.804 E39.54743
G1 X88.773 Y65.333 E39.57635
G1 F1500 E33.07635
;MESH:switch_holder_2.STL
G0 F3600 X91.335 Y68.614
G0 X92.614 Y68.614
G0 X116.213 Y74.958
G0 X116.684 Y75.124
;TYPE:WALL-OUTER
G1 F1500 E39.57635
G1 X116.504 Y75.637 E39.60347
G1 X116.412 Y76.172 E39.63056
G1 X116.412 Y76.714 E39.6576
G1 X116.504 Y77.249 E39.68468
G1 X116.684 Y77.762 E39.7118
G1 X116.949 Y78.235 E39.73885
G1 X117.29 Y78.658 E39.76596
G1 X117.698 Y79.016 E39.79304
G1 X118.16 Y79.301 E39.82012
G1 X118.663 Y79.504 E39.84718
G1 X119.195 Y79.618 E39.87433
G1 X119.737 Y79.641 E39.90139
G1 X120.275 Y79.572 E39.92845
G1 X120.794 Y79.413 E39.95553
G1 X121.279 Y79.169 E39.98262
G1 X121.716 Y78.846 E40.00973
G1 X122.091 Y78.454 E40.03679
G1 X122.395 Y78.004 E40.06389
G1 X122.618 Y77.509 E40.09097
G1 X122.756 Y76.984 E40.11806
G1 X122.802 Y76.443 E40.14514
G1 X122.756 Y75.902 E40.17223
G1 X122.618 Y75.377 E40.19931
G1 X122.395 Y74.882 E40.2264
G1 X122.091 Y74.432 E40.25349
G1 X121.716 Y74.04 E40.28056
G1 X121.279 Y73.717 E40.30767
G1 X120.794 Y73.473 E40.33476
G1 X120.275 Y73.314 E40.36184
G1 X119.737 Y73.245 E40.3889
G1 X119.194 Y73.268 E40.41601
G1 X118.663 Y73.383 E40.44312
G1 X118.16 Y73.585 E40.47016
G1 X117.698 Y73.87 E40.49724
G1 X117.29 Y74.228 E40.52432
G1 X116.949 Y74.651 E40.55143
G1 X116.684 Y75.124 E40.57848
G0 F3600 X116.618 Y75.312
G0 X116.147 Y75.146
G0 X115.973 Y76.135
G0 X115.973 Y76.751
G0 X116.077 Y77.36
G0 X116.282 Y77.943
G0 X116.552 Y78.428
G0 X129.33 Y93.33
G0 X129.8 Y93.8
G1 F1500 X92.2 Y93.8 E42.45435
G1 X92.2 Y68.2 E43.73154
G1 X129.8 Y68.2 E45.60741
G1 X129.8 Y93.8 E46.8846
G0 F3600 X129.6 Y93.8
G0 X129.4 Y93.4
;TYPE:WALL-INNER
G1 F1500 X92.6 Y93.4 E48.72056
G1 X92.6 Y68.6 E49.95784
G1 X129.4 Y68.6 E51.7938
G1 X129.4 Y93.4 E53.03107
G0 F3600 X129.33 Y93.33
G0 X123.25 Y77.068
G0 X123.152 Y77.052
G1 F1500 X123.203 Y76.443 E53.06156
G1 X123.152 Y75.834 E53.09205
G1 X122.996 Y75.243 E53.12255
G1 X122.746 Y74.686 E53.15301
G1 X122.403 Y74.18 E53.1835
G1 X121.981 Y73.739 E53.21396
G1 X121.489 Y73.375 E53.24449
G1 X120.944 Y73.1 E53.27495
G1 X120.36 Y72.922 E53.30541
G1 X119.754 Y72.844 E53.33589
G1 X119.143 Y72.87 E53.3664
G1 X118.545 Y72.999 E53.39692
G1 X117.979 Y73.227 E53.42736
G1 X117.459 Y73.547 E53.45782
G1 X117 Y73.95 E53.4883
G1 X116.616 Y74.426 E53.51881
G1 X116.318 Y74.959 E53.54927
G1 X116.115 Y75.536 E53.57979
G1 X116.012 Y76.138 E53.61026
G1 X116.012 Y76.748 E53.64069
G1 X116.115 Y77.35 E53.67116
G1 X116.318 Y77.927 E53.70168
G1 X116.616 Y78.46 E53.73215
G1 X117 Y78.936 E53.76266
G1 X117.459 Y79.339 E53.79313
G1 X117.979 Y79.659 E53.82359
G1 X118.545 Y79.888 E53.85405
G1 X119.144 Y80.016 E53.88461
G1 X119.754 Y80.042 E53.91507
G1 X120.36 Y79.964 E53.94556
G1 X120.944 Y79.786 E53.97602
G1 X121.489 Y79.511 E54.00647
G1 X121.981 Y79.147 E54.03701
G1 X122.403 Y78.706 E54.06746
G1 X122.746 Y78.2 E54.09796
G1 X122.996 Y77.643 E54.12841
G1 X123.152 Y77.052 E54.15891
G0 F3600 X123.548 Y77.12
G1 F1500 X123.604 Y76.443 E54.1928
G1 X123.548 Y75.766 E54.22669
G1 X123.374 Y75.109 E54.2606
G1 X123.097 Y74.49 E54.29443
G1 X122.715 Y73.928 E54.32833
G1 X122.246 Y73.438 E54.36217
G1 X121.7 Y73.033 E54.39609
G1 X121.094 Y72.727 E54.42996
G1 X120.444 Y72.53 E54.46384
G1 X119.771 Y72.443 E54.4977
G1 X119.092 Y72.472 E54.53161
G1 X118.427 Y72.615 E54.56554
G1 X117.798 Y72.869 E54.59938
G1 X117.221 Y73.224 E54.63318
G1 X116.71 Y73.672 E54.66709
G1 X116.283 Y74.201 E54.701
G1 X115.952 Y74.794 E54.73489
G1 X115.726 Y75.435 E54.7688
G1 X115.612 Y76.104 E54.80265
G1 X115.612 Y76.782 E54.83648
G1 X115.726 Y77.451 E54.87034
G1 X115.952 Y78.092 E54.90425
G1 X116.283 Y78.685 E54.93813
G1 X116.71 Y79.214 E54.97204
G1 X117.221 Y79.662 E55.00595
G1 X117.798 Y80.017 E55.03975
G1 X118.427 Y80.272 E55.07361
G1 X119.093 Y80.414 E55.10758
G1 X119.771 Y80.443 E55.14144
G1 X120.444 Y80.356 E55.17529
G1 X121.094 Y80.159 E55.20918
G1 X121.7 Y79.853 E55.24305
G1 X122.246 Y79.448 E55.27696
G1 X122.715 Y78.958 E55.3108
G1 X123.097 Y78.396 E55.34471
G1 X123.374 Y77.777 E55.37854
G1 X123.548 Y77.12 E55.41245
G0 F3600 X129 Y93
G1 F1500 X93 Y93 E57.20849
G1 X93 Y69 E58.40586
G1 X129 Y69 E60.20191
G1 X129 Y93 E61.39927
G0 F3600 X128.61 Y92.61
;TYPE:SKIN
G1 F1500 X93.39 Y92.61 E63.1564
G1 X93.39 Y69.39 E64.31485
G1 X128.61 Y69.39 E66.07199
G1 X128.61 Y92.61 E67.23044
G0 F3600 X121.905 Y80.186
G1 F1500 X122.505 Y79.742 E67.26768
G1 X123.019 Y79.204 E67.3048
G1 X123.439 Y78.587 E67.34204
G1 X123.743 Y77.908 E67.37915
G1 X123.934 Y77.186 E67.41641
G1 X123.996 Y76.443 E67.45361
G1 X123.934 Y75.7 E67.49081
G1 X123.743 Y74.978 E67.52807
G1 X123.439 Y74.299 E67.56518
G1 X123.019 Y73.682 E67.60242
G1 X122.505 Y73.144 E67.63954
G1 X121.905 Y72.7 E67.67678
G1 X121.24 Y72.364 E67.71395
G1 X120.526 Y72.148 E67.75117
G1 X119.788 Y72.051 E67.7883
G1 X119.043 Y72.084 E67.82551
G1 X118.312 Y72.241 E67.86281
G1 X117.622 Y72.52 E67.89994
G1 X116.989 Y72.909 E67.93701
G1 X116.427 Y73.401 E67.97427
G1 X115.959 Y73.982 E68.01149
G1 X115.595 Y74.633 E68.0487
G1 X115.347 Y75.337 E68.08594
G1 X115.222 Y76.071 E68.12309
G1 X115.222 Y76.815 E68.16021
G1 X115.347 Y77.549 E68.19735
G1 X115.595 Y78.253 E68.23459
G1 X115.959 Y78.904 E68.2718
G1 X116.427 Y79.485 E68.30902
G1 X116.989 Y79.977 E68.34629
G1 X117.621 Y80.366 E68.38331
G1 X118.312 Y80.646 E68.42051
G1 X119.044 Y80.802 E68.45785
G1 X119.788 Y80.835 E68.495
G1 X120.526 Y80.738 E68.53214
G1 X121.24 Y80.522 E68.56935
G1 X121.905 Y80.186 E68.60653
G0 F3600 X128.429 Y70.164
G1 F1500 X127.835 Y69.57 E68.64844
G0 F3600 X127.27 Y69.57
G1 F1500 X128.429 Y70.729 E68.73021
G0 F3600 X128.429 Y71.295
G1 F1500 X126.704 Y69.57 E68.85192
G0 F3600 X126.138 Y69.57
G1 F1500 X128.429 Y71.861 E69.01356
G0 F3600 X128.429 Y72.426
G1 F1500 X125.572 Y69.57 E69.2151
G0 F3600 X125.007 Y69.57
G1 F1500 X128.429 Y72.992 E69.45654
G0 F3600 X128.429 Y73.558
G1 F1500 X124.441 Y69.57 E69.73792
G0 F3600 X123.875 Y69.57
G1 F1500 X128.429 Y74.123 E70.05919
G0 F3600 X128.429 Y74.689
G1 F1500 X123.31 Y69.57 E70.42036
G0 F3600 X122.744 Y69.57
G1 F1500 X128.429 Y75.255 E70.82147
G0 F3600 X128.429 Y75.82
G1 F1500 X122.178 Y69.57 E71.26248
G0 F3600 X121.613 Y69.57
G1 F1500 X128.429 Y76.386 E71.74338
G0 F3600 X128.429 Y76.952
G1 F1500 X121.047 Y69.57 E72.26422
G0 F3600 X120.481 Y69.57
G1 F1500 X128.429 Y77.517 E72.82496
G0 F3600 X128.429 Y78.083
G1 F1500 X119.916 Y69.57 E73.4256
G0 F3600 X119.35 Y69.57
G1 F1500 X128.429 Y78.649 E74.06617
G0 F3600 X128.429 Y79.215
G1 F1500 X123.734 Y74.519 E74.39747
G1 X123.664 Y74.449
G0 F3600 X124.037 Y75.388
G1 F1500 X128.429 Y79.78 E74.70735
G0 F3600 X128.429 Y80.346
G1 F1500 X124.143 Y76.06 E75.00975
G0 F3600 X124.159 Y76.641
G1 F1500 X128.429 Y80.912 E75.31105
G0 F3600 X128.429 Y81.477
G1 F1500 X124.115 Y77.163 E75.61543
G0 F3600 X124.004 Y77.618
G1 F1500 X128.429 Y82.043 E75.92764
G0 F3600 X128.429 Y82.609
G1 F1500 X123.873 Y78.053 E76.24909
G0 F3600 X123.699 Y78.444
G1 F1500 X128.429 Y83.174 E76.58281
G0 F3600 X128.429 Y83.74
G1 F1500 X123.501 Y78.812 E76.93051
G0 F3600 X123.272 Y79.148
G1 F1500 X128.429 Y84.306 E77.2944
G0 F3600 X128.429 Y84.871
G1 F1500 X123.019 Y79.461 E77.67611
G0 F3600 X122.743 Y79.751
G1 F1500 X128.429 Y85.437 E78.07728
G0 F3600 X128.429 Y86.003
G1 F1500 X122.44 Y80.014 E78.49984
G0 F3600 X122.115 Y80.254
G1 F1500 X128.429 Y86.568 E78.94533
G0 F3600 X128.429 Y87.134
G1 F1500 X121.756 Y80.461 E79.41614
G0 F3600 X121.381 Y80.651
G1 F1500 X128.429 Y87.7 E79.91345
G0 F3600 X128.429 Y88.266
G1 F1500 X120.959 Y80.795 E80.44054
G0 F3600 X120.518 Y80.92
G1 F1500 X128.429 Y88.831 E80.9987
G0 F3600 X128.429 Y89.397
G1 F1500 X120.018 Y80.986 E81.59214
G0 F3600 X119.468 Y81.001
G1 F1500 X128.429 Y89.963 E82.22442
G0 F3600 X128.429 Y90.528
G1 F1500 X118.844 Y80.943 E82.9007
G0 F3600 X118.083 Y80.748
G1 F1500 X128.429 Y91.094 E83.63066
G0 F3600 X128.429 Y91.66
G1 F1500 X116.91 Y80.141 E84.44339
G1 X116.84 Y80.071
G0 F3600 X115.953 Y79.183
G1 F1500 X106.339 Y69.57 E85.12168
G0 F3600 X105.773 Y69.57
G1 F1500 X128.429 Y92.225 E86.72014
G0 F3600 X128.067 Y92.429
G1 F1500 X105.208 Y69.57 E88.33297
G0 F3600 X104.642 Y69.57
G1 F1500 X127.501 Y92.429 E89.9458
G0 F3600 X126.936 Y92.429
