;FLAVOR:Marlin
;TIME:7294
;Filament used: 8.01302m
;Layer height: 0.3
;Generated with Cura_SteamEngine 4.0.0
M104 S195
M105
M109 S195
M82 ;absolute extrusion mode
G21 ;metric values
G90 ;absolute positioning
M82 ;set extruder to absolute mode
M107 ;start with the fan off
G28 X0 Y0 ;move X/Y to min endstops
G28 Z0 ;move Z to min endstops
G29;
G1 Z15.0 F9000 ;move the platform down 15mm
G92 E0 ;zero the extruded length
G1 F200 E3 ;extrude 3mm of feed stock
G92 E0 ;zero the extruded length again
G1 F9000
;Put printing message on LCD screen
M117 Printing...
G92 E0
G1 F1500 E-6.5
;LAYER_COUNT:14
;LAYER:0
M107
G0 F3600 X42.733 Y52.008 Z0.3
;TYPE:SKIRT
G1 F1500 E0
G1 F1350 X43.221 Y51.613 E0.03132
G1 X43.737 Y51.247 E0.06288
G1 X44.178 Y51.004 E0.088
G1 X44.87 Y50.667 E0.12641
G1 X45.455 Y50.426 E0.15797
G1 X45.873 Y50.305 E0.17968
G1 X46.348 Y50.189 E0.20408
G1 X46.97 Y50.078 E0.2356
G1 X47.534 Y50.046 E0.26378
G1 X152.382 Y50.039 E5.49467
G1 X153.013 Y50.079 E5.52621
G1 X153.497 Y50.165 E5.55074
G1 X154.087 Y50.3 E5.58093
G1 X154.693 Y50.48 E5.61247
G1 X155.044 Y50.624 E5.6314
G1 X155.549 Y50.854 E5.65908
G1 X156.107 Y51.152 E5.69064
G1 X156.609 Y51.506 E5.72129
G1 X157.347 Y52.099 E5.76852
G1 X157.814 Y52.526 E5.80009
G1 X158.307 Y53.123 E5.83872
G1 X158.734 Y53.731 E5.87579
G1 X159.064 Y54.271 E5.90736
G1 X159.232 Y54.623 E5.92682
G1 X159.428 Y55.077 E5.95149
G1 X159.695 Y55.871 E5.99328
G1 X159.81 Y56.341 E6.01742
G1 X159.921 Y56.963 E6.04894
G1 X159.953 Y57.529 E6.07723
G1 X159.953 Y142.467 E10.3148
G1 X159.913 Y143.098 E10.34634
G1 X159.78 Y143.772 E10.38062
G1 X159.621 Y144.36 E10.41101
G1 X159.417 Y144.959 E10.44258
G1 X159.208 Y145.405 E10.46715
G1 X158.838 Y146.1 E10.50643
G1 X158.506 Y146.638 E10.53797
G1 X158.233 Y146.989 E10.56016
G1 X157.932 Y147.343 E10.58334
G1 X157.271 Y147.989 E10.62945
G1 X156.781 Y148.386 E10.66091
G1 X156.265 Y148.752 E10.69247
G1 X155.822 Y148.996 E10.71771
G1 X155.13 Y149.333 E10.75611
G1 X154.545 Y149.574 E10.78767
G1 X154.127 Y149.695 E10.80938
G1 X153.652 Y149.811 E10.83378
G1 X153.03 Y149.922 E10.8653
G1 X152.466 Y149.954 E10.89348
G1 X47.533 Y149.953 E16.12861
G1 X46.902 Y149.913 E16.16016
G1 X46.222 Y149.778 E16.19474
G1 X45.626 Y149.616 E16.22556
G1 X45.027 Y149.412 E16.25713
G1 X44.577 Y149.199 E16.28196
G1 X43.886 Y148.829 E16.32107
G1 X43.348 Y148.496 E16.35264
G1 X42.985 Y148.212 E16.37563
G1 X42.613 Y147.892 E16.40011
G1 X41.966 Y147.219 E16.44669
G1 X41.587 Y146.744 E16.477
G1 X41.224 Y146.226 E16.50856
G1 X40.998 Y145.812 E16.53209
G1 X40.665 Y145.127 E16.57009
G1 X40.425 Y144.542 E16.60164
G1 X40.305 Y144.127 E16.62319
G1 X40.189 Y143.652 E16.64758
G1 X40.078 Y143.03 E16.67911
G1 X40.046 Y142.466 E16.70729
G1 X40.047 Y57.532 E20.94466
G1 X40.087 Y56.901 E20.97621
G1 X40.223 Y56.218 E21.01095
G1 X40.385 Y55.623 E21.04172
G1 X40.589 Y55.025 E21.07324
G1 X40.799 Y54.581 E21.09774
G1 X41.166 Y53.894 E21.1366
G1 X41.498 Y53.356 E21.16814
G1 X41.768 Y53.009 E21.19008
G1 X42.071 Y52.653 E21.2134
G1 X42.733 Y52.008 E21.25951
G0 F3600 X42.985 Y52.319
G1 F1350 X43.473 Y51.924 E21.29084
G1 X43.968 Y51.574 E21.32108
G1 X44.353 Y51.363 E21.34298
G1 X45.045 Y51.026 E21.38138
G1 X45.606 Y50.797 E21.41161
G1 X45.968 Y50.693 E21.43041
G1 X46.443 Y50.577 E21.4548
G1 X47.04 Y50.473 E21.48503
G1 X47.534 Y50.446 E21.50972
G1 X152.382 Y50.439 E26.7406
G1 X152.987 Y50.479 E26.77085
G1 X153.408 Y50.555 E26.7922
G1 X153.998 Y50.69 E26.82239
G1 X154.579 Y50.864 E26.85265
G1 X154.879 Y50.988 E26.86885
G1 X155.384 Y51.218 E26.89653
G1 X155.918 Y51.505 E26.92678
G1 X156.358 Y51.818 E26.95371
G1 X157.096 Y52.411 E27.00095
G1 X157.543 Y52.821 E27.03121
G1 X157.979 Y53.353 E27.06552
G1 X158.406 Y53.961 E27.10259
G1 X158.721 Y54.479 E27.13284
G1 X158.865 Y54.782 E27.14957
G1 X159.061 Y55.236 E27.17425
G1 X159.306 Y55.966 E27.21266
G1 X159.421 Y56.436 E27.2368
G1 X159.526 Y57.033 E27.26704
G1 X159.553 Y57.529 E27.29183
G1 X159.553 Y142.467 E31.5294
G1 X159.513 Y143.072 E31.55965
G1 X159.394 Y143.668 E31.58997
G1 X159.235 Y144.256 E31.62036
G1 X159.038 Y144.829 E31.65059
G1 X158.854 Y145.217 E31.67201
G1 X158.484 Y145.912 E31.71129
G1 X158.165 Y146.427 E31.74152
G1 X157.928 Y146.73 E31.76071
G1 X157.627 Y147.084 E31.78389
G1 X157.019 Y147.678 E31.8263
G1 X156.529 Y148.075 E31.85776
G1 X156.034 Y148.425 E31.88801
G1 X155.647 Y148.637 E31.91002
G1 X154.955 Y148.974 E31.94842
G1 X154.394 Y149.203 E31.97865
G1 X154.032 Y149.307 E31.99744
G1 X153.557 Y149.423 E32.02184
G1 X152.96 Y149.527 E32.05207
G1 X152.466 Y149.554 E32.07675
G1 X47.533 Y149.553 E37.31188
G1 X46.928 Y149.513 E37.34213
G1 X46.326 Y149.392 E37.37276
G1 X45.73 Y149.23 E37.40358
G1 X45.157 Y149.033 E37.43381
G1 X44.766 Y148.846 E37.45543
G1 X44.075 Y148.476 E37.49454
G1 X43.56 Y148.155 E37.52481
G1 X43.246 Y147.908 E37.54474
G1 X42.874 Y147.588 E37.56922
G1 X42.278 Y146.97 E37.61206
G1 X41.899 Y146.495 E37.64238
G1 X41.553 Y145.997 E37.67263
G1 X41.358 Y145.637 E37.69305
G1 X41.025 Y144.952 E37.73105
G1 X40.796 Y144.391 E37.76128
G1 X40.693 Y144.032 E37.77992
G1 X40.577 Y143.557 E37.80431
G1 X40.473 Y142.96 E37.83454
G1 X40.446 Y142.466 E37.85923
G1 X40.447 Y57.532 E42.0966
G1 X40.487 Y56.927 E42.12685
G1 X40.609 Y56.324 E42.15754
G1 X40.771 Y55.729 E42.18831
G1 X40.968 Y55.155 E42.21859
G1 X41.152 Y54.77 E42.23987
G1 X41.519 Y54.083 E42.27873
G1 X41.839 Y53.568 E42.30898
G1 X42.073 Y53.269 E42.32793
G1 X42.376 Y52.913 E42.35125
G1 X42.985 Y52.319 E42.39369
G0 F3600 X43.237 Y52.629
G1 F1350 X43.725 Y52.234 E42.42501
G1 X44.199 Y51.902 E42.45389
G1 X44.528 Y51.723 E42.47257
G1 X45.22 Y51.386 E42.51097
G1 X45.757 Y51.169 E42.53987
G1 X46.063 Y51.082 E42.55574
G1 X46.538 Y50.966 E42.58013
G1 X47.109 Y50.868 E42.60904
G1 X47.534 Y50.846 E42.63027
G1 X152.382 Y50.839 E47.86116
G1 X152.96 Y50.879 E47.89006
G1 X153.319 Y50.945 E47.90827
G1 X153.909 Y51.08 E47.93847
G1 X154.713 Y51.352 E47.98081
G1 X155.218 Y51.582 E48.0085
G1 X155.727 Y51.858 E48.03739
G1 X156.108 Y52.13 E48.06074
G1 X156.846 Y52.723 E48.10797
G1 X157.271 Y53.116 E48.13685
G1 X157.652 Y53.583 E48.16692
G1 X158.079 Y54.191 E48.20399
G1 X158.498 Y54.94 E48.2468
G1 X158.694 Y55.394 E48.27148
G1 X158.918 Y56.061 E48.30658
G1 X159.033 Y56.531 E48.33072
G1 X159.131 Y57.102 E48.35962
G1 X159.153 Y57.529 E48.38095
G1 X159.153 Y142.467 E52.61853
G1 X159.113 Y143.045 E52.64743
G1 X159.007 Y143.563 E52.67381
G1 X158.848 Y144.151 E52.7042
G1 X158.659 Y144.699 E52.73312
G1 X158.501 Y145.029 E52.75138
G1 X158.131 Y145.724 E52.79066
G1 X157.825 Y146.215 E52.81952
G1 X157.624 Y146.471 E52.83576
G1 X157.323 Y146.825 E52.85894
G1 X156.767 Y147.367 E52.89768
G1 X156.277 Y147.764 E52.92914
G1 X155.803 Y148.097 E52.95804
G1 X155.472 Y148.277 E52.97684
G1 X154.78 Y148.614 E53.01524
G1 X154.243 Y148.831 E53.04414
G1 X153.937 Y148.918 E53.06001
G1 X153.462 Y149.034 E53.0844
G1 X152.891 Y149.132 E53.11331
G1 X152.466 Y149.154 E53.13454
G1 X47.533 Y149.153 E58.36967
G1 X46.955 Y149.113 E58.39857
G1 X46.431 Y149.006 E58.42525
G1 X45.835 Y148.844 E58.45607
G1 X45.288 Y148.654 E58.48496
G1 X44.954 Y148.494 E58.50343
G1 X44.263 Y148.124 E58.54254
G1 X43.773 Y147.816 E58.57141
G1 X43.507 Y147.605 E58.58835
G1 X43.135 Y147.285 E58.61283
G1 X42.591 Y146.721 E58.65193
G1 X42.212 Y146.246 E58.68224
G1 X41.883 Y145.769 E58.71115
G1 X41.718 Y145.462 E58.72854
G1 X41.385 Y144.777 E58.76654
G1 X41.168 Y144.24 E58.79544
G1 X41.082 Y143.937 E58.81115
G1 X40.966 Y143.462 E58.83554
G1 X40.868 Y142.891 E58.86445
G1 X40.846 Y142.466 E58.88568
G1 X40.847 Y57.532 E63.12305
G1 X40.887 Y56.954 E63.15196
G1 X40.995 Y56.429 E63.1787
G1 X41.157 Y55.834 E63.20946
G1 X41.347 Y55.287 E63.23835
G1 X41.504 Y54.958 E63.25654
G1 X41.871 Y54.271 E63.2954
G1 X42.179 Y53.78 E63.32432
G1 X42.378 Y53.528 E63.34034
G1 X42.681 Y53.172 E63.36366
G1 X43.237 Y52.629 E63.40243
G1 F1500 E56.90243
G0 F3600 X46.841 Y54.562
G0 X46.88 Y54.583
G0 X90.874 Y78.192
G0 X90.913 Y78.213
G0 X91.162 Y78.347
;TYPE:SUPPORT
G1 F1500 E63.40243
G1 F1350 X91.935 Y78.347 E63.441
G1 X92.328 Y80.031 E63.52727
G1 X90.764 Y80.04 E63.6053
G1 X91.162 Y78.347 E63.69207
G1 F1500 E57.19207
G0 F3600 X92.789 Y80.945
G0 X93.585 Y84.344
G0 X94.939 Y84.344
G0 X96.626 Y78.347
G1 F1500 E63.69207
G1 F1350 X97.325 Y78.347 E63.72694
G1 X97.751 Y80.13 E63.8184
G1 X96.202 Y80.121 E63.89568
G1 X96.626 Y78.347 E63.98668
G1 F1500 E57.48668
G0 F3600 X94.939 Y84.344
G0 X93.475 Y84.588
G1 F1500 E63.98668
G1 F1350 X95.046 Y84.588 E64.06505
G1 X94.758 Y85.793 E64.12687
G1 X93.756 Y85.793 E64.17686
G1 X93.475 Y84.588 E64.23859
G0 F3600 X93.815 Y85.344
G1 F1350 X94.7 Y85.344 E64.28274
G1 F1500 E57.78274
G0 F3600 X96.309 Y80.365
G0 X97.668 Y80.373
G0 X99.425 Y86.044
G0 X99.39 Y85.632
G0 X101.661 Y85.772
G0 X101.705 Y85.774
G0 X101.978 Y85.793
G1 F1500 E64.28274
G1 F1350 X101.978 Y83.052 E64.41949
G1 X102.001 Y83.055 E64.42064
G1 X102.009 Y84.064 E64.47099
G1 X103.758 Y84.263 E64.55881
G1 X103.38 Y85.793 E64.63743
G1 X101.978 Y85.793 E64.70738
G1 F1500 E58.20738
G0 F3600 X103.98 Y84.365
G0 X104.97 Y80.365
G0 X106.312 Y80.365
G0 X107.525 Y84.263
G1 F1500 E64.70738
G1 F1350 X109.274 Y84.064 E64.7952
G1 X109.282 Y83.055 E64.84554
G1 X109.305 Y83.052 E64.8467
G1 X109.305 Y85.793 E64.98345
G1 X107.902 Y85.793 E65.05344
G1 X107.525 Y84.263 E65.13206
G1 F1500 E58.63206
G0 F3600 X106.312 Y80.365
G0 X104.939 Y80.121
G1 F1500 E65.13206
G1 F1350 X105.362 Y78.347 E65.22305
G1 X105.921 Y78.347 E65.25093
G1 X106.344 Y80.121 E65.34192
G1 X104.939 Y80.121 E65.41202
G0 F3600 X103.326 Y85.344
G1 F1350 X102.138 Y85.344 E65.47129
G1 F1500 E58.97129
G0 F3600 X103.97 Y84.397
G0 X104.97 Y80.365
G0 X106.312 Y80.365
G0 X107.956 Y85.344
G1 F1500 E65.47129
G1 F1350 X109.145 Y85.344 E65.53061
G1 F1500 E59.03061
G0 F3600 X108.87 Y86.062
G0 X108.854 Y86.104
G0 X106.808 Y91.476
G0 X106.793 Y91.517
G0 X106.669 Y91.845
G1 F1500 E65.53061
G1 F1350 X124.74 Y123.145 E67.33374
G1 X114.61 Y123.145 E67.83913
G1 X113.34 Y120.945 E67.96586
G1 X119.657 Y120.945 E68.28102
G1 X120.295 Y119.846 E68.34442
G1 X107.303 Y97.345 E69.64069
G1 X106.035 Y97.345 E69.70395
G1 X102.874 Y102.817 E70.01922
G1 X101.604 Y100.617 E70.14596
G1 X106.669 Y91.845 E70.65131
G0 F3600 X106.68 Y92.185
G1 F1350 X106.68 Y97.185 E70.90076
G1 F1500 E64.40076
G0 F3600 X108.257 Y98.679
G1 F1500 E70.90076
G1 F1350 X110.431 Y98.679 E71.00922
G0 F3600 X109.347 Y96.804
G1 F1350 X109.347 Y100.565 E71.19686
G0 F3600 X109.797 Y101.346
G1 F1350 X111.97 Y101.346 E71.30527
G0 F3600 X112.014 Y101.423
G1 F1350 X112.014 Y105.184 E71.49291
G0 F3600 X111.337 Y104.013
G1 F1350 X113.51 Y104.013 E71.60132
G0 F3600 X114.681 Y106.043
G1 F1350 X114.681 Y109.804 E71.78896
G0 F3600 X114.417 Y109.347
G1 F1350 X116.59 Y109.347 E71.89737
G0 F3600 X117.348 Y110.662
G1 F1350 X117.348 Y114.423 E72.085
G0 F3600 X117.497 Y114.681
G1 F1350 X119.67 Y114.681 E72.19342
G0 F3600 X120.015 Y115.281
G1 F1350 X120.015 Y119.042 E72.38105
G0 F3600 X120.38 Y120.015
G1 F1350 X122.748 Y120.015 E72.49919
G0 F3600 X122.682 Y119.901
G1 F1350 X122.682 Y122.985 E72.65305
G0 F3600 X124.288 Y122.682
G1 F1350 X114.526 Y122.682 E73.14008
G0 F3600 X114.681 Y122.948
G1 F1350 X114.681 Y121.105 E73.23203
G0 F3600 X117.348 Y121.105
G1 F1350 X117.348 Y122.985 E73.32582
G0 F3600 X120.015 Y122.985
G1 F1350 X120.015 Y120.646 E73.44252
G1 F1500 E66.94252
G0 F3600 X120.016 Y119.926
G0 X119.037 Y117.348
G1 F1500 E73.44252
G1 F1350 X121.21 Y117.348 E73.55093
G0 F3600 X118.13 Y112.014
G1 F1350 X115.957 Y112.014 E73.65934
G0 F3600 X115.05 Y106.68
G1 F1350 X112.877 Y106.68 E73.76775
G1 F1500 E67.26775
G0 F3600 X107.165 Y97.586
G0 X106.174 Y97.586
G0 X103.538 Y101.346
G1 F1500 E73.76775
G1 F1350 X102.209 Y101.346 E73.83405
G0 F3600 X104.013 Y100.526
G1 F1350 X104.013 Y96.765 E74.02169
G0 F3600 X104.448 Y96.012
G1 F1350 X108.891 Y96.012 E74.24335
G0 F3600 X107.351 Y93.345
G1 F1350 X105.988 Y93.345 E74.31135
G0 F3600 X105.079 Y98.679
G1 F1350 X102.908 Y98.679 E74.41967
G1 F1500 E67.91967
G0 F3600 X102.45 Y98.608
G0 X102.406 Y98.602
G0 X97.346 Y97.829
G0 X97.302 Y97.823
G0 X94.172 Y97.345
G1 F1500 E74.41967
G1 F1350 X92.904 Y97.345 E74.48293
G1 X79.911 Y119.846 E75.77922
G1 X80.549 Y120.945 E75.84262
G1 X106.526 Y120.945 E77.13862
G1 X107.164 Y119.846 E77.20202
G1 X94.172 Y97.345 E78.49829
G0 F3600 X93.538 Y91.845
G1 F1350 X111.61 Y123.145 E80.30145
G1 X75.466 Y123.145 E82.10468
G1 X93.538 Y91.845 E83.90784
G0 F3600 X93.345 Y92.499
G1 F1350 X93.345 Y97.185 E84.14162
G0 F3600 X91.949 Y98.679
G1 F1350 X89.777 Y98.679 E84.24999
G0 F3600 X90.678 Y97.118
G1 F1350 X90.678 Y100.881 E84.43772
G0 F3600 X90.409 Y101.346
G1 F1350 X88.238 Y101.346 E84.54603
G0 F3600 X88.011 Y101.737
G1 F1350 X88.011 Y105.5 E84.73377
G0 F3600 X87.329 Y106.68
G1 F1350 X85.158 Y106.68 E84.84208
G0 F3600 X85.344 Y106.356
G1 F1350 X85.344 Y110.119 E85.02982
G0 F3600 X85.789 Y109.347
G1 F1350 X83.618 Y109.347 E85.13813
G0 F3600 X82.677 Y110.975
G1 F1350 X82.677 Y114.738 E85.32587
G0 F3600 X82.709 Y114.681
G1 F1350 X80.538 Y114.681 E85.43418
G0 F3600 X80.01 Y115.594
G1 F1350 X80.01 Y119.356 E85.62187
G0 F3600 X79.824 Y120.015
G1 F1350 X77.457 Y120.015 E85.73996
G0 F3600 X77.343 Y120.213
G1 F1350 X77.343 Y122.985 E85.87825
G0 F3600 X75.917 Y122.682
G1 F1350 X111.158 Y122.682 E87.63643
G0 F3600 X109.347 Y122.985
G1 F1350 X109.347 Y119.546 E87.80801
G0 F3600 X109.618 Y120.015
G1 F1350 X107.25 Y120.015 E87.92615
G0 F3600 X106.68 Y120.998
G1 F1350 X106.68 Y122.985 E88.02528
G0 F3600 X104.013 Y122.985
G1 F1350 X104.013 Y121.105 E88.11907
G0 F3600 X101.346 Y121.105
G1 F1350 X101.346 Y122.985 E88.21287
G0 F3600 X98.679 Y122.985
G1 F1350 X98.679 Y121.105 E88.30666
G0 F3600 X96.012 Y121.105
G1 F1350 X96.012 Y122.985 E88.40045
G0 F3600 X93.345 Y122.985
G1 F1350 X93.345 Y121.105 E88.49425
G0 F3600 X90.678 Y121.105
G1 F1350 X90.678 Y122.985 E88.58804
G0 F3600 X88.011 Y122.985
G1 F1350 X88.011 Y121.105 E88.68183
G0 F3600 X85.344 Y121.105
G1 F1350 X85.344 Y122.985 E88.77563
G0 F3600 X82.677 Y122.985
G1 F1350 X82.677 Y121.105 E88.86942
G1 F1500 E82.36942
G0 F3600 X80.01 Y120.335
G1 F1500 E88.86942
G1 F1350 X80.01 Y122.985 E89.00163
G0 F3600 X78.998 Y117.348
G1 F1350 X81.169 Y117.348 E89.10994
G0 F3600 X82.078 Y112.014
G1 F1350 X84.249 Y112.014 E89.21825
G0 F3600 X86.698 Y104.013
G1 F1350 X88.869 Y104.013 E89.32656
G1 F1500 E82.82656
G0 F3600 X93.042 Y97.586
G0 X94.034 Y97.586
G0 X96.012 Y100.212
G1 F1500 E89.32656
G1 F1350 X96.012 Y96.45 E89.51425
G0 F3600 X95.76 Y96.012
G1 F1350 X91.317 Y96.012 E89.73591
G0 F3600 X92.857 Y93.345
G1 F1350 X94.22 Y93.345 E89.80391
G0 F3600 X95.126 Y98.679
G1 F1350 X97.3 Y98.679 E89.91237
G0 F3600 X96.666 Y101.346
G1 F1350 X98.839 Y101.346 E90.02079
G0 F3600 X98.679 Y101.069
G1 F1350 X98.679 Y104.831 E90.20847
G0 F3600 X98.206 Y104.013
G1 F1350 X100.379 Y104.013 E90.31688
G0 F3600 X101.346 Y105.688
G1 F1350 X101.346 Y109.45 E90.50457
G0 F3600 X101.286 Y109.347
G1 F1350 X103.459 Y109.347 E90.61298
G0 F3600 X104.013 Y110.308
G1 F1350 X104.013 Y114.069 E90.80062
G0 F3600 X104.365 Y114.681
G1 F1350 X106.539 Y114.681 E90.90908
G0 F3600 X106.68 Y114.927
G1 F1350 X106.68 Y118.689 E91.09677
G0 F3600 X105.905 Y117.348
G1 F1350 X108.079 Y117.348 E91.20523
G0 F3600 X104.999 Y112.014
G1 F1350 X102.825 Y112.014 E91.31369
G0 F3600 X101.919 Y106.68
G1 F1350 X99.746 Y106.68 E91.4221
G1 F1500 E84.9221
G0 F3600 X97.332 Y108.017
G1 F1500 E91.4221
G1 F1350 X98.602 Y110.217 E91.54884
G1 X93.91 Y118.345 E92.01706
G1 X91.368 Y118.345 E92.14388
G1 X97.332 Y108.017 E92.73889
G0 F3600 X96.749 Y109.347
G1 F1350 X97.915 Y109.347 E92.79706
G0 F3600 X96.012 Y110.622
G1 F1350 X96.012 Y114.384 E92.98474
G0 F3600 X95.84 Y114.681
G1 F1350 X93.669 Y114.681 E93.09306
G0 F3600 X93.345 Y115.241
G1 F1350 X93.345 Y118.185 E93.23993
G0 F3600 X94.301 Y117.348
G1 F1350 X92.129 Y117.348 E93.34829
G0 F3600 X95.209 Y112.014
G1 F1350 X97.379 Y112.014 E93.45656
G1 F1500 E86.95656
;MESH:circuit_box_2.STL
G0 F3600 X94.049 Y118.586
G0 X94.537 Y119.447
G0 X89.735 Y119.545
G0 X89.579 Y119.245
;TYPE:WALL-OUTER
G1 F1500 E93.45656
G1 F1350 X89.695 Y119.445 E93.46809
G1 X94.544 Y119.445 E93.71001
