;FLAVOR:Marlin
;TIME:5883
;Filament used: 8.47855m
;Layer height: 0.3
;Generated with Cura_SteamEngine 4.0.0
M104 S195
M105
M109 S195
M82 ;absolute extrusion mode
G21 ;metric values
G90 ;absolute positioning
M82 ;set extruder to absolute mode
M107 ;start with the fan off
G28 X0 Y0 ;move X/Y to min endstops
G28 Z0 ;move Z to min endstops
G29;
G1 Z15.0 F9000 ;move the platform down 15mm
G92 E0 ;zero the extruded length
G1 F200 E3 ;extrude 3mm of feed stock
G92 E0 ;zero the extruded length again
G1 F9000
;Put printing message on LCD screen
M117 Printing...
G92 E0
G1 F1500 E-6.5
;LAYER_COUNT:41
;LAYER:0
M107
G0 F3600 X23.654 Y80.242 Z0.3
;TYPE:SKIRT
G1 F1500 E0
G1 F1350 X24.268 Y80.09 E0.03156
G1 X25.159 Y80.01 E0.07619
G1 X174.84 Y80.01 E7.5438
G1 X175.471 Y80.05 E7.57535
G1 X176.092 Y80.169 E7.60689
G1 X176.692 Y80.366 E7.6384
G1 X177.264 Y80.637 E7.66998
G1 X177.796 Y80.977 E7.70148
G1 X178.281 Y81.383 E7.73303
G1 X178.711 Y81.846 E7.76456
G1 X179.08 Y82.36 E7.79612
G1 X179.38 Y82.916 E7.82764
G1 X179.608 Y83.505 E7.85915
G1 X179.76 Y84.119 E7.89071
G1 X179.84 Y85.01 E7.93534
G1 X179.841 Y114.99 E9.43105
G1 X179.801 Y115.621 E9.46259
G1 X179.682 Y116.242 E9.49414
G1 X179.485 Y116.842 E9.52565
G1 X179.214 Y117.413 E9.55718
G1 X178.874 Y117.946 E9.58872
G1 X178.468 Y118.431 E9.62028
G1 X178.005 Y118.861 E9.6518
G1 X177.492 Y119.23 E9.68333
G1 X176.935 Y119.53 E9.71489
G1 X176.346 Y119.758 E9.7464
G1 X175.732 Y119.91 E9.77796
G1 X174.841 Y119.99 E9.82259
G1 X25.16 Y119.991 E17.2902
G1 X24.529 Y119.951 E17.32175
G1 X23.908 Y119.832 E17.35329
G1 X23.308 Y119.635 E17.3848
G1 X22.736 Y119.364 E17.41638
G1 X22.204 Y119.024 E17.44788
G1 X21.719 Y118.618 E17.47943
G1 X21.289 Y118.155 E17.51096
G1 X20.92 Y117.641 E17.54252
G1 X20.62 Y117.085 E17.57404
G1 X20.392 Y116.496 E17.60555
G1 X20.24 Y115.882 E17.63711
G1 X20.16 Y114.991 E17.68174
G1 X20.159 Y85.01 E19.1775
G1 X20.199 Y84.379 E19.20904
G1 X20.318 Y83.758 E19.24059
G1 X20.515 Y83.158 E19.2721
G1 X20.786 Y82.587 E19.30363
G1 X21.126 Y82.054 E19.33517
G1 X21.532 Y81.569 E19.36673
G1 X21.995 Y81.139 E19.39825
G1 X22.508 Y80.77 E19.42978
G1 X23.065 Y80.47 E19.46134
G1 X23.654 Y80.242 E19.49285
G0 F3600 X24.013 Y80.555
G1 F1350 X24.609 Y80.443 E19.52311
G1 X25.159 Y80.41 E19.55059
G1 X174.84 Y80.41 E27.01821
G1 X175.445 Y80.45 E27.04846
G1 X176.039 Y80.569 E27.07868
G1 X176.613 Y80.765 E27.10894
G1 X177.156 Y81.036 E27.13922
G1 X177.659 Y81.375 E27.16948
G1 X178.112 Y81.777 E27.1997
G1 X178.509 Y82.235 E27.22994
G1 X178.842 Y82.742 E27.2602
G1 X179.106 Y83.288 E27.29046
G1 X179.295 Y83.864 E27.3207
G1 X179.407 Y84.46 E27.35096
G1 X179.44 Y85.01 E27.37844
G1 X179.441 Y114.99 E28.87415
G1 X179.401 Y115.595 E28.9044
G1 X179.282 Y116.189 E28.93463
G1 X179.086 Y116.763 E28.96489
G1 X178.816 Y117.306 E28.99514
G1 X178.476 Y117.808 E29.02539
G1 X178.074 Y118.262 E29.05564
G1 X177.616 Y118.659 E29.08588
G1 X177.109 Y118.992 E29.11614
G1 X176.563 Y119.255 E29.14638
G1 X175.987 Y119.445 E29.17664
G1 X175.391 Y119.557 E29.20689
G1 X174.841 Y119.59 E29.23438
G1 X25.16 Y119.591 E36.702
G1 X24.555 Y119.551 E36.73225
G1 X23.961 Y119.432 E36.76247
G1 X23.387 Y119.236 E36.79273
G1 X22.844 Y118.965 E36.82301
G1 X22.342 Y118.626 E36.85323
G1 X21.888 Y118.224 E36.88348
G1 X21.491 Y117.766 E36.91372
G1 X21.158 Y117.259 E36.94399
G1 X20.894 Y116.713 E36.97424
G1 X20.705 Y116.137 E37.00449
G1 X20.593 Y115.541 E37.03474
G1 X20.56 Y114.991 E37.06223
G1 X20.559 Y85.01 E38.55799
G1 X20.599 Y84.405 E38.58824
G1 X20.718 Y83.811 E38.61846
G1 X20.914 Y83.237 E38.64872
G1 X21.184 Y82.694 E38.67898
G1 X21.524 Y82.192 E38.70923
G1 X21.926 Y81.738 E38.73948
G1 X22.384 Y81.341 E38.76972
G1 X22.891 Y81.008 E38.79998
G1 X23.437 Y80.745 E38.83022
G1 X24.013 Y80.555 E38.86048
G0 F3600 X23.804 Y81.035
G1 F1350 X24.364 Y80.886 E38.88939
G1 X25.159 Y80.81 E38.92923
G1 X174.84 Y80.81 E46.39684
G1 X175.418 Y80.85 E46.42575
G1 X175.985 Y80.969 E46.45465
G1 X176.53 Y81.165 E46.48355
G1 X177.043 Y81.434 E46.51245
G1 X177.514 Y81.771 E46.54134
G1 X177.934 Y82.17 E46.57024
G1 X178.296 Y82.623 E46.59917
G1 X178.591 Y83.121 E46.62805
G1 X178.816 Y83.655 E46.65696
G1 X178.964 Y84.215 E46.68586
G1 X179.04 Y85.01 E46.7257
G1 X179.041 Y114.99 E48.22141
G1 X179.001 Y115.568 E48.25032
G1 X178.882 Y116.135 E48.27922
G1 X178.686 Y116.68 E48.30812
G1 X178.417 Y117.193 E48.33701
G1 X178.08 Y117.664 E48.36591
G1 X177.681 Y118.084 E48.39481
G1 X177.228 Y118.446 E48.42374
G1 X176.73 Y118.741 E48.45262
G1 X176.196 Y118.965 E48.48151
G1 X175.636 Y119.114 E48.51042
G1 X174.841 Y119.19 E48.55026
G1 X25.16 Y119.191 E56.01788
G1 X24.582 Y119.151 E56.04678
G1 X24.015 Y119.032 E56.07569
G1 X23.47 Y118.836 E56.10458
G1 X22.957 Y118.567 E56.13348
G1 X22.486 Y118.23 E56.16237
G1 X22.066 Y117.831 E56.19128
G1 X21.704 Y117.378 E56.22021
G1 X21.409 Y116.88 E56.24908
G1 X21.185 Y116.346 E56.27797
G1 X21.036 Y115.786 E56.30688
G1 X20.96 Y114.991 E56.34673
G1 X20.959 Y85.01 E57.84249
G1 X20.999 Y84.432 E57.87139
G1 X21.118 Y83.865 E57.9003
G1 X21.314 Y83.32 E57.92919
G1 X21.583 Y82.807 E57.95809
G1 X21.92 Y82.336 E57.98698
G1 X22.319 Y81.916 E58.01588
G1 X22.772 Y81.554 E58.04481
G1 X23.27 Y81.259 E58.07369
G1 X23.804 Y81.035 E58.10258
G1 F1500 E51.60258
;MESH:mid_line.STL(1)
G0 F3600 X25.764 Y84.335
G0 X25.764 Y85.614
G0 X52.869 Y89.345
G0 X53.284 Y89.623
;TYPE:WALL-OUTER
G1 F1500 E58.10258
G1 F1350 X53.076 Y89.934 E58.12125
G1 X52.923 Y90.274 E58.13985
G1 X52.83 Y90.635 E58.15845
G1 X52.8 Y91.007 E58.17707
G1 X52.833 Y91.378 E58.19565
G1 X52.928 Y91.739 E58.21427
G1 X53.083 Y92.078 E58.23287
G1 X53.292 Y92.387 E58.25148
G1 X53.552 Y92.656 E58.27015
G1 X53.852 Y92.877 E58.28874
G1 X54.186 Y93.045 E58.30739
G1 X54.543 Y93.152 E58.32598
G1 X54.913 Y93.199 E58.34459
G1 X55.286 Y93.182 E58.36322
G1 X55.651 Y93.102 E58.38186
G1 X55.996 Y92.962 E58.40044
G1 X56.314 Y92.765 E58.4191
G1 X56.593 Y92.517 E58.43772
G1 X56.827 Y92.226 E58.45635
G1 X57.007 Y91.9 E58.47493
G1 X57.13 Y91.548 E58.49353
G1 X57.193 Y91.181 E58.51211
G1 X57.192 Y90.806 E58.53082
G1 X57.127 Y90.439 E58.54941
G1 X57.002 Y90.087 E58.56805
G1 X56.819 Y89.762 E58.58666
G1 X56.583 Y89.473 E58.60527
G1 X56.303 Y89.227 E58.62387
G1 X55.984 Y89.032 E58.64252
G1 X55.638 Y88.895 E58.66109
G1 X55.273 Y88.817 E58.67971
G1 X54.9 Y88.802 E58.69833
G1 X54.53 Y88.851 E58.71695
G1 X54.173 Y88.961 E58.73559
G1 X53.84 Y89.131 E58.75424
G1 X53.542 Y89.354 E58.77281
G1 X53.284 Y89.623 E58.79141
G0 F3600 X53.173 Y89.789
G0 X52.758 Y89.511
G0 X53.607 Y88.757
G0 X54.436 Y88.42
G0 X54.94 Y88.398
G0 X97.869 Y89.345
G0 X98.284 Y89.623
G1 F1350 X98.076 Y89.934 E58.81007
G1 X97.923 Y90.274 E58.82867
G1 X97.83 Y90.635 E58.84727
G1 X97.8 Y91.007 E58.86589
G1 X97.833 Y91.378 E58.88447
G1 X97.928 Y91.739 E58.9031
G1 X98.083 Y92.078 E58.92169
G1 X98.292 Y92.387 E58.94031
G1 X98.552 Y92.656 E58.95897
G1 X98.852 Y92.877 E58.97756
G1 X99.186 Y93.045 E58.99621
G1 X99.543 Y93.152 E59.01481
G1 X99.913 Y93.199 E59.03341
G1 X100.286 Y93.182 E59.05204
G1 X100.651 Y93.102 E59.07068
G1 X100.996 Y92.962 E59.08926
G1 X101.314 Y92.765 E59.10792
G1 X101.593 Y92.517 E59.12655
G1 X101.827 Y92.226 E59.14518
G1 X102.007 Y91.9 E59.16375
G1 X102.13 Y91.548 E59.18236
G1 X102.193 Y91.181 E59.20093
G1 X102.192 Y90.806 E59.21964
G1 X102.127 Y90.439 E59.23824
G1 X102.002 Y90.087 E59.25687
G1 X101.819 Y89.762 E59.27548
G1 X101.583 Y89.473 E59.2941
G1 X101.303 Y89.227 E59.31269
G1 X100.984 Y89.032 E59.33134
G1 X100.638 Y88.895 E59.34991
G1 X100.273 Y88.817 E59.36853
G1 X99.9 Y88.802 E59.38716
G1 X99.53 Y88.851 E59.40578
G1 X99.173 Y88.961 E59.42441
G1 X98.84 Y89.131 E59.44307
G1 X98.542 Y89.354 E59.46164
G1 X98.284 Y89.623 E59.48023
G0 F3600 X98.173 Y89.789
G0 X97.758 Y89.511
G0 X98.607 Y88.757
G0 X99.436 Y88.42
G0 X99.94 Y88.398
G0 X142.869 Y89.345
G0 X143.284 Y89.623
G1 F1350 X143.076 Y89.934 E59.4989
G1 X142.923 Y90.274 E59.5175
G1 X142.83 Y90.635 E59.5361
G1 X142.8 Y91.007 E59.55472
G1 X142.833 Y91.378 E59.5733
G1 X142.928 Y91.739 E59.59192
G1 X143.083 Y92.078 E59.61052
G1 X143.292 Y92.387 E59.62913
G1 X143.552 Y92.656 E59.64779
G1 X143.852 Y92.877 E59.66638
G1 X144.186 Y93.045 E59.68504
G1 X144.543 Y93.152 E59.70363
G1 X144.913 Y93.199 E59.72224
G1 X145.286 Y93.182 E59.74087
G1 X145.651 Y93.102 E59.75951
G1 X145.996 Y92.962 E59.77808
G1 X146.314 Y92.765 E59.79675
G1 X146.593 Y92.517 E59.81537
G1 X146.827 Y92.226 E59.834
G1 X147.007 Y91.9 E59.85258
G1 X147.13 Y91.548 E59.87118
G1 X147.193 Y91.181 E59.88976
G1 X147.192 Y90.806 E59.90847
G1 X147.127 Y90.439 E59.92706
G1 X147.002 Y90.087 E59.9457
G1 X146.819 Y89.762 E59.96431
G1 X146.583 Y89.473 E59.98292
G1 X146.303 Y89.227 E60.00152
G1 X145.984 Y89.032 E60.02017
G1 X145.638 Y88.895 E60.03873
G1 X145.273 Y88.817 E60.05736
G1 X144.9 Y88.802 E60.07598
G1 X144.53 Y88.851 E60.0946
G1 X144.173 Y88.961 E60.11324
G1 X143.84 Y89.131 E60.13189
G1 X143.542 Y89.354 E60.15046
G1 X143.284 Y89.623 E60.16906
G0 F3600 X143.173 Y89.789
G0 X142.758 Y89.511
G0 X143.607 Y88.757
G0 X144.007 Y88.552
G0 X144.881 Y88.362
G0 X145.596 Y88.451
G0 X174.18 Y96.33
G0 X174.65 Y96.6
G1 F1350 X174.65 Y96.8 E60.17903
G1 X174.45 Y96.8 E60.18549
G1 X25.351 Y96.8 E67.62407
G1 X25.35 Y85.4 E68.19282
G1 X25.35 Y85.2 E68.2028
G1 X25.55 Y85.2 E68.20926
G1 X174.649 Y85.2 E75.64784
G1 X174.65 Y96.6 E76.21659
G0 F3600 X174.65 Y96.8
G0 X174.25 Y96.2
;TYPE:WALL-INNER
G1 F1350 X174.25 Y96.4 E76.22657
G1 X174.05 Y96.4 E76.23303
G1 X25.751 Y96.4 E83.63169
G1 X25.75 Y85.8 E84.16053
G1 X25.75 Y85.6 E84.17051
G1 X25.95 Y85.6 E84.17697
G1 X174.249 Y85.6 E91.57564
G1 X174.25 Y96.2 E92.10447
G0 F3600 X174.149 Y96.2
G0 X145.328 Y88.38
G0 X144.436 Y88.42
G0 X144.007 Y88.552
G0 X143.579 Y88.818
G0 X142.894 Y89.309
G0 X142.971 Y89.371
G1 F1350 X142.725 Y89.739 E92.12656
G1 X142.544 Y90.141 E92.14855
G1 X142.434 Y90.569 E92.1706
G1 X142.399 Y91.009 E92.19262
G1 X142.438 Y91.447 E92.21456
G1 X142.55 Y91.874 E92.23658
G1 X142.733 Y92.275 E92.25857
G1 X142.98 Y92.64 E92.28056
G1 X143.288 Y92.958 E92.30265
G1 X143.642 Y93.219 E92.32459
G1 X144.038 Y93.418 E92.3467
G1 X144.46 Y93.545 E92.36869
G1 X144.897 Y93.6 E92.39066
G1 X145.338 Y93.58 E92.41268
G1 X145.77 Y93.485 E92.43475
G1 X146.178 Y93.32 E92.45671
G1 X146.554 Y93.087 E92.47878
G1 X146.884 Y92.794 E92.50079
G1 X147.16 Y92.45 E92.5228
G1 X147.373 Y92.064 E92.54479
G1 X147.519 Y91.649 E92.56674
G1 X147.593 Y91.215 E92.58871
G1 X147.592 Y90.77 E92.61091
G1 X147.515 Y90.336 E92.6329
G1 X147.367 Y89.921 E92.65488
G1 X147.151 Y89.536 E92.6769
G1 X146.872 Y89.194 E92.69892
G1 X146.541 Y88.904 E92.72088
G1 X146.163 Y88.673 E92.74298
G1 X145.754 Y88.511 E92.76493
G1 X145.323 Y88.419 E92.78691
G1 X144.882 Y88.401 E92.80893
G1 X144.444 Y88.459 E92.83098
G1 X144.022 Y88.589 E92.85301
G1 X143.628 Y88.79 E92.87507
G1 X143.276 Y89.053 E92.89699
G1 X142.971 Y89.371 E92.91898
G0 F3600 X142.894 Y89.309
G0 X99.881 Y88.362
G0 X99.007 Y88.552
G0 X98.579 Y88.818
G0 X97.894 Y89.309
G0 X97.971 Y89.371
G1 F1350 X97.725 Y89.739 E92.94106
G1 X97.544 Y90.141 E92.96306
G1 X97.434 Y90.569 E92.9851
G1 X97.399 Y91.009 E93.00712
G1 X97.438 Y91.447 E93.02906
G1 X97.55 Y91.874 E93.05109
G1 X97.733 Y92.275 E93.07308
G1 X97.98 Y92.64 E93.09507
G1 X98.288 Y92.958 E93.11715
G1 X98.642 Y93.219 E93.13909
G1 X99.038 Y93.418 E93.1612
G1 X99.46 Y93.545 E93.18319
G1 X99.897 Y93.6 E93.20517
G1 X100.338 Y93.58 E93.22719
G1 X100.77 Y93.485 E93.24926
G1 X101.178 Y93.32 E93.27121
G1 X101.554 Y93.087 E93.29328
G1 X101.884 Y92.794 E93.3153
G1 X102.16 Y92.45 E93.3373
G1 X102.373 Y92.064 E93.3593
G1 X102.519 Y91.649 E93.38125
G1 X102.593 Y91.215 E93.40321
G1 X102.592 Y90.77 E93.42541
G1 X102.515 Y90.336 E93.4474
G1 X102.367 Y89.921 E93.46938
G1 X102.151 Y89.536 E93.49141
G1 X101.872 Y89.194 E93.51343
G1 X101.541 Y88.904 E93.53538
G1 X101.163 Y88.673 E93.55748
G1 X100.754 Y88.511 E93.57943
G1 X100.323 Y88.419 E93.60142
G1 X99.882 Y88.401 E93.62344
G1 X99.444 Y88.459 E93.64548
G1 X99.022 Y88.589 E93.66751
G1 X98.628 Y88.79 E93.68958
G1 X98.276 Y89.053 E93.7115
G1 X97.971 Y89.371 E93.73348
G0 F3600 X97.894 Y89.309
G0 X54.881 Y88.362
G0 X54.007 Y88.552
G0 X53.579 Y88.818
G0 X52.894 Y89.309
G0 X52.971 Y89.371
G1 F1350 X52.725 Y89.739 E93.75557
G1 X52.544 Y90.141 E93.77756
G1 X52.434 Y90.569 E93.79961
G1 X52.399 Y91.009 E93.82163
G1 X52.438 Y91.447 E93.84357
G1 X52.55 Y91.874 E93.86559
G1 X52.733 Y92.275 E93.88758
G1 X52.98 Y92.64 E93.90957
G1 X53.288 Y92.958 E93.93166
G1 X53.642 Y93.219 E93.9536
G1 X54.038 Y93.418 E93.97571
G1 X54.46 Y93.545 E93.9977
G1 X54.897 Y93.6 E94.01967
G1 X55.338 Y93.58 E94.04169
G1 X55.77 Y93.485 E94.06376
G1 X56.178 Y93.32 E94.08572
G1 X56.554 Y93.087 E94.10779
G1 X56.884 Y92.794 E94.1298
G1 X57.16 Y92.45 E94.15181
G1 X57.373 Y92.064 E94.1738
G1 X57.519 Y91.649 E94.19575
G1 X57.593 Y91.215 E94.21772
G1 X57.592 Y90.77 E94.23992
G1 X57.515 Y90.336 E94.26191
G1 X57.367 Y89.921 E94.28389
G1 X57.151 Y89.536 E94.30591
G1 X56.872 Y89.194 E94.32793
G1 X56.541 Y88.904 E94.34989
G1 X56.163 Y88.673 E94.37199
G1 X55.754 Y88.511 E94.39394
G1 X55.323 Y88.419 E94.41592
G1 X54.882 Y88.401 E94.43794
G1 X54.444 Y88.459 E94.45999
G1 X54.022 Y88.589 E94.48202
G1 X53.628 Y88.79 E94.50408
G1 X53.276 Y89.053 E94.52601
G1 X52.971 Y89.371 E94.54799
G0 F3600 X52.894 Y89.309
G0 X52.507 Y90.128
G0 X52.359 Y91.009
G0 X52.668 Y92.893
G1 F1350 X53.024 Y93.26 E94.5735
G1 X53.432 Y93.561 E94.59879
G1 X53.889 Y93.791 E94.62432
G1 X54.377 Y93.938 E94.64974
G1 X54.881 Y94.001 E94.67508
G1 X55.39 Y93.978 E94.7005
G1 X55.889 Y93.868 E94.726
G1 X56.36 Y93.678 E94.75133
G1 X56.794 Y93.409 E94.77681
G1 X57.175 Y93.071 E94.80222
G1 X57.494 Y92.673 E94.82767
G1 X57.739 Y92.228 E94.85301
G1 X57.908 Y91.75 E94.8783
G1 X57.993 Y91.248 E94.90371
G1 X57.992 Y90.734 E94.92935
G1 X57.903 Y90.233 E94.95474
G1 X57.732 Y89.755 E94.98006
G1 X57.483 Y89.31 E95.0055
G1 X57.161 Y88.915 E95.03093
G1 X56.779 Y88.581 E95.05624
G1 X56.342 Y88.314 E95.08179
G1 X55.87 Y88.127 E95.10712
G1 X55.373 Y88.021 E95.13248
G1 X54.864 Y88 E95.15789
G1 X54.358 Y88.067 E95.18336
G1 X53.871 Y88.217 E95.20878
G1 X53.416 Y88.449 E95.23426
G1 X53.01 Y88.752 E95.25953
G1 X52.658 Y89.119 E95.2849
G1 X52.374 Y89.544 E95.31041
G1 X52.165 Y90.008 E95.33579
G1 X52.038 Y90.503 E95.36129
G1 X51.998 Y91.011 E95.38671
G1 X52.043 Y91.516 E95.41201
G1 X52.172 Y92.009 E95.43743
G1 X52.383 Y92.471 E95.46277
G1 X52.668 Y92.893 E95.48818
G0 F3600 X54.452 Y93.584
G0 X54.956 Y93.602
G0 X97.668 Y92.893
G1 F1350 X98.024 Y93.26 E95.51368
G1 X98.432 Y93.561 E95.53898
G1 X98.889 Y93.791 E95.5645
G1 X99.377 Y93.938 E95.58993
G1 X99.881 Y94.001 E95.61527
G1 X100.39 Y93.978 E95.64069
G1 X100.889 Y93.868 E95.66618
G1 X101.36 Y93.678 E95.69152
G1 X101.794 Y93.409 E95.717
G1 X102.175 Y93.071 E95.74241
G1 X102.494 Y92.673 E95.76785
G1 X102.739 Y92.228 E95.7932
G1 X102.908 Y91.75 E95.81849
G1 X102.993 Y91.248 E95.84389
G1 X102.992 Y90.734 E95.86954
G1 X102.903 Y90.233 E95.89492
G1 X102.732 Y89.755 E95.92025
G1 X102.483 Y89.31 E95.94569
G1 X102.161 Y88.915 E95.97112
G1 X101.779 Y88.581 E95.99643
G1 X101.342 Y88.314 E96.02198
G1 X100.87 Y88.127 E96.04731
G1 X100.373 Y88.021 E96.07266
G1 X99.864 Y88 E96.09808
G1 X99.358 Y88.067 E96.12354
G1 X98.871 Y88.217 E96.14897
G1 X98.416 Y88.449 E96.17445
G1 X98.01 Y88.752 E96.19972
G1 X97.658 Y89.119 E96.22509
G1 X97.374 Y89.544 E96.25059
G1 X97.165 Y90.008 E96.27598
G1 X97.038 Y90.503 E96.30148
G1 X96.998 Y91.011 E96.3269
G1 X97.043 Y91.516 E96.35219
G1 X97.172 Y92.009 E96.37762
G1 X97.383 Y92.471 E96.40296
G1 X97.668 Y92.893 E96.42836
G0 F3600 X99.452 Y93.584
G0 X99.956 Y93.602
G0 X142.668 Y92.893
G1 F1350 X143.024 Y93.26 E96.45387
G1 X143.432 Y93.561 E96.47917
G1 X143.889 Y93.791 E96.50469
G1 X144.377 Y93.938 E96.53012
G1 X144.881 Y94.001 E96.55546
G1 X145.39 Y93.978 E96.58088
G1 X145.889 Y93.868 E96.60637
G1 X146.36 Y93.678 E96.63171
G1 X146.794 Y93.409 E96.65718
G1 X147.175 Y93.071 E96.68259
G1 X147.494 Y92.673 E96.70804
G1 X147.739 Y92.228 E96.73338
G1 X147.908 Y91.75 E96.75868
G1 X147.993 Y91.248 E96.78408
G1 X147.992 Y90.734 E96.80972
G1 X147.903 Y90.233 E96.83511
