;FLAVOR:Marlin
;TIME:2813
;Filament used: 4.05696m
;Layer height: 0.3
;Generated with Cura_SteamEngine 4.0.0
M104 S195
M105
M109 S195
M82 ;absolute extrusion mode
G21 ;metric values
G90 ;absolute positioning
M82 ;set extruder to absolute mode
M107 ;start with the fan off
G28 X0 Y0 ;move X/Y to min endstops
G28 Z0 ;move Z to min endstops
G29;
G1 Z15.0 F9000 ;move the platform down 15mm
G92 E0 ;zero the extruded length
G1 F200 E3 ;extrude 3mm of feed stock
G92 E0 ;zero the extruded length again
G1 F9000
;Put printing message on LCD screen
M117 Printing...
G92 E0
G1 F1500 E-6.5
;LAYER_COUNT:34
;LAYER:0
M107
G0 F3600 X70.791 Y87.631 Z0.3
;TYPE:SKIRT
G1 F1500 E0
G1 F1350 X71.294 Y87.248 E0.03154
G1 X71.736 Y86.985 E0.0572
G1 X71.926 Y86.885 E0.06791
G1 X72.503 Y86.627 E0.09945
G1 X73.108 Y86.443 E0.131
G1 X73.731 Y86.338 E0.16252
G1 X74.205 Y86.31 E0.1862
G1 X83.478 Y86.217 E0.64886
G1 X88.864 Y85.912 E0.918
G1 X94.202 Y85.306 E1.18602
G1 X99.493 Y84.399 E1.45384
G1 X107.757 Y82.471 E1.87721
G1 X108.55 Y82.352 E1.91721
G1 X109.582 Y82.281 E1.96882
G1 X110.413 Y82.293 E2.01028
G1 X112.188 Y82.467 E2.09926
G1 X112.859 Y82.579 E2.1332
G1 X120.538 Y84.409 E2.52704
G1 X125.825 Y85.312 E2.79463
G1 X131.152 Y85.915 E3.06209
G1 X136.535 Y86.217 E3.33107
G1 X145.742 Y86.296 E3.79043
G1 X146.372 Y86.342 E3.82194
G1 X146.992 Y86.466 E3.85349
G1 X147.857 Y86.786 E3.8995
G1 X148.089 Y86.897 E3.91233
G1 X148.641 Y87.205 E3.94387
G1 X149.149 Y87.58 E3.97537
G1 X149.606 Y88.017 E4.00692
G1 X149.942 Y88.422 E4.03317
G1 X150.201 Y88.77 E4.05481
G1 X150.546 Y89.3 E4.08636
G1 X150.821 Y89.869 E4.11789
G1 X151.022 Y90.468 E4.14941
G1 X151.145 Y91.088 E4.18095
G1 X151.19 Y91.728 E4.21296
G1 X151.235 Y99.972 E4.62426
G1 X151.217 Y100.423 E4.64678
G1 X150.977 Y103.242 E4.78792
G1 X150.748 Y108.67 E5.05897
G1 X150.825 Y114.018 E5.32581
G1 X151.205 Y119.452 E5.59758
G1 X151.217 Y119.796 E5.61475
G1 X151.226 Y128.066 E6.02734
G1 X151.187 Y128.696 E6.05883
G1 X151.068 Y129.317 E6.09038
G1 X150.933 Y129.759 E6.11343
G1 X150.81 Y130.102 E6.13161
G1 X150.559 Y130.682 E6.16314
G1 X150.237 Y131.226 E6.19468
G1 X149.849 Y131.725 E6.22622
G1 X149.402 Y132.172 E6.25776
G1 X149.156 Y132.374 E6.27364
G1 X148.798 Y132.65 E6.29619
G1 X148.274 Y133.003 E6.32771
G1 X147.709 Y133.288 E6.35928
G1 X147.114 Y133.499 E6.39078
G1 X146.496 Y133.633 E6.42232
G1 X145.795 Y133.69 E6.45741
G1 X136.522 Y133.783 E6.92007
G1 X131.136 Y134.088 E7.18921
G1 X125.798 Y134.694 E7.45723
G1 X120.507 Y135.601 E7.72505
G1 X112.243 Y137.529 E8.14842
G1 X111.45 Y137.648 E8.18842
G1 X110.418 Y137.719 E8.24003
G1 X109.814 Y137.724 E8.27016
G1 X108.763 Y137.669 E8.32267
G1 X108.047 Y137.58 E8.35867
G1 X106.486 Y137.269 E8.43808
G1 X106.226 Y137.21 E8.45138
G1 X102.114 Y136.16 E8.66311
G1 X96.83 Y135.103 E8.93195
G1 X91.522 Y134.349 E9.19943
G1 X86.166 Y133.896 E9.46759
G1 X80.763 Y133.745 E9.73726
G1 X74.398 Y133.724 E10.05481
G1 X73.767 Y133.682 E10.08636
G1 X73.147 Y133.561 E10.11787
G1 X72.649 Y133.402 E10.14395
G1 X72.307 Y133.273 E10.16219
G1 X71.731 Y133.013 E10.19372
G1 X71.192 Y132.683 E10.22525
G1 X70.7 Y132.287 E10.25676
G1 X70.069 Y131.591 E10.30363
G1 X69.807 Y131.241 E10.32544
G1 X69.461 Y130.712 E10.35698
G1 X69.185 Y130.144 E10.38848
G1 X68.982 Y129.545 E10.42004
G1 X68.857 Y128.926 E10.45154
G1 X68.81 Y128.272 E10.48425
G1 X68.765 Y120.028 E10.89555
G1 X68.778 Y119.647 E10.91457
G1 X69.176 Y114.045 E11.19476
G1 X69.251 Y108.665 E11.4632
G1 X68.763 Y99.182 E11.93693
G1 X68.756 Y98.897 E11.95116
G1 X68.796 Y91.772 E12.30663
G1 X68.84 Y91.141 E12.33819
G1 X68.962 Y90.521 E12.36971
G1 X69.162 Y89.922 E12.40122
G1 X69.436 Y89.352 E12.43277
G1 X69.68 Y88.961 E12.45576
G1 X69.949 Y88.571 E12.4794
G1 X70.34 Y88.074 E12.51095
G1 X70.791 Y87.631 E12.54249
G0 F3600 X71.09 Y87.901
G1 F1350 X71.578 Y87.54 E12.57277
G1 X71.923 Y87.339 E12.59269
G1 X72.113 Y87.239 E12.60341
G1 X72.667 Y86.993 E12.63365
G1 X73.248 Y86.822 E12.66386
G1 X73.847 Y86.728 E12.69411
G1 X74.209 Y86.71 E12.7122
G1 X83.484 Y86.617 E13.17495
G1 X88.896 Y86.31 E13.44539
G1 X94.263 Y85.701 E13.71487
G1 X99.567 Y84.792 E13.98334
G1 X107.848 Y82.86 E14.40758
G1 X108.577 Y82.751 E14.44435
G1 X109.609 Y82.68 E14.49596
G1 X110.374 Y82.691 E14.53413
G1 X112.149 Y82.865 E14.62311
G1 X112.767 Y82.968 E14.65437
G1 X120.471 Y84.804 E15.04949
G1 X125.749 Y85.706 E15.31663
G1 X131.119 Y86.313 E15.58624
G1 X136.53 Y86.617 E15.85662
G1 X145.738 Y86.696 E16.31603
G1 X146.343 Y86.741 E16.3463
G1 X146.937 Y86.866 E16.37658
G1 X147.684 Y87.146 E16.41638
G1 X147.916 Y87.257 E16.42921
G1 X148.445 Y87.555 E16.4595
G1 X148.93 Y87.919 E16.48976
G1 X149.362 Y88.343 E16.51996
G1 X149.621 Y88.661 E16.54042
G1 X149.88 Y89.009 E16.56206
G1 X150.209 Y89.518 E16.5923
G1 X150.469 Y90.066 E16.62256
G1 X150.654 Y90.643 E16.65279
G1 X150.761 Y91.24 E16.68305
G1 X150.79 Y91.73 E16.70754
G1 X150.835 Y99.974 E17.11884
G1 X150.818 Y100.389 E17.13956
G1 X150.577 Y103.214 E17.28101
G1 X150.349 Y108.642 E17.55205
G1 X150.426 Y114.052 E17.82199
G1 X150.806 Y119.48 E18.09345
G1 X150.817 Y119.796 E18.10923
G1 X150.826 Y128.066 E18.52182
G1 X150.787 Y128.671 E18.55207
G1 X150.668 Y129.266 E18.58234
G1 X150.556 Y129.624 E18.60105
G1 X150.433 Y129.967 E18.61923
G1 X150.191 Y130.523 E18.64949
G1 X149.878 Y131.042 E18.67972
G1 X149.5 Y131.516 E18.70997
G1 X148.912 Y132.057 E18.74983
G1 X148.554 Y132.333 E18.77239
G1 X148.05 Y132.671 E18.80266
G1 X147.507 Y132.939 E18.83287
G1 X146.932 Y133.134 E18.86316
G1 X146.338 Y133.252 E18.89338
G1 X145.791 Y133.29 E18.92073
G1 X136.516 Y133.383 E19.38349
G1 X131.104 Y133.69 E19.65393
G1 X125.737 Y134.299 E19.92341
G1 X120.433 Y135.208 E20.19188
G1 X112.152 Y137.14 E20.61612
G1 X111.423 Y137.249 E20.65289
G1 X110.391 Y137.32 E20.7045
G1 X109.835 Y137.325 E20.73224
G1 X108.784 Y137.27 E20.78475
G1 X108.125 Y137.187 E20.81788
G1 X106.564 Y136.876 E20.89729
G1 X106.325 Y136.822 E20.90952
G1 X102.216 Y135.773 E21.12109
G1 X96.893 Y134.708 E21.39192
G1 X91.576 Y133.953 E21.65985
G1 X86.176 Y133.496 E21.93022
G1 X80.776 Y133.345 E22.19973
G1 X74.399 Y133.324 E22.51788
G1 X73.794 Y133.282 E22.54814
G1 X73.2 Y133.161 E22.57838
G1 X72.791 Y133.028 E22.59984
G1 X72.449 Y132.899 E22.61807
G1 X71.897 Y132.648 E22.64833
G1 X71.382 Y132.327 E22.6786
G1 X70.915 Y131.941 E22.70883
G1 X70.389 Y131.352 E22.74823
G1 X70.127 Y131.002 E22.77004
G1 X69.797 Y130.493 E22.8003
G1 X69.536 Y129.946 E22.83054
G1 X69.349 Y129.369 E22.8608
G1 X69.24 Y128.773 E22.89103
G1 X69.21 Y128.27 E22.91617
G1 X69.165 Y120.026 E23.32747
G1 X69.177 Y119.675 E23.34499
G1 X69.576 Y114.061 E23.62578
G1 X69.651 Y108.665 E23.89501
G1 X69.162 Y99.161 E24.3698
G1 X69.156 Y98.899 E24.38287
G1 X69.196 Y91.774 E24.73835
G1 X69.239 Y91.169 E24.76861
G1 X69.362 Y90.576 E24.79882
G1 X69.561 Y90.003 E24.82908
G1 X69.835 Y89.462 E24.85934
G1 X70.009 Y89.188 E24.87553
G1 X70.278 Y88.798 E24.89917
G1 X70.655 Y88.323 E24.92942
G1 X71.09 Y87.901 E24.95966
G0 F3600 X71.389 Y88.173
G1 F1350 X72.109 Y87.693 E25.00283
G1 X72.299 Y87.593 E25.01354
G1 X72.829 Y87.36 E25.04243
G1 X73.386 Y87.201 E25.07132
G1 X74.213 Y87.11 E25.11283
G1 X83.51 Y87.017 E25.57669
G1 X88.929 Y86.71 E25.84747
G1 X94.304 Y86.1 E26.11735
G1 X99.66 Y85.181 E26.38847
G1 X107.939 Y83.25 E26.8126
G1 X108.605 Y83.15 E26.8462
G1 X109.637 Y83.079 E26.89781
G1 X110.335 Y83.089 E26.93263
G1 X112.11 Y83.263 E27.02161
G1 X112.674 Y83.357 E27.05014
G1 X120.387 Y85.195 E27.44572
G1 X125.709 Y86.104 E27.71508
G1 X131.088 Y86.713 E27.98515
G1 X136.504 Y87.017 E28.25578
G1 X145.735 Y87.096 E28.71634
G1 X146.313 Y87.141 E28.74526
G1 X146.879 Y87.265 E28.77417
G1 X147.512 Y87.507 E28.80798
G1 X147.744 Y87.618 E28.82081
G1 X148.248 Y87.904 E28.84972
G1 X148.708 Y88.256 E28.87862
G1 X149.115 Y88.668 E28.90751
G1 X149.3 Y88.899 E28.92227
G1 X149.559 Y89.247 E28.94392
G1 X149.872 Y89.735 E28.97284
G1 X150.115 Y90.261 E29.00175
G1 X150.283 Y90.815 E29.03063
G1 X150.374 Y91.387 E29.05953
G1 X150.39 Y91.732 E29.07676
G1 X150.435 Y99.976 E29.48806
G1 X150.42 Y100.355 E29.50698
G1 X150.177 Y103.21 E29.64993
G1 X149.949 Y108.631 E29.92063
G1 X150.026 Y114.068 E30.19191
G1 X150.407 Y119.508 E30.46397
G1 X150.417 Y119.796 E30.47835
G1 X150.426 Y128.066 E30.89094
G1 X150.387 Y128.644 E30.91985
G1 X150.268 Y129.211 E30.94875
G1 X150.179 Y129.489 E30.96331
G1 X150.056 Y129.832 E30.98149
G1 X149.824 Y130.362 E31.01036
G1 X149.52 Y130.856 E31.0393
G1 X149.152 Y131.303 E31.06818
G1 X148.667 Y131.74 E31.10075
G1 X148.309 Y132.016 E31.1233
G1 X147.827 Y132.337 E31.1522
G1 X147.306 Y132.589 E31.18107
G1 X146.754 Y132.767 E31.21
G1 X146.184 Y132.867 E31.23888
G1 X145.787 Y132.89 E31.25872
G1 X136.49 Y132.983 E31.72257
G1 X131.071 Y133.29 E31.99336
G1 X125.696 Y133.9 E32.26324
G1 X120.34 Y134.819 E32.53436
G1 X112.061 Y136.75 E32.95848
G1 X111.395 Y136.85 E32.99208
G1 X110.363 Y136.921 E33.04369
G1 X109.856 Y136.925 E33.06899
G1 X108.805 Y136.87 E33.12149
G1 X108.203 Y136.795 E33.15176
G1 X106.642 Y136.484 E33.23117
G1 X106.424 Y136.435 E33.24231
G1 X102.279 Y135.377 E33.45574
G1 X96.975 Y134.315 E33.72561
G1 X91.615 Y133.554 E33.9957
G1 X86.204 Y133.097 E34.26662
G1 X80.788 Y132.945 E34.53693
G1 X74.4 Y132.924 E34.85563
G1 X73.822 Y132.882 E34.88454
G1 X73.256 Y132.761 E34.91342
G1 X72.932 Y132.654 E34.93044
G1 X72.59 Y132.525 E34.94868
G1 X72.063 Y132.283 E34.97761
G1 X71.575 Y131.972 E35.00648
G1 X71.134 Y131.596 E35.03539
G1 X70.71 Y131.112 E35.0675
G1 X70.448 Y130.762 E35.08931
G1 X70.133 Y130.275 E35.11824
G1 X69.889 Y129.75 E35.14713
G1 X69.719 Y129.196 E35.17604
G1 X69.627 Y128.624 E35.20494
G1 X69.61 Y128.268 E35.22272
G1 X69.565 Y120.024 E35.63402
G1 X69.576 Y119.704 E35.65
G1 X69.975 Y114.079 E35.93134
G1 X70.051 Y108.651 E36.20217
G1 X69.562 Y99.141 E36.67725
G1 X69.556 Y98.901 E36.68923
G1 X69.596 Y91.776 E37.0447
G1 X69.639 Y91.199 E37.07357
G1 X69.762 Y90.632 E37.10251
G1 X69.961 Y90.088 E37.13141
G1 X70.339 Y89.415 E37.16992
G1 X70.608 Y89.025 E37.19356
G1 X70.969 Y88.572 E37.22246
G1 X71.389 Y88.173 E37.25136
G1 F1500 E30.75136
;MESH:tay_quay_vitme.STL
G0 F3600 X73.954 Y90.71
G0 X74.52 Y91.875
G0 X118.326 Y100.094
G0 X118.366 Y100.592
;TYPE:WALL-OUTER
G1 F1500 E37.25136
G1 F1350 X117.804 Y100.737 E37.28031
G1 X117.273 Y100.974 E37.30933
G1 X116.79 Y101.296 E37.33829
G1 X116.379 Y101.685 E37.36652
G1 X115.64 Y102.417 E37.41841
G1 X114.831 Y103.046 E37.46954
G1 X113.95 Y103.575 E37.52081
G1 X113.008 Y103.996 E37.57228
G1 X112.036 Y104.297 E37.62305
G1 X111.025 Y104.482 E37.67432
G1 X110 Y104.543 E37.72555
G1 X108.975 Y104.482 E37.77678
G1 X107.964 Y104.297 E37.82806
G1 X106.992 Y103.996 E37.87882
G1 X106.05 Y103.575 E37.9303
G1 X105.169 Y103.046 E37.98157
G1 X104.36 Y102.417 E38.03269
G1 X103.621 Y101.685 E38.08459
G1 X103.21 Y101.296 E38.11282
G1 X102.727 Y100.974 E38.14178
G1 X102.196 Y100.737 E38.17079
G1 X101.635 Y100.592 E38.1997
G1 X101.064 Y100.544 E38.22829
G1 X74.508 Y100.545 E39.55317
G1 X74.417 Y100.536 E39.55773
G1 X74.333 Y100.517 E39.56203
G1 X74.25 Y100.483 E39.5665
G1 X74.182 Y100.441 E39.57049
G1 X74.116 Y100.384 E39.57484
G1 X74.059 Y100.318 E39.57919
G1 X74.017 Y100.25 E39.58318
G1 X73.983 Y100.167 E39.58766
G1 X73.964 Y100.083 E39.59195
G1 X73.956 Y100 E39.59611
G1 X73.955 Y92.008 E39.99484
G1 X73.964 Y91.917 E39.9994
G1 X73.983 Y91.833 E40.00369
G1 X74.017 Y91.75 E40.00817
G1 X74.059 Y91.682 E40.01216
G1 X74.116 Y91.616 E40.01651
G1 X74.182 Y91.559 E40.02086
G1 X74.25 Y91.517 E40.02485
G1 X74.333 Y91.483 E40.02932
G1 X74.417 Y91.464 E40.03362
G1 X74.505 Y91.456 E40.03803
G1 X101.064 Y91.455 E41.36306
G1 X101.634 Y91.408 E41.39159
G1 X102.196 Y91.263 E41.42055
G1 X102.727 Y91.026 E41.44956
G1 X103.21 Y90.704 E41.47852
G1 X103.621 Y90.315 E41.50675
G1 X104.36 Y89.583 E41.55865
G1 X105.169 Y88.954 E41.60977
G1 X106.05 Y88.425 E41.66104
G1 X106.992 Y88.004 E41.71252
G1 X107.964 Y87.703 E41.76328
G1 X108.975 Y87.518 E41.81456
G1 X110 Y87.457 E41.86579
G1 X111.025 Y87.518 E41.91702
G1 X112.036 Y87.703 E41.96829
G1 X113.008 Y88.004 E42.01906
G1 X113.95 Y88.425 E42.07053
G1 X114.831 Y88.954 E42.1218
G1 X115.64 Y89.583 E42.17293
G1 X116.379 Y90.315 E42.22482
G1 X116.79 Y90.704 E42.25305
G1 X117.273 Y91.026 E42.28202
G1 X117.804 Y91.263 E42.31103
G1 X118.365 Y91.408 E42.33993
G1 X118.936 Y91.456 E42.36852
G1 X145.492 Y91.455 E43.69341
G1 X145.583 Y91.464 E43.69797
G1 X145.667 Y91.483 E43.70226
G1 X145.75 Y91.517 E43.70674
G1 X145.818 Y91.559 E43.71073
G1 X145.884 Y91.616 E43.71508
G1 X145.941 Y91.682 E43.71943
G1 X145.983 Y91.75 E43.72342
G1 X146.017 Y91.833 E43.72789
G1 X146.036 Y91.917 E43.73219
G1 X146.044 Y92 E43.73635
G1 X146.045 Y99.992 E44.13507
G1 X146.036 Y100.083 E44.13963
G1 X146.017 Y100.167 E44.14393
G1 X145.983 Y100.25 E44.1484
G1 X145.941 Y100.318 E44.15239
G1 X145.884 Y100.384 E44.15674
G1 X145.818 Y100.441 E44.16109
G1 X145.75 Y100.483 E44.16508
G1 X145.667 Y100.517 E44.16956
G1 X145.583 Y100.536 E44.17385
G1 X145.495 Y100.544 E44.17826
G1 X118.936 Y100.545 E45.50329
G1 X118.366 Y100.592 E45.53183
G0 F3600 X118.173 Y100.642
G0 X118.299 Y100.196
;TYPE:WALL-INNER
G1 F1350 X117.672 Y100.358 E45.56414
G1 X117.079 Y100.622 E45.59652
G1 X116.54 Y100.982 E45.62886
G1 X116.101 Y101.398 E45.65903
G1 X115.381 Y102.111 E45.70958
G1 X114.602 Y102.717 E45.75882
G1 X113.762 Y103.221 E45.8077
G1 X112.867 Y103.621 E45.8566
G1 X111.938 Y103.909 E45.90513
G1 X110.978 Y104.084 E45.95381
G1 X110 Y104.143 E46.00269
G1 X109.022 Y104.084 E46.05158
G1 X108.062 Y103.909 E46.10026
G1 X107.133 Y103.621 E46.14878
G1 X106.238 Y103.221 E46.19769
G1 X105.398 Y102.717 E46.24656
G1 X104.619 Y102.111 E46.2958
G1 X103.899 Y101.398 E46.34636
G1 X103.46 Y100.982 E46.37653
G1 X102.921 Y100.622 E46.40887
G1 X102.328 Y100.358 E46.44125
G1 X101.702 Y100.196 E46.47351
G1 X101.081 Y100.144 E46.5046
G1 X74.48 Y100.14 E47.83173
G1 X74.43 Y100.124 E47.83435
G1 X74.397 Y100.098 E47.83645
G1 X74.376 Y100.07 E47.83819
G1 X74.359 Y100.015 E47.84106
G1 X74.355 Y92.109 E48.2355
G1 X74.355 Y92.027 E48.23959
G1 X74.365 Y91.955 E48.24321
G1 X74.381 Y91.921 E48.24509
G1 X74.421 Y91.881 E48.24791
G1 X74.455 Y91.865 E48.24979
G1 X74.519 Y91.856 E48.25301
G1 X74.601 Y91.856 E48.2571
G1 X101.08 Y91.855 E49.57814
G1 X101.701 Y91.804 E49.60923
G1 X102.328 Y91.642 E49.64154
G1 X102.921 Y91.378 E49.67392
G1 X103.46 Y91.018 E49.70626
G1 X103.899 Y90.602 E49.73643
G1 X104.619 Y89.889 E49.78699
G1 X105.398 Y89.283 E49.83623
G1 X106.238 Y88.779 E49.8851
G1 X107.133 Y88.379 E49.93401
G1 X108.062 Y88.091 E49.98253
G1 X109.022 Y87.916 E50.03121
G1 X110 Y87.857 E50.0801
G1 X110.978 Y87.916 E50.12898
G1 X111.938 Y88.091 E50.17766
G1 X112.867 Y88.379 E50.22619
G1 X113.762 Y88.779 E50.27509
G1 X114.602 Y89.283 E50.32397
G1 X115.381 Y89.889 E50.37321
G1 X116.101 Y90.602 E50.42376
G1 X116.54 Y91.018 E50.45393
G1 X117.079 Y91.378 E50.48627
G1 X117.672 Y91.642 E50.51865
G1 X118.298 Y91.804 E50.55091
G1 X118.919 Y91.856 E50.582
G1 X145.52 Y91.86 E51.90913
G1 X145.57 Y91.876 E51.91175
G1 X145.6 Y91.899 E51.91364
G1 X145.624 Y91.93 E51.91559
G1 X145.64 Y91.98 E51.91821
G1 X145.645 Y99.891 E52.3129
G1 X145.645 Y99.973 E52.31699
G1 X145.635 Y100.044 E52.32056
G1 X145.619 Y100.079 E52.32248
G1 X145.579 Y100.119 E52.32531
G1 X145.545 Y100.135 E52.32718
G1 X145.481 Y100.144 E52.3304
G1 X145.399 Y100.144 E52.3345
G1 X118.92 Y100.145 E53.65554
G1 X118.299 Y100.196 E53.68662
G0 F3600 X118.283 Y100.098
G0 X116.885 Y91.73
G1 F1350 X117.54 Y92.021 E53.72238
G1 X118.231 Y92.2 E53.75799
G1 X118.902 Y92.256 E53.79159
G1 X145.24 Y92.26 E55.1056
G1 X145.245 Y99.544 E55.469
G1 X145.245 Y99.744 E55.47897
G1 X145.045 Y99.744 E55.48543
G1 X118.904 Y99.745 E56.78961
G1 X118.232 Y99.8 E56.82325
G1 X117.54 Y99.979 E56.85891
G1 X116.885 Y100.27 E56.89467
G1 X116.29 Y100.668 E56.93038
G1 X115.823 Y101.111 E56.9625
G1 X115.122 Y101.805 E57.01171
G1 X114.373 Y102.388 E57.05906
G1 X113.574 Y102.867 E57.10554
G1 X112.726 Y103.246 E57.15188
G1 X111.848 Y103.518 E57.19774
G1 X110.923 Y103.687 E57.24465
G1 X110 Y103.743 E57.29078
G1 X109.077 Y103.687 E57.33692
G1 X108.152 Y103.518 E57.38383
