;FLAVOR:Marlin
;TIME:1095
;Filament used: 1.52704m
;Layer height: 0.3
;Generated with Cura_SteamEngine 4.0.0
M104 S195
M105
M109 S195
M82 ;absolute extrusion mode
G21 ;metric values
G90 ;absolute positioning
M82 ;set extruder to absolute mode
M107 ;start with the fan off
G28 X0 Y0 ;move X/Y to min endstops
G28 Z0 ;move Z to min endstops
G29;
G1 Z15.0 F9000 ;move the platform down 15mm
G92 E0 ;zero the extruded length
G1 F200 E3 ;extrude 3mm of feed stock
G92 E0 ;zero the extruded length again
G1 F9000
;Put printing message on LCD screen
M117 Printing...
G92 E0
G1 F1500 E-6.5
;LAYER_COUNT:67
;LAYER:0
M107
G0 F3600 X74.692 Y93.704 Z0.3
;TYPE:SKIRT
G1 F1500 E0
G1 X75.211 Y93.343 E0.03154
G1 X75.771 Y93.05 E0.06307
G1 X76.363 Y92.83 E0.09458
G1 X76.943 Y92.692 E0.12432
G1 X77.602 Y92.577 E0.1577
G1 X78.461 Y92.503 E0.20071
G1 X106.785 Y92.5 E1.6138
G1 X112.228 Y92.346 E1.88547
G1 X117.58 Y91.891 E2.15344
G1 X122.906 Y91.132 E2.42184
G1 X128.178 Y90.075 E2.6901
G1 X130.724 Y89.451 E2.82088
G1 X137.709 Y87.362 E3.18461
G1 X138.24 Y87.234 E3.21186
G1 X138.987 Y87.097 E3.24975
G1 X139.615 Y87.023 E3.2813
G1 X140.247 Y87.028 E3.31283
G1 X140.923 Y87.123 E3.34689
G1 X141.883 Y87.326 E3.39584
G1 X142.492 Y87.496 E3.42738
G1 X143.34 Y87.883 E3.47389
G1 X144.036 Y88.283 E3.51394
G1 X144.799 Y88.822 E3.56055
G1 X145.107 Y89.086 E3.58078
G1 X145.56 Y89.527 E3.61232
G1 X145.813 Y89.829 E3.63198
G1 X146.308 Y90.471 E3.67242
G1 X146.661 Y90.995 E3.70395
G1 X146.946 Y91.559 E3.73547
G1 X147.068 Y91.875 E3.75237
G1 X147.423 Y92.891 E3.80607
G1 X147.594 Y93.499 E3.83758
G1 X147.686 Y94.125 E3.86914
G1 X147.703 Y94.539 E3.88981
G1 X147.705 Y109.447 E4.63358
G1 X147.665 Y110.078 E4.66512
G1 X147.574 Y110.586 E4.69087
G1 X147.484 Y110.971 E4.71059
G1 X147.301 Y111.576 E4.74213
G1 X147.143 Y111.953 E4.76252
G1 X146.753 Y112.786 E4.80841
G1 X146.45 Y113.34 E4.83991
G1 X146.105 Y113.819 E4.86936
G1 X145.784 Y114.214 E4.89476
G1 X145.302 Y114.729 E4.92995
G1 X139.738 Y119.883 E5.30833
G1 X136.021 Y123.799 E5.5777
G1 X134.293 Y125.784 E5.709
G1 X131.629 Y129.071 E5.92008
G1 X131.201 Y129.536 E5.95161
G1 X130.717 Y129.943 E5.98316
G1 X130.186 Y130.286 E6.0147
G1 X129.616 Y130.56 E6.04625
G1 X129.016 Y130.759 E6.07779
G1 X128.396 Y130.88 E6.1093
G1 X127.746 Y130.923 E6.1418
G1 X123.778 Y130.924 E6.33977
G1 X123.147 Y130.884 E6.37131
G1 X122.369 Y130.722 E6.41096
G1 X118.691 Y129.642 E6.6022
G1 X113.417 Y128.348 E6.87313
G1 X110.764 Y127.814 E7.00814
G1 X108.202 Y127.376 E7.13781
G1 X102.834 Y126.688 E7.40782
G1 X97.455 Y126.306 E7.67685
G1 X95.104 Y126.233 E7.7942
G1 X94.474 Y126.173 E7.82577
G1 X93.858 Y126.035 E7.85727
G1 X93.263 Y125.82 E7.88883
G1 X92.701 Y125.532 E7.92034
G1 X92.179 Y125.175 E7.95189
G1 X91.707 Y124.755 E7.98341
G1 X91.368 Y124.377 E8.00874
G1 X87.792 Y119.95 E8.29266
G1 X84.184 Y115.968 E8.56074
G1 X80.361 Y112.204 E8.8284
G1 X76.27 Y108.606 E9.10021
G1 X74.203 Y106.867 E9.23497
G1 X73.746 Y106.43 E9.26652
G1 X73.348 Y105.939 E9.29805
G1 X73.034 Y105.435 E9.32768
G1 X72.956 Y105.292 E9.3358
G1 X72.689 Y104.719 E9.36734
G1 X72.496 Y104.117 E9.39888
G1 X72.371 Y103.41 E9.4347
G1 X72.276 Y102.487 E9.48099
G1 X72.25 Y101.926 E9.50901
G1 X72.286 Y98.236 E9.69311
G1 X72.332 Y97.606 E9.72463
G1 X72.458 Y96.986 E9.75619
G1 X72.66 Y96.387 E9.78773
G1 X72.795 Y96.088 E9.8041
G1 X73 Y95.669 E9.82737
G1 X73.313 Y95.119 E9.85894
G1 X73.693 Y94.614 E9.89047
G1 X74.133 Y94.161 E9.92198
G1 X74.38 Y93.952 E9.93812
G1 X74.692 Y93.704 E9.95801
G0 F3600 X74.941 Y94.017
G1 F1500 X75.439 Y93.672 E9.98823
G1 X75.979 Y93.395 E10.01851
G1 X76.55 Y93.192 E10.04874
G1 X77.012 Y93.086 E10.07239
G1 X77.671 Y92.971 E10.10577
G1 X78.462 Y92.903 E10.14537
G1 X106.796 Y92.9 E11.55896
G1 X112.255 Y92.746 E11.83142
G1 X117.617 Y92.29 E12.0999
G1 X122.972 Y91.527 E12.36976
G1 X128.255 Y90.468 E12.63857
G1 X130.838 Y89.835 E12.77125
G1 X137.824 Y87.745 E13.13505
G1 X138.312 Y87.627 E13.1601
G1 X139.059 Y87.49 E13.19799
G1 X139.661 Y87.421 E13.22822
G1 X140.268 Y87.431 E13.2585
G1 X140.841 Y87.515 E13.2874
G1 X141.801 Y87.718 E13.33635
G1 X142.384 Y87.882 E13.36656
G1 X143.141 Y88.23 E13.40813
G1 X143.837 Y88.63 E13.44818
G1 X144.539 Y89.125 E13.49104
G1 X144.847 Y89.389 E13.51127
G1 X145.28 Y89.813 E13.54151
G1 X145.496 Y90.073 E13.55837
G1 X145.991 Y90.715 E13.59882
G1 X146.329 Y91.219 E13.62909
G1 X146.691 Y92.007 E13.67236
G1 X147.046 Y93.023 E13.72605
G1 X147.207 Y93.607 E13.75627
G1 X147.291 Y94.207 E13.7865
G1 X147.303 Y94.539 E13.80307
G1 X147.305 Y109.447 E14.54684
G1 X147.265 Y110.052 E14.57708
G1 X147.184 Y110.495 E14.59955
G1 X147.094 Y110.88 E14.61928
G1 X146.918 Y111.46 E14.64952
G1 X146.781 Y111.783 E14.66702
G1 X146.391 Y112.616 E14.71291
G1 X146.098 Y113.147 E14.74317
G1 X145.795 Y113.567 E14.769
G1 X145.474 Y113.962 E14.7944
G1 X145.03 Y114.436 E14.8268
G1 X139.458 Y119.597 E15.20571
G1 X135.713 Y123.544 E15.47716
G1 X134.004 Y125.506 E15.60697
G1 X131.319 Y128.819 E15.81973
G1 X130.907 Y129.264 E15.84998
G1 X130.44 Y129.651 E15.88024
G1 X129.926 Y129.973 E15.9105
G1 X129.374 Y130.225 E15.94077
G1 X128.794 Y130.402 E15.97103
G1 X128.196 Y130.501 E16.00127
G1 X127.746 Y130.523 E16.02375
G1 X123.778 Y130.524 E16.22171
G1 X123.173 Y130.484 E16.25196
G1 X122.482 Y130.338 E16.28719
G1 X118.787 Y129.253 E16.47932
G1 X113.5 Y127.956 E16.75091
G1 X110.878 Y127.428 E16.88435
G1 X108.27 Y126.982 E17.01635
G1 X102.861 Y126.289 E17.28842
G1 X97.47 Y125.906 E17.55805
G1 X95.116 Y125.833 E17.67555
G1 X94.513 Y125.774 E17.70578
G1 X93.922 Y125.637 E17.73604
G1 X93.355 Y125.423 E17.76628
G1 X92.821 Y125.136 E17.79652
G1 X92.329 Y124.782 E17.82676
G1 X91.888 Y124.366 E17.85701
G1 X91.68 Y124.125 E17.87289
G1 X88.106 Y119.701 E18.15663
G1 X84.469 Y115.688 E18.42683
G1 X80.632 Y111.91 E18.69548
G1 X76.508 Y108.283 E18.96948
G1 X74.461 Y106.56 E19.10297
G1 X74.024 Y106.14 E19.13321
G1 X73.646 Y105.666 E19.16345
G1 X73.385 Y105.244 E19.18821
G1 X73.307 Y105.101 E19.19633
G1 X73.052 Y104.55 E19.22662
G1 X72.872 Y103.972 E19.25683
G1 X72.769 Y103.369 E19.28735
G1 X72.674 Y102.446 E19.33364
G1 X72.65 Y101.93 E19.35941
G1 X72.686 Y98.24 E19.54351
G1 X72.732 Y97.636 E19.57373
G1 X72.857 Y97.042 E19.60402
G1 X73.154 Y96.263 E19.64561
G1 X73.359 Y95.844 E19.66888
G1 X73.661 Y95.319 E19.6991
G1 X74.029 Y94.837 E19.72935
G1 X74.629 Y94.265 E19.77071
G1 X74.941 Y94.017 E19.7906
G0 F3600 X75.19 Y94.33
G1 F1500 X75.667 Y94.002 E19.81948
G1 X76.185 Y93.742 E19.84839
G1 X76.733 Y93.556 E19.87726
G1 X77.081 Y93.481 E19.89502
G1 X77.74 Y93.366 E19.9284
G1 X78.462 Y93.303 E19.96456
G1 X106.807 Y93.3 E21.37869
G1 X112.265 Y93.146 E21.6511
G1 X117.671 Y92.686 E21.92178
G1 X123.039 Y91.921 E22.1923
G1 X128.355 Y90.855 E22.4628
G1 X130.927 Y90.225 E22.59491
G1 X137.938 Y88.128 E22.96
G1 X138.384 Y88.021 E22.98288
G1 X139.131 Y87.884 E23.02077
G1 X139.707 Y87.819 E23.04969
G1 X140.286 Y87.834 E23.07859
G1 X140.758 Y87.906 E23.10241
G1 X141.718 Y88.109 E23.15136
G1 X142.275 Y88.268 E23.18026
G1 X142.942 Y88.577 E23.21693
G1 X143.638 Y88.977 E23.25698
G1 X144.278 Y89.429 E23.29607
G1 X144.586 Y89.693 E23.31631
G1 X145.179 Y90.317 E23.35926
G1 X145.674 Y90.959 E23.3997
G1 X145.995 Y91.442 E23.42864
G1 X146.313 Y92.139 E23.46686
G1 X146.668 Y93.155 E23.52055
G1 X146.821 Y93.713 E23.54942
G1 X146.903 Y94.539 E23.59083
G1 X146.905 Y109.447 E24.33459
G1 X146.865 Y110.025 E24.3635
G1 X146.795 Y110.404 E24.38273
G1 X146.705 Y110.789 E24.40245
G1 X146.534 Y111.343 E24.43138
G1 X146.419 Y111.614 E24.44607
G1 X146.029 Y112.447 E24.49195
G1 X145.748 Y112.953 E24.52083
G1 X145.484 Y113.315 E24.54318
G1 X145.163 Y113.71 E24.56858
G1 X144.758 Y114.142 E24.59812
G1 X139.171 Y119.318 E24.97809
G1 X135.448 Y123.24 E25.24788
G1 X133.687 Y125.262 E25.38165
G1 X131.008 Y128.568 E25.59394
G1 X130.613 Y128.991 E25.62282
G1 X130.163 Y129.357 E25.65176
G1 X129.668 Y129.657 E25.68063
G1 X129.136 Y129.886 E25.70953
G1 X128.577 Y130.04 E25.73846
G1 X127.746 Y130.123 E25.78012
G1 X123.778 Y130.124 E25.97809
G1 X123.2 Y130.084 E26.00699
G1 X122.594 Y129.954 E26.03791
G1 X118.902 Y128.87 E26.22988
G1 X113.577 Y127.564 E26.50342
G1 X110.953 Y127.035 E26.63697
G1 X108.319 Y126.585 E26.77028
G1 X102.906 Y125.891 E27.04255
G1 X97.486 Y125.506 E27.31363
G1 X95.128 Y125.433 E27.43133
G1 X94.552 Y125.375 E27.46021
G1 X93.989 Y125.239 E27.48911
G1 X93.45 Y125.026 E27.51802
G1 X92.946 Y124.741 E27.54691
G1 X92.485 Y124.39 E27.57582
G1 X91.991 Y123.874 E27.61146
G1 X88.401 Y119.43 E27.89647
G1 X84.773 Y115.426 E28.16604
G1 X80.901 Y111.614 E28.43712
G1 X76.745 Y107.959 E28.71324
G1 X74.719 Y106.254 E28.84535
G1 X74.302 Y105.852 E28.87425
G1 X73.945 Y105.396 E28.90314
G1 X73.736 Y105.052 E28.92322
G1 X73.658 Y104.909 E28.93135
G1 X73.416 Y104.383 E28.96023
G1 X73.249 Y103.828 E28.98915
G1 X73.167 Y103.328 E29.01443
G1 X73.072 Y102.405 E29.06072
G1 X73.05 Y101.934 E29.08424
G1 X73.086 Y98.244 E29.26835
G1 X73.132 Y97.667 E29.29723
G1 X73.256 Y97.101 E29.32613
G1 X73.513 Y96.439 E29.36156
G1 X73.718 Y96.02 E29.38483
G1 X74.008 Y95.519 E29.41371
G1 X74.364 Y95.062 E29.44262
G1 X74.878 Y94.578 E29.47784
G1 X75.19 Y94.33 E29.49772
G1 F1500 E22.99772
;MESH:Part2.STL
G0 F3600 X77.75 Y96.91
G0 X78.271 Y98.119
G0 X81.547 Y98.178
G0 X82.304 Y98.41
G0 X82.94 Y98.88
G0 X83.384 Y99.535
G0 X83.581 Y100.288
G0 X83.545 Y100.741
G0 X83.417 Y101.529
G0 X82.982 Y101.283
;TYPE:WALL-OUTER
G1 F1500 E29.49772
G1 X83.089 Y100.979 E29.5138
G1 X83.143 Y100.665 E29.5297
G1 X83.15 Y100.5 E29.53794
G1 X83.143 Y100.335 E29.54618
G1 X83.089 Y100.021 E29.56207
G1 X82.982 Y99.717 E29.57815
G1 X82.824 Y99.436 E29.59423
G1 X82.622 Y99.185 E29.61031
G1 X82.38 Y98.972 E29.62639
G1 X82.105 Y98.803 E29.64249
G1 X81.807 Y98.683 E29.65852
G1 X81.491 Y98.615 E29.67465
G1 X81.17 Y98.601 E29.69068
G1 X80.85 Y98.642 E29.70677
G1 X80.541 Y98.737 E29.7229
G1 X80.254 Y98.881 E29.73892
G1 X79.994 Y99.073 E29.75505
G1 X79.771 Y99.306 E29.77114
G1 X79.591 Y99.573 E29.7872
G1 X79.458 Y99.867 E29.8033
G1 X79.376 Y100.179 E29.8194
G1 X79.349 Y100.5 E29.83547
G1 X79.376 Y100.821 E29.85154
G1 X79.458 Y101.133 E29.86763
G1 X79.591 Y101.427 E29.88373
G1 X79.771 Y101.694 E29.8998
G1 X79.994 Y101.927 E29.91589
G1 X80.254 Y102.119 E29.93201
G1 X80.541 Y102.263 E29.94803
G1 X80.85 Y102.358 E29.96416
G1 X81.17 Y102.399 E29.98025
G1 X81.491 Y102.385 E29.99628
G1 X81.807 Y102.317 E30.01241
G1 X82.105 Y102.197 E30.02844
G1 X82.38 Y102.028 E30.04454
G1 X82.622 Y101.815 E30.06063
G1 X82.824 Y101.564 E30.0767
G1 X82.982 Y101.283 E30.09278
G0 F3600 X83.048 Y101.095
G0 X83.519 Y101.262
G0 X92.641 Y102.728
G0 X94.43 Y103.074
G0 X94.242 Y103.536
G1 F1500 X93.916 Y103.404 E30.11033
G1 X93.587 Y103.326 E30.1272
G1 X93.258 Y103.3 E30.14366
G1 X78.252 Y103.3 E30.89232
G1 X78.126 Y103.29 E30.89862
G1 X78.005 Y103.261 E30.90483
G1 X77.888 Y103.213 E30.91114
G1 X77.779 Y103.146 E30.91752
G1 X77.685 Y103.065 E30.92371
G1 X77.604 Y102.971 E30.9299
G1 X77.537 Y102.862 E30.93629
G1 X77.489 Y102.745 E30.9426
G1 X77.46 Y102.624 E30.9488
G1 X77.45 Y102.5 E30.95501
G1 X77.45 Y98.5 E31.15457
G1 X77.46 Y98.376 E31.16078
G1 X77.489 Y98.255 E31.16699
G1 X77.537 Y98.138 E31.17329
G1 X77.604 Y98.029 E31.17968
G1 X77.685 Y97.935 E31.18587
G1 X77.779 Y97.854 E31.19206
G1 X77.888 Y97.787 E31.19844
G1 X78.005 Y97.739 E31.20475
G1 X78.126 Y97.71 E31.21096
G1 X78.252 Y97.7 E31.21727
G1 X116.248 Y97.7 E33.11289
G1 X116.374 Y97.71 E33.1192
G1 X116.495 Y97.739 E33.12541
G1 X116.612 Y97.787 E33.13172
G1 X116.721 Y97.854 E33.1381
G1 X116.815 Y97.935 E33.14429
G1 X116.896 Y98.029 E33.15048
G1 X116.963 Y98.138 E33.15686
G1 X117.011 Y98.255 E33.16317
G1 X117.04 Y98.376 E33.16938
G1 X117.05 Y98.5 E33.17559
G1 X117.05 Y102.5 E33.37515
G1 X117.04 Y102.624 E33.38135
G1 X117.011 Y102.745 E33.38756
G1 X116.963 Y102.862 E33.39387
G1 X116.896 Y102.971 E33.40025
G1 X116.815 Y103.065 E33.40645
G1 X116.721 Y103.146 E33.41264
G1 X116.612 Y103.213 E33.41902
G1 X116.495 Y103.261 E33.42533
G1 X116.374 Y103.29 E33.43154
G1 X116.248 Y103.3 E33.43784
G1 X101.242 Y103.3 E34.18649
G1 X100.899 Y103.328 E34.20366
G1 X100.57 Y103.407 E34.22054
G1 X100.246 Y103.542 E34.23806
G1 X99.956 Y103.72 E34.25503
G1 X99.694 Y103.944 E34.27223
G1 X99.47 Y104.206 E34.28943
G1 X99.289 Y104.501 E34.30669
G1 X99.157 Y104.82 E34.32392
G1 X99.077 Y105.156 E34.34115
G1 X99.05 Y105.492 E34.35797
G1 X99.05 Y121.044 E35.13386
G1 X95.65 Y121.045 E35.30349
G1 X95.45 Y121.045 E35.31346
G1 X95.45 Y120.845 E35.31992
G1 X95.45 Y105.492 E36.08589
G1 X95.423 Y105.156 E36.10271
G1 X95.343 Y104.82 E36.11994
G1 X95.211 Y104.501 E36.13716
G1 X95.03 Y104.206 E36.15443
G1 X94.805 Y103.944 E36.17166
G1 X94.532 Y103.712 E36.18953
G1 X94.242 Y103.536 E36.20646
G0 F3600 X94.057 Y103.461
G0 X94.244 Y102.999
G0 X112.377 Y102.673
G0 X113.152 Y102.839
G0 X113.936 Y102.739
G0 X114.642 Y102.383
G0 X114.951 Y102.06
G0 X115.453 Y101.448
G0 X114.982 Y101.283
G1 F1500 X115.089 Y100.979 E36.22253
G1 X115.144 Y100.661 E36.23863
G1 X115.144 Y100.339 E36.2547
G1 X115.089 Y100.021 E36.2708
G1 X114.982 Y99.717 E36.28688
G1 X114.824 Y99.436 E36.30296
G1 X114.622 Y99.185 E36.31904
G1 X114.38 Y98.972 E36.33512
G1 X114.105 Y98.803 E36.35122
G1 X113.807 Y98.683 E36.36725
G1 X113.491 Y98.615 E36.38338
G1 X113.17 Y98.601 E36.39941
G1 X112.85 Y98.642 E36.4155
G1 X112.541 Y98.737 E36.43163
G1 X112.254 Y98.881 E36.44765
G1 X111.994 Y99.073 E36.46378
G1 X111.771 Y99.306 E36.47987
G1 X111.591 Y99.573 E36.49593
G1 X111.458 Y99.867 E36.51203
G1 X111.376 Y100.179 E36.52812
G1 X111.349 Y100.5 E36.5442
G1 X111.376 Y100.821 E36.56027
G1 X111.458 Y101.133 E36.57636
G1 X111.591 Y101.427 E36.59246
G1 X111.771 Y101.694 E36.60852
G1 X111.994 Y101.927 E36.62462
G1 X112.254 Y102.119 E36.64074
G1 X112.541 Y102.263 E36.65676
G1 X112.85 Y102.358 E36.67289
G1 X113.17 Y102.399 E36.68898
G1 X113.491 Y102.385 E36.70501
G1 X113.807 Y102.317 E36.72114
G1 X114.105 Y102.197 E36.73717
G1 X114.38 Y102.028 E36.75327
G1 X114.622 Y101.815 E36.76935
G1 X114.824 Y101.564 E36.78543
G1 X114.982 Y101.283 E36.80151
G0 F3600 X115.048 Y101.095
G0 X115.348 Y101.449
;TYPE:WALL-INNER
G1 F1500 X115.477 Y101.08 E36.82101
G1 X115.544 Y100.695 E36.84051
G1 X115.544 Y100.305 E36.85997
G1 X115.477 Y99.92 E36.87946
G1 X115.348 Y99.551 E36.89897
G1 X115.156 Y99.211 E36.91845
G1 X114.912 Y98.907 E36.93789
G1 X114.619 Y98.649 E36.95737
G1 X114.368 Y98.495 E36.97206
G1 X114.286 Y98.445 E36.97685
G1 X113.925 Y98.299 E36.99628
G1 X113.542 Y98.217 E37.01582
G1 X113.153 Y98.2 E37.03525
G1 X112.765 Y98.25 E37.05477
G1 X112.391 Y98.364 E37.07427
G1 X112.137 Y98.492 E37.08846
G1 X112.044 Y98.539 E37.09366
G1 X111.729 Y98.772 E37.11321
G1 X111.458 Y99.054 E37.13272
G1 X111.24 Y99.377 E37.15216
G1 X111.08 Y99.733 E37.17163
G1 X110.98 Y100.111 E37.19114
G1 X110.948 Y100.5 E37.21062
G1 X110.98 Y100.889 E37.23009
G1 X111.08 Y101.267 E37.2496
G1 X111.24 Y101.623 E37.26907
G1 X111.458 Y101.946 E37.28851
G1 X111.729 Y102.228 E37.30802
G1 X112.044 Y102.461 E37.32757
G1 X112.137 Y102.508 E37.33277
G1 X112.391 Y102.636 E37.34696
G1 X112.765 Y102.75 E37.36646
G1 X113.153 Y102.8 E37.38598
G1 X113.542 Y102.783 E37.40541
G1 X113.925 Y102.701 E37.42495
G1 X114.286 Y102.555 E37.44438
G1 X114.368 Y102.505 E37.44917
G1 X114.619 Y102.351 E37.46386
G1 X114.912 Y102.093 E37.48334
G1 X115.156 Y101.789 E37.50278
G1 X115.348 Y101.449 E37.52226
G0 F3600 X115.439 Y101.49
G0 X114.94 Y102.12
G0 X114.304 Y102.59
G0 X113.547 Y102.822
G0 X112.757 Y102.789
G0 X112.164 Y102.552
G0 X94.466 Y103.088
G0 X94.422 Y103.177
G1 F1500 X94.038 Y103.022 E37.54292
G1 X93.649 Y102.93 E37.56287
G1 X93.274 Y102.9 E37.58164
G1 X82.383 Y102.9 E38.12499
G1 X82.286 Y102.9 E38.12983
G1 X81.925 Y102.9 E38.14784
G1 X81.542 Y102.9 E38.16695
G1 X81.153 Y102.9 E38.18635
G1 X80.765 Y102.9 E38.20571
G1 X80.391 Y102.9 E38.22437
G1 X80.106 Y102.9 E38.23859
G1 X78.271 Y102.9 E38.33014
G1 X78.187 Y102.893 E38.33434
G1 X78.07 Y102.855 E38.34048
G1 X78.016 Y102.822 E38.34364
G1 X77.928 Y102.734 E38.34985
G1 X77.895 Y102.68 E38.353
G1 X77.871 Y102.621 E38.35618
G1 X77.857 Y102.563 E38.35916
G1 X77.85 Y102.48 E38.36331
